src/rc/ocio/aces2065_Inverse.cube
TITLE "ACES2065-1 to Linear sRGB LUT 65"
LUT_3D_SIZE 65
0.000000 0.000000 0.000000
0.157435 -0.019440 -0.001081
0.251301 -0.038880 -0.002163
0.321419 -0.058320 -0.003244
0.379525 -0.077760 -0.004325
0.430071 -0.097200 -0.005406
0.475309 -0.116640 -0.006488
0.516562 -0.136080 -0.007569
0.554684 -0.155520 -0.008650
0.590266 -0.174960 -0.009731
0.623733 -0.194400 -0.010813
0.655405 -0.213840 -0.011894
0.685529 -0.233280 -0.012975
0.714303 -0.252720 -0.014057
0.741882 -0.272160 -0.015138
0.768399 -0.291600 -0.016219
0.793959 -0.311040 -0.017300
0.818656 -0.330480 -0.018382
0.842565 -0.349920 -0.019463
0.865754 -0.369360 -0.020544
0.888282 -0.388800 -0.021625
0.910198 -0.408240 -0.022707
0.931547 -0.427680 -0.023788
0.952369 -0.447120 -0.024869
0.972699 -0.466560 -0.025950
0.992568 -0.486000 -0.027032
1.012004 -0.505440 -0.028113
1.031034 -0.524880 -0.029194
1.049679 -0.544320 -0.030276
1.067962 -0.563760 -0.031357
1.085901 -0.583200 -0.032438
1.103515 -0.602640 -0.033519
1.120818 -0.622080 -0.034601
1.137827 -0.641520 -0.035682
1.154554 -0.660960 -0.036763
1.171013 -0.680400 -0.037844
1.187216 -0.699840 -0.038926
1.203172 -0.719280 -0.040007
1.218893 -0.738720 -0.041088
1.234389 -0.758160 -0.042170
1.249667 -0.777600 -0.043251
1.264736 -0.797040 -0.044332
1.279605 -0.816480 -0.045413
1.294280 -0.835920 -0.046495
1.308769 -0.855360 -0.047576
1.323078 -0.874800 -0.048657
1.337212 -0.894240 -0.049738
1.351179 -0.913680 -0.050820
1.364984 -0.933120 -0.051901
1.378631 -0.952560 -0.052982
1.392125 -0.972000 -0.054064
1.405472 -0.991440 -0.055145
1.418676 -1.010880 -0.056226
1.431741 -1.030320 -0.057307
1.444671 -1.049760 -0.058389
1.457470 -1.069200 -0.059470
1.470142 -1.088640 -0.060551
1.482690 -1.108080 -0.061632
1.495117 -1.127520 -0.062714
1.507427 -1.146960 -0.063795
1.519623 -1.166400 -0.064876
1.531708 -1.185840 -0.065957
1.543684 -1.205280 -0.067039
1.555554 -1.224720 -0.068120
1.567321 -1.244160 -0.069201
-0.079744 0.096042 -0.010756
0.096988 0.077079 -0.011837
0.213362 0.057639 -0.012919
0.291787 0.038199 -0.014000
0.354518 0.018759 -0.015081
0.408100 -0.000681 -0.016162
0.455521 -0.020121 -0.017244
0.498439 -0.039561 -0.018325
0.537884 -0.059001 -0.019406
0.574547 -0.078441 -0.020488
0.608920 -0.097881 -0.021569
0.641365 -0.117321 -0.022650
0.672159 -0.136761 -0.023731
0.701518 -0.156201 -0.024813
0.729617 -0.175641 -0.025894
0.756597 -0.195081 -0.026975
0.782575 -0.214521 -0.028056
0.807650 -0.233961 -0.029138
0.831905 -0.253401 -0.030219
0.855410 -0.272841 -0.031300
0.878229 -0.292281 -0.032381
0.900414 -0.311721 -0.033463
0.922013 -0.331161 -0.034544
0.943067 -0.350601 -0.035625
0.963614 -0.370041 -0.036707
0.983687 -0.389481 -0.037788
1.003314 -0.408921 -0.038869
1.022524 -0.428361 -0.039950
1.041339 -0.447801 -0.041032
1.059783 -0.467241 -0.042113
1.077875 -0.486681 -0.043194
1.095632 -0.506121 -0.044275
1.113073 -0.525560 -0.045357
1.130213 -0.545000 -0.046438
1.147065 -0.564440 -0.047519
1.163643 -0.583880 -0.048601
1.179960 -0.603320 -0.049682
1.196026 -0.622760 -0.050763
1.211851 -0.642200 -0.051844
1.227447 -0.661640 -0.052926
1.242822 -0.681080 -0.054007
1.257984 -0.700520 -0.055088
1.272942 -0.719960 -0.056169
1.287704 -0.739400 -0.057251
1.302275 -0.758840 -0.058332
1.316664 -0.778280 -0.059413
1.330876 -0.797720 -0.060495
1.344918 -0.817160 -0.061576
1.358795 -0.836600 -0.062657
1.372512 -0.856040 -0.063738
1.386075 -0.875480 -0.064820
1.399488 -0.894920 -0.065901
1.412755 -0.914360 -0.066982
1.425882 -0.933800 -0.068063
1.438873 -0.953240 -0.069145
1.451730 -0.972680 -0.070226
1.464459 -0.992120 -0.071307
1.477062 -1.011560 -0.072388
1.489543 -1.031000 -0.073470
1.501905 -1.050440 -0.074551
1.514152 -1.069880 -0.075632
1.526286 -1.089320 -0.076714
1.538311 -1.108760 -0.077795
1.550228 -1.128200 -0.078876
1.562041 -1.147640 -0.079957
-0.159487 0.167435 -0.021512
0.017819 0.155008 -0.022593
0.168727 0.141790 -0.023675
0.259115 0.127618 -0.024756
0.327699 0.112271 -0.025837
0.384898 0.095422 -0.026919
0.434830 0.076399 -0.028000
0.479618 0.056959 -0.029081
0.520523 0.037519 -0.030162
0.558367 0.018079 -0.031244
0.593719 -0.001361 -0.032325
0.626992 -0.020801 -0.033406
0.658499 -0.040241 -0.034487
0.688479 -0.059681 -0.035569
0.717126 -0.079121 -0.036650
0.744593 -0.098561 -0.037731
0.771009 -0.118001 -0.038812
0.796479 -0.137441 -0.039894
0.821093 -0.156881 -0.040975
0.844927 -0.176321 -0.042056
0.868047 -0.195761 -0.043138
0.890511 -0.215201 -0.044219
0.912368 -0.234641 -0.045300
0.933663 -0.254081 -0.046381
0.954434 -0.273521 -0.047463
0.974716 -0.292961 -0.048544
0.994540 -0.312401 -0.049625
1.013935 -0.331841 -0.050706
1.032924 -0.351281 -0.051788
1.051533 -0.370721 -0.052869
1.069780 -0.390161 -0.053950
1.087686 -0.409601 -0.055032
1.105268 -0.429041 -0.056113
1.122541 -0.448481 -0.057194
1.139521 -0.467921 -0.058275
1.156220 -0.487361 -0.059357
1.172653 -0.506801 -0.060438
1.188830 -0.526241 -0.061519
1.204763 -0.545681 -0.062600
1.220461 -0.565121 -0.063682
1.235934 -0.584561 -0.064763
1.251191 -0.604001 -0.065844
1.266240 -0.623441 -0.066926
1.281088 -0.642881 -0.068007
1.295745 -0.662321 -0.069088
1.310215 -0.681761 -0.070169
1.324506 -0.701201 -0.071251
1.338624 -0.720641 -0.072332
1.352574 -0.740081 -0.073413
1.366362 -0.759521 -0.074494
1.379994 -0.778961 -0.075576
1.393473 -0.798401 -0.076657
1.406806 -0.817841 -0.077738
1.419996 -0.837281 -0.078819
1.433047 -0.856721 -0.079901
1.445964 -0.876161 -0.080982
1.458750 -0.895601 -0.082063
1.471409 -0.915041 -0.083145
1.483944 -0.934481 -0.084226
1.496360 -0.953921 -0.085307
1.508658 -0.973361 -0.086388
1.520843 -0.992801 -0.087470
1.532916 -1.012241 -0.088551
1.544881 -1.031681 -0.089632
1.556741 -1.051121 -0.090713
-0.239231 0.220767 -0.032268
-0.061925 0.210921 -0.033350
0.112355 0.200678 -0.034431
0.222317 0.189987 -0.035512
0.298643 0.178790 -0.036593
0.360250 0.167012 -0.037675
0.413110 0.154560 -0.038756
0.460017 0.141311 -0.039837
0.502547 0.127102 -0.040918
0.541685 0.111708 -0.042000
0.578098 0.094799 -0.043081
0.612263 0.075718 -0.044162
0.644530 0.056278 -0.045243
0.675171 0.036838 -0.046325
0.704397 0.017398 -0.047406
0.732377 -0.002042 -0.048487
0.759251 -0.021482 -0.049569
0.785135 -0.040922 -0.050650
0.810123 -0.060362 -0.051731
0.834300 -0.079802 -0.052812
0.857733 -0.099242 -0.053894
0.880486 -0.118682 -0.054975
0.902610 -0.138122 -0.056056
0.924153 -0.157562 -0.057137
0.945155 -0.177002 -0.058219
0.965652 -0.196442 -0.059300
0.985679 -0.215882 -0.060381
1.005263 -0.235322 -0.061463
1.024432 -0.254762 -0.062544
1.043209 -0.274202 -0.063625
1.061617 -0.293642 -0.064706
1.079674 -0.313082 -0.065788
1.097399 -0.332522 -0.066869
1.114809 -0.351962 -0.067950
1.131919 -0.371402 -0.069031
1.148743 -0.390842 -0.070113
1.165295 -0.410282 -0.071194
1.181585 -0.429722 -0.072275
1.197627 -0.449162 -0.073357
1.213429 -0.468602 -0.074438
1.229002 -0.488042 -0.075519
1.244355 -0.507482 -0.076600
1.259496 -0.526922 -0.077682
1.274434 -0.546362 -0.078763
1.289176 -0.565802 -0.079844
1.303729 -0.585242 -0.080925
1.318100 -0.604682 -0.082007
1.332295 -0.624122 -0.083088
1.346320 -0.643562 -0.084169
1.360181 -0.663002 -0.085250
1.373882 -0.682442 -0.086332
1.387429 -0.701882 -0.087413
1.400827 -0.721322 -0.088494
1.414081 -0.740762 -0.089576
1.427194 -0.760202 -0.090657
1.440171 -0.779642 -0.091738
1.453015 -0.799082 -0.092819
1.465731 -0.818522 -0.093901
1.478321 -0.837962 -0.094982
1.490790 -0.857402 -0.096063
1.503141 -0.876842 -0.097144
1.515376 -0.896282 -0.098226
1.527500 -0.915722 -0.099307
1.539513 -0.935162 -0.100388
1.551420 -0.954602 -0.101470
-0.318974 0.264962 -0.043024
-0.141668 0.256597 -0.044106
0.035638 0.247986 -0.045187
0.179465 0.239104 -0.046268
0.266726 0.229928 -0.047349
0.333868 0.220428 -0.048431
0.390200 0.210569 -0.049512
0.439538 0.200311 -0.050593
0.483888 0.189604 -0.051674
0.524454 0.178388 -0.052756
0.562025 0.166588 -0.053837
0.597151 0.154110 -0.054918
0.630234 0.140830 -0.056000
0.661577 0.126585 -0.057081
0.691416 0.111144 -0.058162
0.719937 0.094174 -0.059243
0.747294 0.075037 -0.060325
0.773610 0.055597 -0.061406
0.798990 0.036157 -0.062487
0.823522 0.016717 -0.063568
0.847282 -0.002723 -0.064650
0.870334 -0.022163 -0.065731
0.892735 -0.041603 -0.066812
0.914533 -0.061043 -0.067894
0.935773 -0.080483 -0.068975
0.956494 -0.099923 -0.070056
0.976728 -0.119363 -0.071137
0.996508 -0.138803 -0.072219
1.015861 -0.158243 -0.073300
1.034811 -0.177683 -0.074381
1.053383 -0.197123 -0.075462
1.071595 -0.216563 -0.076544
1.089467 -0.236003 -0.077625
1.107017 -0.255443 -0.078706
1.124260 -0.274883 -0.079787
1.141211 -0.294323 -0.080869
1.157884 -0.313763 -0.081950
1.174290 -0.333203 -0.083031
1.190442 -0.352643 -0.084113
1.206351 -0.372083 -0.085194
1.222026 -0.391523 -0.086275
1.237477 -0.410963 -0.087356
1.252712 -0.430403 -0.088438
1.267741 -0.449842 -0.089519
1.282570 -0.469282 -0.090600
1.297207 -0.488722 -0.091681
1.311659 -0.508162 -0.092763
1.325932 -0.527602 -0.093844
1.340033 -0.547042 -0.094925
1.353967 -0.566482 -0.096007
1.367739 -0.585922 -0.097088
1.381355 -0.605362 -0.098169
1.394820 -0.624802 -0.099250
1.408138 -0.644242 -0.100332
1.421313 -0.663682 -0.101413
1.434351 -0.683122 -0.102494
1.447254 -0.702562 -0.103575
1.460028 -0.722002 -0.104657
1.472674 -0.741442 -0.105738
1.485197 -0.760882 -0.106819
1.497601 -0.780322 -0.107901
1.509888 -0.799762 -0.108982
1.522061 -0.819202 -0.110063
1.534123 -0.838642 -0.111144
1.546078 -0.858082 -0.112226
-0.398718 0.303406 -0.053780
-0.221412 0.296030 -0.054862
-0.044106 0.288480 -0.055943
0.126465 0.280747 -0.057024
0.230977 0.272816 -0.058105
0.305358 0.264673 -0.059187
0.365897 0.256300 -0.060268
0.418060 0.247679 -0.061349
0.464470 0.238788 -0.062431
0.506620 0.229601 -0.063512
0.545458 0.220089 -0.064593
0.581627 0.210217 -0.065674
0.615586 0.199944 -0.066756
0.647679 0.189220 -0.067837
0.678169 0.177985 -0.068918
0.707262 0.166163 -0.069999
0.735126 0.153659 -0.071081
0.761896 0.140349 -0.072162
0.787685 0.126066 -0.073243
0.812589 0.110578 -0.074325
0.836687 0.093547 -0.075406
0.860050 0.074357 -0.076487
0.882737 0.054917 -0.077568
0.904801 0.035477 -0.078650
0.926287 0.016037 -0.079731
0.947237 -0.003403 -0.080812
0.967686 -0.022843 -0.081893
0.987667 -0.042283 -0.082975
1.007208 -0.061723 -0.084056
1.026337 -0.081163 -0.085137
1.045076 -0.100603 -0.086218
1.063447 -0.120043 -0.087300
1.081470 -0.139483 -0.088381
1.099163 -0.158923 -0.089462
1.116542 -0.178363 -0.090544
1.133623 -0.197803 -0.091625
1.150419 -0.217243 -0.092706
1.166944 -0.236683 -0.093787
1.183209 -0.256123 -0.094869
1.199225 -0.275563 -0.095950
1.215004 -0.295003 -0.097031
1.230555 -0.314443 -0.098112
1.245886 -0.333883 -0.099194
1.261007 -0.353323 -0.100275
1.275925 -0.372763 -0.101356
1.290647 -0.392203 -0.102438
1.305182 -0.411643 -0.103519
1.319535 -0.431083 -0.104600
1.333712 -0.450523 -0.105681
1.347720 -0.469963 -0.106763
1.361565 -0.489403 -0.107844
1.375250 -0.508843 -0.108925
1.388783 -0.528283 -0.110006
1.402166 -0.547723 -0.111088
1.415405 -0.567163 -0.112169
1.428504 -0.586603 -0.113250
1.441467 -0.606043 -0.114332
1.454299 -0.625483 -0.115413
1.467002 -0.644923 -0.116494
1.479580 -0.664363 -0.117575
1.492037 -0.683803 -0.118657
1.504376 -0.703243 -0.119738
1.516600 -0.722683 -0.120819
1.528712 -0.742123 -0.121900
1.540715 -0.761563 -0.122982
-0.478462 0.337814 -0.064536
-0.301155 0.331154 -0.065618
-0.123849 0.324365 -0.066699
0.053457 0.317440 -0.067780
0.189720 0.310372 -0.068862
0.274149 0.303151 -0.069943
0.339932 0.295768 -0.071024
0.395432 0.288213 -0.072105
0.444196 0.280473 -0.073187
0.488121 0.272534 -0.074268
0.528354 0.264383 -0.075349
0.565658 0.256003 -0.076430
0.600562 0.247373 -0.077512
0.633458 0.238472 -0.078593
0.664640 0.229274 -0.079674
0.694339 0.219750 -0.080756
0.722737 0.209865 -0.081837
0.749984 0.199577 -0.082918
0.776201 0.188836 -0.083999
0.801492 0.177582 -0.085081
0.825944 0.165738 -0.086162
0.849629 0.153208 -0.087243
0.872614 0.139866 -0.088324
0.894952 0.125546 -0.089406
0.916692 0.110010 -0.090487
0.937879 0.092917 -0.091568
0.958549 0.073676 -0.092649
0.978736 0.054236 -0.093731
0.998472 0.034796 -0.094812
1.017783 0.015356 -0.095893
1.036695 -0.004084 -0.096975
1.055229 -0.023524 -0.098056
1.073406 -0.042964 -0.099137
1.091245 -0.062404 -0.100218
1.108764 -0.081844 -0.101300
1.125977 -0.101284 -0.102381
1.142899 -0.120724 -0.103462
1.159544 -0.140164 -0.104543
1.175925 -0.159604 -0.105625
1.192052 -0.179044 -0.106706
1.207936 -0.198484 -0.107787
1.223589 -0.217924 -0.108869
1.239017 -0.237364 -0.109950
1.254232 -0.256804 -0.111031
1.269240 -0.276244 -0.112112
1.284050 -0.295684 -0.113194
1.298668 -0.315124 -0.114275
1.313102 -0.334564 -0.115356
1.327357 -0.354004 -0.116437
1.341441 -0.373444 -0.117519
1.355358 -0.392884 -0.118600
1.369114 -0.412324 -0.119681
1.382715 -0.431764 -0.120763
1.396165 -0.451204 -0.121844
1.409468 -0.470644 -0.122925
1.422630 -0.490084 -0.124006
1.435654 -0.509524 -0.125088
1.448544 -0.528964 -0.126169
1.461304 -0.548404 -0.127250
1.473938 -0.567844 -0.128331
1.486449 -0.587284 -0.129413
1.498841 -0.606724 -0.130494
1.511116 -0.626164 -0.131575
1.523278 -0.645604 -0.132656
1.535330 -0.665044 -0.133738
-0.558205 0.369190 -0.075293
-0.380899 0.363080 -0.076374
-0.203593 0.356869 -0.077455
-0.026287 0.350552 -0.078536
0.139570 0.344126 -0.079618
0.239368 0.337583 -0.080699
0.311939 0.330918 -0.081780
0.371461 0.324125 -0.082861
0.422953 0.317195 -0.083943
0.468879 0.310122 -0.085024
0.510661 0.302895 -0.086105
0.549205 0.295507 -0.087187
0.585133 0.287945 -0.088268
0.618891 0.280198 -0.089349
0.650812 0.272253 -0.090430
0.681153 0.264094 -0.091512
0.710116 0.255705 -0.092593
0.737864 0.247066 -0.093674
0.764530 0.238155 -0.094755
0.790226 0.228946 -0.095837
0.815046 0.219410 -0.096918
0.839067 0.209511 -0.097999
0.862360 0.199209 -0.099080
0.884982 0.188451 -0.100162
0.906986 0.177178 -0.101243
0.928416 0.165311 -0.102324
0.949314 0.152755 -0.103406
0.969715 0.139383 -0.104487
0.989650 0.125024 -0.105568
1.009149 0.109441 -0.106649
1.028237 0.092284 -0.107731
1.046938 0.072995 -0.108812
1.065274 0.053555 -0.109893
1.083263 0.034115 -0.110974
1.100923 0.014675 -0.112056
1.118272 -0.004765 -0.113137
1.135323 -0.024205 -0.114218
1.152092 -0.043645 -0.115300
1.168590 -0.063085 -0.116381
1.184829 -0.082525 -0.117462
1.200822 -0.101965 -0.118543
1.216577 -0.121405 -0.119625
1.232105 -0.140845 -0.120706
1.247415 -0.160285 -0.121787
1.262515 -0.179725 -0.122868
1.277413 -0.199165 -0.123950
1.292116 -0.218605 -0.125031
1.306632 -0.238045 -0.126112
1.320967 -0.257485 -0.127194
1.335128 -0.276925 -0.128275
1.349119 -0.296365 -0.129356
1.362947 -0.315805 -0.130437
1.376617 -0.335245 -0.131519
1.390134 -0.354685 -0.132600
1.403503 -0.374124 -0.133681
1.416728 -0.393564 -0.134762
1.429813 -0.413004 -0.135844
1.442763 -0.432444 -0.136925
1.455581 -0.451884 -0.138006
1.468271 -0.471324 -0.139087
1.480837 -0.490764 -0.140169
1.493282 -0.510204 -0.141250
1.505610 -0.529644 -0.142331
1.517822 -0.549084 -0.143413
1.529923 -0.568524 -0.144494
-0.637949 0.398186 -0.086049
-0.460643 0.392514 -0.087130
-0.283337 0.386760 -0.088211
-0.106031 0.380922 -0.089292
0.071276 0.374996 -0.090374
0.199547 0.368978 -0.091455
0.281395 0.362864 -0.092536
0.345895 0.356649 -0.093618
0.400597 0.350329 -0.094699
0.448806 0.343898 -0.095780
0.492316 0.337352 -0.096861
0.532226 0.330682 -0.097943
0.569266 0.323884 -0.099024
0.603954 0.316950 -0.100105
0.636665 0.309871 -0.101186
0.667689 0.302639 -0.102268
0.697249 0.295245 -0.103349
0.725525 0.287677 -0.104430
0.752663 0.279923 -0.105511
0.778783 0.271971 -0.106593
0.803986 0.263804 -0.107674
0.828358 0.255407 -0.108755
0.851970 0.246758 -0.109837
0.874887 0.237837 -0.110918
0.897163 0.228618 -0.111999
0.918846 0.219070 -0.113080
0.939979 0.209158 -0.114162
0.960599 0.198840 -0.115243
0.980740 0.188065 -0.116324
1.000431 0.176773 -0.117405
1.019701 0.164884 -0.118487
1.038574 0.152302 -0.119568
1.057071 0.138898 -0.120649
1.075214 0.124500 -0.121731
1.093020 0.108869 -0.122812
1.110507 0.091649 -0.123893
1.127690 0.072315 -0.124974
1.144584 0.052875 -0.126056
1.161202 0.033435 -0.127137
1.177557 0.013995 -0.128218
1.193659 -0.005445 -0.129299
1.209520 -0.024885 -0.130381
1.225149 -0.044325 -0.131462
1.240556 -0.063765 -0.132543
1.255749 -0.083205 -0.133625
1.270737 -0.102645 -0.134706
1.285527 -0.122085 -0.135787
1.300127 -0.141525 -0.136868
1.314542 -0.160965 -0.137950
1.328780 -0.180405 -0.139031
1.342847 -0.199845 -0.140112
1.356748 -0.219285 -0.141193
1.370488 -0.238725 -0.142275
1.384074 -0.258165 -0.143356
1.397508 -0.277605 -0.144437
1.410797 -0.297045 -0.145518
1.423945 -0.316485 -0.146600
1.436955 -0.335925 -0.147681
1.449832 -0.355365 -0.148762
1.462579 -0.374805 -0.149844
1.475201 -0.394245 -0.150925
1.487700 -0.413685 -0.152006
1.500080 -0.433125 -0.153087
1.512343 -0.452565 -0.154169
1.524494 -0.472005 -0.155250
-0.717692 0.425249 -0.096805
-0.540386 0.419937 -0.097886
-0.363080 0.414557 -0.098967
-0.185774 0.409108 -0.100049
-0.008468 0.403586 -0.101130
0.151850 0.397989 -0.102211
0.247512 0.392314 -0.103292
0.318394 0.386557 -0.104374
0.376945 0.380716 -0.105455
0.427791 0.374787 -0.106536
0.473247 0.368766 -0.107617
0.514668 0.362648 -0.108699
0.552925 0.356430 -0.109780
0.588618 0.350106 -0.110861
0.622177 0.343671 -0.111942
0.653929 0.337120 -0.113024
0.684123 0.330447 -0.114105
0.712957 0.323644 -0.115186
0.740590 0.316704 -0.116268
0.767155 0.309621 -0.117349
0.792759 0.302383 -0.118430
0.817495 0.294983 -0.119511
0.841440 0.287409 -0.120593
0.864662 0.279648 -0.121674
0.887220 0.271689 -0.122755
0.909164 0.263514 -0.123836
0.930540 0.255108 -0.124918
0.951386 0.246451 -0.125999
0.971739 0.237520 -0.127080
0.991629 0.228289 -0.128162
1.011085 0.218729 -0.129243
1.030134 0.208804 -0.130324
1.048797 0.198471 -0.131405
1.067097 0.187679 -0.132487
1.085052 0.176367 -0.133568
1.102681 0.164456 -0.134649
1.119999 0.151847 -0.135730
1.137021 0.138412 -0.136812
1.153762 0.123976 -0.137893
1.170233 0.108296 -0.138974
1.186448 0.091011 -0.140056
1.202416 0.071634 -0.141137
1.218148 0.052194 -0.142218
1.233654 0.032754 -0.143299
1.248942 0.013314 -0.144381
1.264021 -0.006126 -0.145462
1.278899 -0.025566 -0.146543
1.293584 -0.045006 -0.147624
1.308081 -0.064446 -0.148706
1.322398 -0.083886 -0.149787
1.336541 -0.103326 -0.150868
1.350516 -0.122766 -0.151949
1.364328 -0.142206 -0.153031
1.377982 -0.161646 -0.154112
1.391484 -0.181086 -0.155193
1.404838 -0.200526 -0.156275
1.418049 -0.219966 -0.157356
1.431120 -0.239406 -0.158437
1.444057 -0.258846 -0.159518
1.456862 -0.278286 -0.160600
1.469540 -0.297726 -0.161681
1.482093 -0.317166 -0.162762
1.494526 -0.336606 -0.163843
1.506842 -0.356046 -0.164925
1.519043 -0.375486 -0.166006
-0.797436 0.450703 -0.107561
-0.620130 0.445693 -0.108642
-0.442824 0.440626 -0.109723
-0.265518 0.435500 -0.110805
-0.088212 0.430314 -0.111886
0.089142 0.425064 -0.112967
0.208994 0.419749 -0.114048
0.288476 0.414367 -0.115130
0.351762 0.408915 -0.116211
0.405698 0.403391 -0.117292
0.453369 0.397791 -0.118373
0.496475 0.392114 -0.119455
0.536068 0.386354 -0.120536
0.572852 0.380510 -0.121617
0.607325 0.374578 -0.122699
0.639855 0.368553 -0.123780
0.670722 0.362432 -0.124861
0.700146 0.356210 -0.125942
0.728302 0.349882 -0.127024
0.755332 0.343444 -0.128105
0.781356 0.336889 -0.129186
0.806472 0.330211 -0.130267
0.830764 0.323403 -0.131349
0.854304 0.316459 -0.132430
0.877154 0.309370 -0.133511
0.899368 0.302127 -0.134593
0.920994 0.294721 -0.135674
0.942074 0.287140 -0.136755
0.962644 0.279373 -0.137836
0.982738 0.271406 -0.138918
1.002387 0.263224 -0.139999
1.021616 0.254809 -0.141080
1.040449 0.246143 -0.142161
1.058910 0.237202 -0.143243
1.077018 0.227960 -0.144324
1.094792 0.218388 -0.145405
1.112247 0.208449 -0.146487
1.129401 0.198101 -0.147568
1.146267 0.187292 -0.148649
1.162858 0.175960 -0.149730
1.179186 0.164027 -0.150812
1.195264 0.151391 -0.151893
1.211101 0.137924 -0.152974
1.226707 0.123449 -0.154055
1.242092 0.107720 -0.155137
1.257265 0.090371 -0.156218
1.272232 0.070953 -0.157299
1.287003 0.051513 -0.158380
1.301584 0.032073 -0.159462
1.315981 0.012633 -0.160543
1.330202 -0.006807 -0.161624
1.344251 -0.026247 -0.162706
1.358136 -0.045687 -0.163787
1.371861 -0.065127 -0.164868
1.385430 -0.084567 -0.165949
1.398850 -0.104007 -0.167031
1.412125 -0.123447 -0.168112
1.425259 -0.142887 -0.169193
1.438255 -0.162327 -0.170274
1.451119 -0.181767 -0.171356
1.463854 -0.201207 -0.172437
1.476463 -0.220647 -0.173518
1.488949 -0.240087 -0.174600
1.501317 -0.259527 -0.175681
1.513570 -0.278967 -0.176762
-0.877179 0.474793 -0.118317
-0.699873 0.470041 -0.119398
-0.522567 0.465240 -0.120479
-0.345261 0.460389 -0.121561
-0.167955 0.455486 -0.122642
0.009351 0.450529 -0.123723
0.163435 0.445517 -0.124804
0.255428 0.440448 -0.125886
0.324729 0.435320 -0.126967
0.382354 0.430131 -0.128048
0.432575 0.424879 -0.129130
0.477575 0.419562 -0.130211
0.518645 0.414178 -0.131292
0.556620 0.408723 -0.132373
0.592081 0.403196 -0.133455
0.625445 0.397594 -0.134536
0.657030 0.391913 -0.135617
0.687079 0.386151 -0.136698
0.715786 0.380304 -0.137780
0.743306 0.374368 -0.138861
0.769770 0.368341 -0.139942
0.795283 0.362216 -0.141024
0.819936 0.355990 -0.142105
0.843805 0.349659 -0.143186
0.866959 0.343216 -0.144267
0.889453 0.336657 -0.145349
0.911338 0.329975 -0.146430
0.932658 0.323162 -0.147511
0.953453 0.316213 -0.148592
0.973758 0.309119 -0.149674
0.993603 0.301870 -0.150755
1.013018 0.294458 -0.151836
1.032026 0.286871 -0.152918
1.050652 0.279098 -0.153999
1.068917 0.271123 -0.155080
1.086838 0.262933 -0.156161
1.104435 0.254510 -0.157243
1.121723 0.245835 -0.158324
1.138716 0.236884 -0.159405
1.155429 0.227631 -0.160486
1.171874 0.218046 -0.161568
1.188063 0.208094 -0.162649
1.204007 0.197731 -0.163730
1.219716 0.186905 -0.164811
1.235200 0.175553 -0.165893
1.250467 0.163597 -0.166974
1.265525 0.150935 -0.168055
1.280384 0.137436 -0.169137
1.295049 0.122922 -0.170218
1.309528 0.107143 -0.171299
1.323827 0.089728 -0.172380
1.337953 0.070273 -0.173462
1.351911 0.050833 -0.174543
1.365707 0.031393 -0.175624
1.379346 0.011953 -0.176705
1.392833 -0.007487 -0.177787
1.406172 -0.026927 -0.178868
1.419369 -0.046367 -0.179949
1.432427 -0.065807 -0.181031
1.445350 -0.085247 -0.182112
1.458142 -0.104687 -0.183193
1.470807 -0.124127 -0.184274
1.483348 -0.143567 -0.185356
1.495769 -0.163007 -0.186437
1.508073 -0.182447 -0.187518
-0.956923 0.497705 -0.129073
-0.779617 0.493178 -0.130154
-0.602311 0.488607 -0.131235
-0.425005 0.483993 -0.132317
-0.247699 0.479333 -0.133398
-0.070393 0.474627 -0.134479
0.105229 0.469874 -0.135561
0.218100 0.465071 -0.136642
0.295403 0.460218 -0.137723
0.357537 0.455313 -0.138804
0.410736 0.450354 -0.139886
0.457886 0.445340 -0.140967
0.500599 0.440269 -0.142048
0.539882 0.435139 -0.143129
0.576414 0.429948 -0.144211
0.610677 0.424694 -0.145292
0.643028 0.419375 -0.146373
0.673741 0.413988 -0.147455
0.703030 0.408531 -0.148536
0.731067 0.403001 -0.149617
0.757991 0.397396 -0.150698
0.783920 0.391713 -0.151780
0.808949 0.385948 -0.152861
0.833162 0.380098 -0.153942
0.856630 0.374159 -0.155023
0.879414 0.368128 -0.156105
0.901567 0.362000 -0.157186
0.923136 0.355771 -0.158267
0.944163 0.349435 -0.159349
0.964684 0.342989 -0.160430
0.984733 0.336425 -0.161511
1.004338 0.329738 -0.162592
1.023526 0.322921 -0.163674
1.042321 0.315967 -0.164755
1.060746 0.308868 -0.165836
1.078819 0.301614 -0.166917
1.096560 0.294196 -0.167999
1.113985 0.286602 -0.169080
1.131109 0.278822 -0.170161
1.147946 0.270840 -0.171242
1.164510 0.262642 -0.172324
1.180813 0.254211 -0.173405
1.196866 0.245526 -0.174486
1.212679 0.236565 -0.175568
1.228263 0.227301 -0.176649
1.243627 0.217704 -0.177730
1.258778 0.207738 -0.178811
1.273726 0.197360 -0.179893
1.288477 0.186517 -0.180974
1.303039 0.175145 -0.182055
1.317418 0.163166 -0.183136
1.331621 0.150477 -0.184218
1.345654 0.136946 -0.185299
1.359522 0.122392 -0.186380
1.373231 0.106563 -0.187462
1.386786 0.089082 -0.188543
1.400191 0.069592 -0.189624
