src/rc/ocio/aces2065_Forward.cube
TITLE "ACES2065-1 to Linear sRGB LUT 65"
LUT_3D_SIZE 65
0.000000 0.000000 0.000000
0.001527 0.000312 0.000061
0.003053 0.000623 0.000122
0.004580 0.000935 0.000183
0.006106 0.001247 0.000244
0.007633 0.001559 0.000305
0.009185 0.001876 0.000366
0.010922 0.002230 0.000436
0.012826 0.002619 0.000512
0.014899 0.003043 0.000594
0.017145 0.003501 0.000684
0.019565 0.003995 0.000781
0.022161 0.004526 0.000884
0.024937 0.005092 0.000995
0.027894 0.005696 0.001113
0.031034 0.006337 0.001238
0.034359 0.007016 0.001371
0.037871 0.007734 0.001511
0.041572 0.008489 0.001659
0.045464 0.009284 0.001814
0.049548 0.010118 0.001977
0.053826 0.010992 0.002148
0.058300 0.011905 0.002326
0.062971 0.012859 0.002513
0.067841 0.013854 0.002707
0.072911 0.014889 0.002909
0.078182 0.015965 0.003119
0.083657 0.017083 0.003338
0.089336 0.018243 0.003564
0.095221 0.019445 0.003799
0.101313 0.020689 0.004042
0.107614 0.021976 0.004294
0.114124 0.023305 0.004554
0.120845 0.024678 0.004822
0.127778 0.026093 0.005098
0.134925 0.027553 0.005383
0.142286 0.029056 0.005677
0.149862 0.030603 0.005979
0.157656 0.032195 0.006290
0.165667 0.033830 0.006610
0.173897 0.035511 0.006938
0.182347 0.037237 0.007276
0.191018 0.039007 0.007622
0.199911 0.040823 0.007976
0.209028 0.042685 0.008340
0.218368 0.044592 0.008713
0.227933 0.046546 0.009094
0.237725 0.048545 0.009485
0.247743 0.050591 0.009885
0.257989 0.052683 0.010294
0.268464 0.054822 0.010712
0.279169 0.057008 0.011139
0.290105 0.059242 0.011575
0.301272 0.061522 0.012021
0.312671 0.063850 0.012475
0.324304 0.066225 0.012940
0.336171 0.068649 0.013413
0.348272 0.071120 0.013896
0.360610 0.073639 0.014388
0.373184 0.076207 0.014890
0.385996 0.078823 0.015401
0.399046 0.081488 0.015922
0.412335 0.084202 0.016452
0.425864 0.086965 0.016992
0.439633 0.089776 0.017541
0.001330 0.002824 0.000387
0.002856 0.003136 0.000448
0.004383 0.003448 0.000509
0.005909 0.003760 0.000570
0.007436 0.004071 0.000631
0.008962 0.004383 0.000692
0.010515 0.004700 0.000754
0.012252 0.005055 0.000823
0.014156 0.005444 0.000899
0.016229 0.005867 0.000982
0.018475 0.006326 0.001071
0.020894 0.006820 0.001168
0.023491 0.007350 0.001272
0.026267 0.007917 0.001382
0.029224 0.008521 0.001500
0.032364 0.009162 0.001626
0.035689 0.009841 0.001758
0.039201 0.010558 0.001898
0.042902 0.011314 0.002046
0.046794 0.012109 0.002201
0.050878 0.012943 0.002364
0.055156 0.013816 0.002535
0.059630 0.014730 0.002713
0.064301 0.015684 0.002900
0.069171 0.016678 0.003094
0.074241 0.017713 0.003296
0.079512 0.018790 0.003507
0.084987 0.019908 0.003725
0.090666 0.021068 0.003952
0.096551 0.022269 0.004187
0.102643 0.023513 0.004430
0.108944 0.024800 0.004681
0.115454 0.026129 0.004941
0.122175 0.027502 0.005209
0.129108 0.028918 0.005486
0.136255 0.030377 0.005771
0.143616 0.031880 0.006064
0.151192 0.033428 0.006367
0.158986 0.035019 0.006678
0.166997 0.036655 0.006997
0.175227 0.038336 0.007326
0.183677 0.040061 0.007663
0.192348 0.041832 0.008009
0.201241 0.043648 0.008364
0.210357 0.045509 0.008727
0.219698 0.047417 0.009100
0.229263 0.049370 0.009482
0.239054 0.051370 0.009872
0.249073 0.053415 0.010272
0.259319 0.055508 0.010681
0.269794 0.057647 0.011099
0.280499 0.059833 0.011526
0.291434 0.062066 0.011962
0.302601 0.064346 0.012408
0.314001 0.066674 0.012863
0.325634 0.069050 0.013327
0.337500 0.071473 0.013800
0.349602 0.073944 0.014283
0.361940 0.076464 0.014776
0.374514 0.079032 0.015277
0.387326 0.081648 0.015788
0.400376 0.084313 0.016309
0.413665 0.087026 0.016839
0.427193 0.089789 0.017379
0.440963 0.092601 0.017928
0.002660 0.005649 0.000775
0.004186 0.005961 0.000836
0.005713 0.006272 0.000896
0.007239 0.006584 0.000957
0.008766 0.006896 0.001018
0.010292 0.007208 0.001079
0.011845 0.007525 0.001141
0.013582 0.007879 0.001210
0.015486 0.008268 0.001286
0.017559 0.008691 0.001369
0.019804 0.009150 0.001459
0.022224 0.009644 0.001555
0.024821 0.010174 0.001659
0.027597 0.010741 0.001770
0.030553 0.011345 0.001888
0.033693 0.011986 0.002013
0.037019 0.012665 0.002146
0.040531 0.013382 0.002286
0.044232 0.014138 0.002433
0.048124 0.014933 0.002589
0.052208 0.015767 0.002752
0.056486 0.016641 0.002922
0.060960 0.017554 0.003101
0.065631 0.018508 0.003287
0.070501 0.019503 0.003481
0.075571 0.020538 0.003684
0.080842 0.021614 0.003894
0.086317 0.022732 0.004113
0.091996 0.023892 0.004339
0.097881 0.025094 0.004574
0.103973 0.026338 0.004817
0.110274 0.027624 0.005068
0.116784 0.028954 0.005328
0.123505 0.030326 0.005596
0.130438 0.031742 0.005873
0.137585 0.033202 0.006158
0.144945 0.034705 0.006452
0.152522 0.036252 0.006754
0.160315 0.037843 0.007065
0.168327 0.039479 0.007385
0.176557 0.041160 0.007713
0.185007 0.042886 0.008050
0.193678 0.044656 0.008396
0.202571 0.046472 0.008751
0.211687 0.048334 0.009115
0.221028 0.050241 0.009487
0.230593 0.052195 0.009869
0.240384 0.054194 0.010260
0.250403 0.056240 0.010659
0.260649 0.058332 0.011068
0.271124 0.060471 0.011486
0.281829 0.062657 0.011913
0.292764 0.064890 0.012350
0.303931 0.067171 0.012795
0.315331 0.069499 0.013250
0.326963 0.071874 0.013714
0.338830 0.074298 0.014188
0.350932 0.076769 0.014671
0.363270 0.079288 0.015163
0.375844 0.081856 0.015665
0.388656 0.084472 0.016176
0.401706 0.087137 0.016696
0.414994 0.089851 0.017227
0.428523 0.092614 0.017766
0.442293 0.095425 0.018316
0.003989 0.008473 0.001162
0.005516 0.008785 0.001223
0.007042 0.009097 0.001284
0.008569 0.009408 0.001345
0.010095 0.009720 0.001406
0.011622 0.010032 0.001466
0.013175 0.010349 0.001528
0.014912 0.010704 0.001598
0.016815 0.011092 0.001674
0.018889 0.011516 0.001756
0.021134 0.011974 0.001846
0.023554 0.012469 0.001943
0.026151 0.012999 0.002046
0.028926 0.013566 0.002157
0.031883 0.014169 0.002275
0.035023 0.014811 0.002400
0.038348 0.015490 0.002533
0.041861 0.016207 0.002673
0.045562 0.016963 0.002821
0.049454 0.017757 0.002976
0.053538 0.018591 0.003139
0.057816 0.019465 0.003310
0.062290 0.020379 0.003488
0.066961 0.021333 0.003674
0.071830 0.022327 0.003869
0.076900 0.023362 0.004071
0.082172 0.024439 0.004281
0.087647 0.025557 0.004500
0.093326 0.026716 0.004726
0.099211 0.027918 0.004961
0.105303 0.029162 0.005204
0.111603 0.030449 0.005456
0.118114 0.031778 0.005715
0.124835 0.033151 0.005984
0.131768 0.034567 0.006260
0.138914 0.036026 0.006545
0.146275 0.037529 0.006839
0.153852 0.039076 0.007141
0.161645 0.040668 0.007452
0.169656 0.042304 0.007772
0.177887 0.043984 0.008100
0.186337 0.045710 0.008438
0.195008 0.047481 0.008783
0.203901 0.049297 0.009138
0.213017 0.051158 0.009502
0.222357 0.053066 0.009875
0.231923 0.055019 0.010256
0.241714 0.057019 0.010647
0.251732 0.059064 0.011047
0.261979 0.061157 0.011456
0.272454 0.063296 0.011874
0.283159 0.065482 0.012301
0.294094 0.067715 0.012737
0.305261 0.069995 0.013183
0.316661 0.072323 0.013637
0.328293 0.074699 0.014102
0.340160 0.077122 0.014575
0.352262 0.079593 0.015058
0.364599 0.082113 0.015550
0.377174 0.084680 0.016052
0.389985 0.087297 0.016563
0.403035 0.089962 0.017084
0.416324 0.092675 0.017614
0.429853 0.095438 0.018154
0.443622 0.098250 0.018703
0.005319 0.011298 0.001549
0.006846 0.011609 0.001610
0.008372 0.011921 0.001671
0.009899 0.012233 0.001732
0.011425 0.012545 0.001793
0.012952 0.012856 0.001854
0.014504 0.013173 0.001916
0.016241 0.013528 0.001985
0.018145 0.013917 0.002061
0.020219 0.014340 0.002144
0.022464 0.014799 0.002233
0.024884 0.015293 0.002330
0.027481 0.015823 0.002433
0.030256 0.016390 0.002544
0.033213 0.016994 0.002662
0.036353 0.017635 0.002787
0.039678 0.018314 0.002920
0.043191 0.019031 0.003060
0.046892 0.019787 0.003208
0.050783 0.020582 0.003363
0.054868 0.021416 0.003526
0.059146 0.022290 0.003697
0.063619 0.023203 0.003875
0.068290 0.024157 0.004062
0.073160 0.025151 0.004256
0.078230 0.026187 0.004458
0.083502 0.027263 0.004669
0.088976 0.028381 0.004887
0.094656 0.029541 0.005114
0.100541 0.030743 0.005349
0.106633 0.031987 0.005592
0.112933 0.033273 0.005843
0.119443 0.034603 0.006103
0.126164 0.035975 0.006371
0.133098 0.037391 0.006648
0.140244 0.038850 0.006933
0.147605 0.040354 0.007226
0.155182 0.041901 0.007529
0.162975 0.043492 0.007840
0.170986 0.045128 0.008159
0.179216 0.046809 0.008488
0.187666 0.048534 0.008825
0.196338 0.050305 0.009171
0.205231 0.052121 0.009526
0.214347 0.053983 0.009889
0.223687 0.055890 0.010262
0.233253 0.057844 0.010644
0.243044 0.059843 0.011034
0.253062 0.061889 0.011434
0.263309 0.063981 0.011843
0.273784 0.066120 0.012261
0.284488 0.068306 0.012688
0.295424 0.070539 0.013124
0.306591 0.072820 0.013570
0.317990 0.075148 0.014025
0.329623 0.077523 0.014489
0.341490 0.079946 0.014962
0.353592 0.082418 0.015445
0.365929 0.084937 0.015937
0.378504 0.087505 0.016439
0.391315 0.090121 0.016950
0.404365 0.092786 0.017471
0.417654 0.095500 0.018001
0.431183 0.098262 0.018541
0.444952 0.101074 0.019090
0.006649 0.014122 0.001937
0.008176 0.014434 0.001997
0.009702 0.014746 0.002058
0.011229 0.015057 0.002119
0.012755 0.015369 0.002180
0.014282 0.015681 0.002241
0.015834 0.015998 0.002303
0.017571 0.016353 0.002372
0.019475 0.016741 0.002448
0.021548 0.017165 0.002531
0.023794 0.017623 0.002621
0.026214 0.018117 0.002717
0.028810 0.018648 0.002821
0.031586 0.019215 0.002932
0.034543 0.019818 0.003050
0.037683 0.020460 0.003175
0.041008 0.021139 0.003307
0.044520 0.021856 0.003448
0.048221 0.022612 0.003595
0.052113 0.023406 0.003751
0.056197 0.024240 0.003914
0.060476 0.025114 0.004084
0.064949 0.026028 0.004263
0.069620 0.026981 0.004449
0.074490 0.027976 0.004643
0.079560 0.029011 0.004846
0.084832 0.030088 0.005056
0.090306 0.031206 0.005274
0.095985 0.032365 0.005501
0.101870 0.033567 0.005736
0.107962 0.034811 0.005979
0.114263 0.036098 0.006230
0.120773 0.037427 0.006490
0.127494 0.038800 0.006758
0.134427 0.040216 0.007035
0.141574 0.041675 0.007320
0.148935 0.043178 0.007614
0.156512 0.044725 0.007916
0.164305 0.046317 0.008227
0.172316 0.047953 0.008547
0.180546 0.049633 0.008875
0.188996 0.051359 0.009212
0.197667 0.053130 0.009558
0.206560 0.054946 0.009913
0.215677 0.056807 0.010277
0.225017 0.058715 0.010649
0.234582 0.060668 0.011031
0.244374 0.062667 0.011422
0.254392 0.064713 0.011821
0.264638 0.066806 0.012230
0.275113 0.068945 0.012648
0.285818 0.071131 0.013075
0.296754 0.073364 0.013512
0.307921 0.075644 0.013957
0.319320 0.077972 0.014412
0.330953 0.080348 0.014876
0.342820 0.082771 0.015350
0.354922 0.085242 0.015832
0.367259 0.087762 0.016325
0.379833 0.090329 0.016826
0.392645 0.092946 0.017338
0.405695 0.095610 0.017858
0.418984 0.098324 0.018389
0.432513 0.101087 0.018928
0.446282 0.103899 0.019478
0.008002 0.016995 0.002330
0.009528 0.017307 0.002391
0.011055 0.017618 0.002452
0.012581 0.017930 0.002513
0.014108 0.018242 0.002574
0.015634 0.018553 0.002635
0.017187 0.018871 0.002697
0.018924 0.019225 0.002766
0.020828 0.019614 0.002842
0.022901 0.020037 0.002925
0.025146 0.020496 0.003015
0.027566 0.020990 0.003111
0.030163 0.021520 0.003215
0.032939 0.022087 0.003325
0.035895 0.022691 0.003443
0.039035 0.023332 0.003569
0.042361 0.024011 0.003701
0.045873 0.024728 0.003842
0.049574 0.025484 0.003989
0.053466 0.026279 0.004144
0.057550 0.027113 0.004307
0.061828 0.027987 0.004478
0.066302 0.028900 0.004657
0.070973 0.029854 0.004843
0.075843 0.030849 0.005037
0.080912 0.031884 0.005240
0.086184 0.032960 0.005450
0.091659 0.034078 0.005668
0.097338 0.035238 0.005895
0.103223 0.036440 0.006130
0.109315 0.037684 0.006373
0.115616 0.038970 0.006624
0.122126 0.040300 0.006884
0.128847 0.041672 0.007152
0.135780 0.043088 0.007429
0.142927 0.044548 0.007714
0.150287 0.046051 0.008008
0.157864 0.047598 0.008310
0.165657 0.049189 0.008621
0.173669 0.050825 0.008941
0.181899 0.052506 0.009269
0.190349 0.054232 0.009606
0.199020 0.056002 0.009952
0.207913 0.057818 0.010307
0.217029 0.059680 0.010671
0.226370 0.061587 0.011043
0.235935 0.063541 0.011425
0.245726 0.065540 0.011816
0.255745 0.067586 0.012215
0.265991 0.069678 0.012624
0.276466 0.071817 0.013042
0.287171 0.074003 0.013469
0.298106 0.076236 0.013906
0.309273 0.078517 0.014351
0.320673 0.080845 0.014806
0.332305 0.083220 0.015270
0.344172 0.085644 0.015744
0.356274 0.088115 0.016226
0.368612 0.090634 0.016719
0.381186 0.093202 0.017220
0.393998 0.095818 0.017732
0.407047 0.098483 0.018252
0.420336 0.101197 0.018782
0.433865 0.103960 0.019322
0.447635 0.106771 0.019872
0.009515 0.020209 0.002771
0.011041 0.020521 0.002832
0.012568 0.020832 0.002893
0.014094 0.021144 0.002954
0.015621 0.021456 0.003015
0.017147 0.021768 0.003076
0.018700 0.022085 0.003138
0.020437 0.022439 0.003207
0.022341 0.022828 0.003283
0.024414 0.023251 0.003366
0.026660 0.023710 0.003455
0.029079 0.024204 0.003552
0.031676 0.024734 0.003655
0.034452 0.025301 0.003766
0.037409 0.025905 0.003884
0.040549 0.026546 0.004009
0.043874 0.027225 0.004142
0.047386 0.027943 0.004282
0.051087 0.028698 0.004430
0.054979 0.029493 0.004585
0.059063 0.030327 0.004748
0.063341 0.031201 0.004919
0.067815 0.032114 0.005097
0.072486 0.033068 0.005284
0.077356 0.034063 0.005478
0.082426 0.035098 0.005680
0.087697 0.036174 0.005891
0.093172 0.037292 0.006109
0.098851 0.038452 0.006336
0.104736 0.039654 0.006571
0.110828 0.040898 0.006814
0.117129 0.042184 0.007065
0.123639 0.043514 0.007325
0.130360 0.044886 0.007593
0.137293 0.046302 0.007870
0.144440 0.047762 0.008155
0.151801 0.049265 0.008448
0.159377 0.050812 0.008751
0.167171 0.052403 0.009062
0.175182 0.054039 0.009381
0.183412 0.055720 0.009710
0.191862 0.057446 0.010047
0.200533 0.059216 0.010393
0.209426 0.061032 0.010748
0.218543 0.062894 0.011111
0.227883 0.064801 0.011484
0.237448 0.066755 0.011866
0.247240 0.068754 0.012256
0.257258 0.070800 0.012656
0.267504 0.072892 0.013065
0.277979 0.075031 0.013483
0.288684 0.077217 0.013910
0.299620 0.079451 0.014346
0.310787 0.081731 0.014792
0.322186 0.084059 0.015247
0.333819 0.086434 0.015711
0.345685 0.088858 0.016184
0.357787 0.091329 0.016667
0.370125 0.093848 0.017159
0.382699 0.096416 0.017661
0.395511 0.099032 0.018172
0.408561 0.101697 0.018693
0.421850 0.104411 0.019223
0.435378 0.107174 0.019763
0.449148 0.109985 0.020312
0.011173 0.023732 0.003254
0.012700 0.024043 0.003315
0.014226 0.024355 0.003376
0.015753 0.024667 0.003437
0.017279 0.024978 0.003498
0.018806 0.025290 0.003559
0.020359 0.025607 0.003621
0.022096 0.025962 0.003690
0.023999 0.026351 0.003766
0.026073 0.026774 0.003849
0.028318 0.027233 0.003938
0.030738 0.027727 0.004035
0.033335 0.028257 0.004139
0.036110 0.028824 0.004249
0.039067 0.029428 0.004367
0.042207 0.030069 0.004493
0.045532 0.030748 0.004625
0.049045 0.031465 0.004765
0.052746 0.032221 0.004913
0.056638 0.033016 0.005068
0.060722 0.033850 0.005231
0.065000 0.034723 0.005402
0.069474 0.035637 0.005580
0.074145 0.036591 0.005767
0.079014 0.037585 0.005961
0.084084 0.038621 0.006163
0.089356 0.039697 0.006374
0.094831 0.040815 0.006592
0.100510 0.041975 0.006819
0.106395 0.043176 0.007054
0.112487 0.044421 0.007297
0.118787 0.045707 0.007548
0.125297 0.047037 0.007808
0.132019 0.048409 0.008076
0.138952 0.049825 0.008353
0.146098 0.051284 0.008638
0.153459 0.052787 0.008931
0.161036 0.054335 0.009234
0.168829 0.055926 0.009545
0.176840 0.057562 0.009864
0.185070 0.059243 0.010193
0.193521 0.060968 0.010530
0.202192 0.062739 0.010876
0.211085 0.064555 0.011231
0.220201 0.066417 0.011594
0.229541 0.068324 0.011967
0.239107 0.070277 0.012349
0.248898 0.072277 0.012739
0.258916 0.074323 0.013139
0.269163 0.076415 0.013548
0.279638 0.078554 0.013966
0.290343 0.080740 0.014393
0.301278 0.082973 0.014829
0.312445 0.085254 0.015275
0.323845 0.087581 0.015730
0.335477 0.089957 0.016194
0.347344 0.092380 0.016667
0.359446 0.094851 0.017150
0.371783 0.097371 0.017642
0.384358 0.099939 0.018144
0.397169 0.102555 0.018655
0.410219 0.105220 0.019176
0.423508 0.107933 0.019706
0.437037 0.110696 0.020246
0.450806 0.113508 0.020795
0.012980 0.027568 0.003780
0.014506 0.027880 0.003841
0.016033 0.028191 0.003902
0.017559 0.028503 0.003963
0.019086 0.028815 0.004024
0.020612 0.029126 0.004085
0.022165 0.029443 0.004147
0.023902 0.029798 0.004216
0.025806 0.030187 0.004292
0.027879 0.030610 0.004375
0.030124 0.031069 0.004464
0.032544 0.031563 0.004561
0.035141 0.032093 0.004665
0.037917 0.032660 0.004775
0.040873 0.033264 0.004893
0.044013 0.033905 0.005019
0.047339 0.034584 0.005151
0.050851 0.035301 0.005291
0.054552 0.036057 0.005439
0.058444 0.036852 0.005594
0.062528 0.037686 0.005757
0.066806 0.038560 0.005928
0.071280 0.039473 0.006107
0.075951 0.040427 0.006293
0.080821 0.041421 0.006487
0.085890 0.042457 0.006689
0.091162 0.043533 0.006900
0.096637 0.044651 0.007118
0.102316 0.045811 0.007345
0.108201 0.047013 0.007580
0.114293 0.048257 0.007823
0.120594 0.049543 0.008074
0.127104 0.050873 0.008334
0.133825 0.052245 0.008602
0.140758 0.053661 0.008879
0.147905 0.055120 0.009164
0.155265 0.056624 0.009458
0.162842 0.058171 0.009760
0.170635 0.059762 0.010071
0.178647 0.061398 0.010390
0.186877 0.063079 0.010719
0.195327 0.064804 0.011056
0.203998 0.066575 0.011402
0.212891 0.068391 0.011757
0.222007 0.070253 0.012120
0.231348 0.072160 0.012493
0.240913 0.074114 0.012875
0.250704 0.076113 0.013265
0.260723 0.078159 0.013665
0.270969 0.080251 0.014074
0.281444 0.082390 0.014492
0.292149 0.084576 0.014919
0.303084 0.086809 0.015355
0.314251 0.089090 0.015801
0.325651 0.091418 0.016256
0.337283 0.093793 0.016720
0.349150 0.096216 0.017193
0.361252 0.098688 0.017676
0.373590 0.101207 0.018169
0.386164 0.103775 0.018670
0.398976 0.106391 0.019181
0.412026 0.109056 0.019702
0.425314 0.111770 0.020232
0.438843 0.114532 0.020772
0.452613 0.117344 0.021322
0.014936 0.031722 0.004350
0.016462 0.032034 0.004411
0.017989 0.032346 0.004472
0.019515 0.032658 0.004533
0.021042 0.032969 0.004594
0.022568 0.033281 0.004655
0.024121 0.033598 0.004717
0.025858 0.033953 0.004786
0.027762 0.034342 0.004862
0.029835 0.034765 0.004945
0.032080 0.035223 0.005034
0.034500 0.035718 0.005131
0.037097 0.036248 0.005234
0.039873 0.036815 0.005345
0.042830 0.037418 0.005463
0.045970 0.038060 0.005588
0.049295 0.038739 0.005721
0.052807 0.039456 0.005861
0.056508 0.040212 0.006009
0.060400 0.041006 0.006164
0.064484 0.041840 0.006327
0.068762 0.042714 0.006498
0.073236 0.043628 0.006676
0.077907 0.044582 0.006863
0.082777 0.045576 0.007057
0.087847 0.046611 0.007259
0.093118 0.047688 0.007470
0.098593 0.048806 0.007688
0.104272 0.049966 0.007915
0.110157 0.051167 0.008149
0.116249 0.052411 0.008392
0.122550 0.053698 0.008644
0.129060 0.055027 0.008904
0.135781 0.056400 0.009172
0.142714 0.057816 0.009448
0.149861 0.059275 0.009734
0.157222 0.060778 0.010027
0.164798 0.062325 0.010330
0.172592 0.063917 0.010640
0.180603 0.065553 0.010960
0.188833 0.067233 0.011288
0.197283 0.068959 0.011626
0.205954 0.070730 0.011972
0.214847 0.072546 0.012326
0.223963 0.074407 0.012690
0.233304 0.076315 0.013063
0.242869 0.078268 0.013445
0.252660 0.080268 0.013835
0.262679 0.082313 0.014235
0.272925 0.084406 0.014644
0.283400 0.086545 0.015062
0.294105 0.088731 0.015489
0.305040 0.090964 0.015925
0.316207 0.093244 0.016371
0.327607 0.095572 0.016826
0.339239 0.097948 0.017290
0.351106 0.100371 0.017763
0.363208 0.102842 0.018246
0.375546 0.105362 0.018738
0.388120 0.107929 0.019240
0.400932 0.110546 0.019751
0.413982 0.113211 0.020272
0.427271 0.115924 0.020802
0.440799 0.118687 0.021342
0.454569 0.121499 0.021891
0.017044 0.036200 0.004964
0.018570 0.036511 0.005025
0.020097 0.036823 0.005086
0.021623 0.037135 0.005147
0.023150 0.037447 0.005208
0.024676 0.037758 0.005269
0.026229 0.038075 0.005331
0.027966 0.038430 0.005400
0.029870 0.038819 0.005476
0.031943 0.039242 0.005559
0.034189 0.039701 0.005648
0.036608 0.040195 0.005745
0.039205 0.040725 0.005848
0.041981 0.041292 0.005959
0.044938 0.041896 0.006077
0.048078 0.042537 0.006202
0.051403 0.043216 0.006335
0.054915 0.043933 0.006475
0.058616 0.044689 0.006623
0.062508 0.045484 0.006778
0.066592 0.046318 0.006941
0.070870 0.047192 0.007112
0.075344 0.048105 0.007290
0.080015 0.049059 0.007477
0.084885 0.050053 0.007671
0.089955 0.051089 0.007873
0.095226 0.052165 0.008084
0.100701 0.053283 0.008302
0.106380 0.054443 0.008529
0.112265 0.055645 0.008763
0.118357 0.056889 0.009006
0.124658 0.058175 0.009258
0.131168 0.059505 0.009518
0.137889 0.060877 0.009786
0.144822 0.062293 0.010062
0.151969 0.063752 0.010348
0.159330 0.065256 0.010641
0.166906 0.066803 0.010944
0.174700 0.068394 0.011254
0.182711 0.070030 0.011574
0.190941 0.071711 0.011902
0.199391 0.073436 0.012240
0.208062 0.075207 0.012586
0.216955 0.077023 0.012940
0.226071 0.078885 0.013304
0.235412 0.080792 0.013677
0.244977 0.082745 0.014058
0.254768 0.084745 0.014449
0.264787 0.086791 0.014849
0.275033 0.088883 0.015258
0.285508 0.091022 0.015676
0.296213 0.093208 0.016103
0.307148 0.095441 0.016539
0.318315 0.097722 0.016985
0.329715 0.100050 0.017439
0.341348 0.102425 0.017904
0.353214 0.104848 0.018377
0.365316 0.107320 0.018860
0.377654 0.109839 0.019352
0.390228 0.112407 0.019854
0.403040 0.115023 0.020365
0.416090 0.117688 0.020886
0.429379 0.120402 0.021416
0.442907 0.123164 0.021956
0.456677 0.125976 0.022505
0.019306 0.041004 0.005623
0.020832 0.041316 0.005684
0.022359 0.041628 0.005745
0.023885 0.041939 0.005806
0.025412 0.042251 0.005867
0.026938 0.042563 0.005927
0.028491 0.042880 0.005989
0.030228 0.043235 0.006059
0.032132 0.043623 0.006135
0.034205 0.044047 0.006217
0.036451 0.044505 0.006307
0.038871 0.045000 0.006404
0.041467 0.045530 0.006507
0.044243 0.046097 0.006618
0.047200 0.046700 0.006736
0.050340 0.047342 0.006861
0.053665 0.048021 0.006994
0.057177 0.048738 0.007134
0.060878 0.049494 0.007282
0.064770 0.050288 0.007437
0.068854 0.051122 0.007600
0.073132 0.051996 0.007771
0.077606 0.052910 0.007949
0.082277 0.053864 0.008135
0.087147 0.054858 0.008330
0.092217 0.055893 0.008532
0.097488 0.056970 0.008742
0.102963 0.058088 0.008961
0.108642 0.059247 0.009187
0.114527 0.060449 0.009422
0.120619 0.061693 0.009665
0.126920 0.062980 0.009917
0.133430 0.064309 0.010176
0.140151 0.065682 0.010445
0.147084 0.067098 0.010721
0.154231 0.068557 0.011006
0.161592 0.070060 0.011300
0.169168 0.071607 0.011602
0.176962 0.073199 0.011913
0.184973 0.074835 0.012233
0.193203 0.076515 0.012561
0.201653 0.078241 0.012898
0.210324 0.080012 0.013244
0.219217 0.081828 0.013599
0.228334 0.083689 0.013963
0.237674 0.085597 0.014336
0.247239 0.087550 0.014717
0.257031 0.089550 0.015108
0.267049 0.091595 0.015508
0.277295 0.093688 0.015917
0.287770 0.095827 0.016335
0.298475 0.098013 0.016762
0.309411 0.100246 0.017198
0.320578 0.102526 0.017644
0.331977 0.104854 0.018098
0.343610 0.107230 0.018562
0.355477 0.109653 0.019036
0.367578 0.112124 0.019519
0.379916 0.114644 0.020011
0.392490 0.117211 0.020513
0.405302 0.119828 0.021024
0.418352 0.122493 0.021545
0.431641 0.125206 0.022075
0.445170 0.127969 0.022615
0.458939 0.130781 0.023164
0.021724 0.046140 0.006327
0.023250 0.046452 0.006388
0.024777 0.046764 0.006449
0.026303 0.047075 0.006510
0.027830 0.047387 0.006571
0.029356 0.047699 0.006632
0.030909 0.048016 0.006694
0.032646 0.048370 0.006763
0.034550 0.048759 0.006839
0.036623 0.049183 0.006922
0.038869 0.049641 0.007011
0.041289 0.050135 0.007108
0.043885 0.050666 0.007211
0.046661 0.051232 0.007322
0.049618 0.051836 0.007440
0.052758 0.052477 0.007565
0.056083 0.053156 0.007698
0.059595 0.053874 0.007838
0.063296 0.054629 0.007986
0.067188 0.055424 0.008141
0.071272 0.056258 0.008304
0.075550 0.057132 0.008475
0.080024 0.058045 0.008653
0.084695 0.058999 0.008840
0.089565 0.059994 0.009034
0.094635 0.061029 0.009236
0.099906 0.062106 0.009447
0.105381 0.063224 0.009665
0.111060 0.064383 0.009892
0.116945 0.065585 0.010126
0.123037 0.066829 0.010370
0.129338 0.068116 0.010621
0.135848 0.069445 0.010881
0.142569 0.070818 0.011149
0.149502 0.072233 0.011425
0.156649 0.073693 0.011711
0.164010 0.075196 0.012004
0.171586 0.076743 0.012307
0.179380 0.078335 0.012618
0.187391 0.079971 0.012937
0.195621 0.081651 0.013266
