src/rc/ocio/aces2065_Forward.cube
TITLE "ACES2065-1 to Linear sRGB LUT 65"
LUT_3D_SIZE 5
0.000000 0.000000 0.000000
0.034359 0.007016 0.001371
0.114124 0.023305 0.004554
0.247743 0.050591 0.009885
0.439633 0.089776 0.017541
0.029932 0.063573 0.008718
0.064291 0.070590 0.010089
0.144056 0.086878 0.013271
0.277675 0.114164 0.018603
0.469565 0.153350 0.026259
0.099420 0.211160 0.028956
0.133779 0.218177 0.030327
0.213544 0.234465 0.033510
0.347163 0.261751 0.038841
0.539053 0.300937 0.046497
0.215823 0.458391 0.062859
0.250182 0.465408 0.064230
0.329947 0.481696 0.067412
0.463566 0.508982 0.072744
0.655456 0.548168 0.080400
0.382989 0.813439 0.111547
0.417348 0.820456 0.112917
0.497113 0.836744 0.116100
0.630732 0.864030 0.121431
0.822622 0.903216 0.129088
0.013863 0.007564 0.068065
0.048222 0.014580 0.069436
0.127987 0.030869 0.072619
0.261606 0.058155 0.077950
0.453496 0.097340 0.085606
0.043795 0.071137 0.076783
0.078154 0.078154 0.078154
0.157919 0.094443 0.081336
0.291538 0.121729 0.086668
0.483428 0.160914 0.094324
0.113283 0.218724 0.097021
0.147642 0.225741 0.098392
0.227407 0.242029 0.101575
0.361026 0.269315 0.106906
0.552916 0.308501 0.114563
0.229685 0.465955 0.130924
0.264044 0.472972 0.132295
0.343810 0.489260 0.135478
0.477428 0.516546 0.140809
0.669318 0.555732 0.148465
0.396852 0.821003 0.179612
0.431211 0.828020 0.180983
0.510976 0.844308 0.184165
0.644594 0.871595 0.189497
0.836484 0.910780 0.197153
0.046046 0.025124 0.226080
0.080405 0.032141 0.227451
0.160170 0.048429 0.230633
0.293789 0.075715 0.235964
0.485679 0.114901 0.243621
0.075978 0.088698 0.234797
0.110337 0.095714 0.236168
0.190102 0.112003 0.239351
0.323721 0.139289 0.244682
0.515611 0.178474 0.252339
0.145465 0.236284 0.255036
0.179824 0.243301 0.256407
0.259589 0.259589 0.259589
0.393208 0.286875 0.264921
0.585098 0.326061 0.272577
0.261868 0.483515 0.288939
0.296227 0.490532 0.290309
0.375992 0.506820 0.293492
0.509611 0.534106 0.298823
0.701501 0.573292 0.306480
0.429034 0.838564 0.337626
0.463393 0.845580 0.338997
0.543158 0.861869 0.342180
0.676777 0.889155 0.347511
0.868667 0.928340 0.355167
0.099957 0.054540 0.490778
0.134316 0.061556 0.492149
0.214081 0.077845 0.495332
0.347700 0.105131 0.500663
0.539590 0.144316 0.508320
0.129889 0.118113 0.499496
0.164248 0.125130 0.500867
0.244013 0.141418 0.504050
0.377632 0.168704 0.509381
0.569522 0.207890 0.517037
0.199376 0.265700 0.519735
0.233735 0.272717 0.521106
0.313501 0.289005 0.524288
0.447119 0.316291 0.529620
0.639009 0.355477 0.537276
0.315779 0.512931 0.553637
0.350138 0.519948 0.555008
0.429903 0.536236 0.558191
0.563522 0.563522 0.563522
0.755412 0.602708 0.571179
0.482945 0.867979 0.602325
0.517304 0.874996 0.603696
0.597069 0.891284 0.606879
0.730688 0.918570 0.612210
0.922578 0.957756 0.619866
0.177378 0.096784 0.870912
0.211737 0.103801 0.872283
0.291502 0.120089 0.875466
0.425121 0.147375 0.880797
0.617011 0.186561 0.888453
0.207310 0.160358 0.879630
0.241669 0.167374 0.881001
0.321434 0.183663 0.884184
0.455053 0.210949 0.889515
0.646943 0.250134 0.897171
0.276798 0.307944 0.899869
0.311157 0.314961 0.901239
0.390922 0.331249 0.904422
0.524541 0.358535 0.909753
0.716431 0.397721 0.917410
0.393201 0.555175 0.933771
0.427560 0.562192 0.935142
0.507325 0.578480 0.938325
0.640944 0.605766 0.943656
0.832834 0.644952 0.951312
0.560367 0.910224 0.982459
0.594726 0.917240 0.983830
0.674491 0.933529 0.987012
0.808110 0.960815 0.992344
1.000000 1.000000 1.000000
