src/rc/ocio/aces2065_Inverse.cube
TITLE "ACES2065-1 to Linear sRGB LUT 65"
LUT_3D_SIZE 9
0.000000 0.000000 0.000000
0.554684 -0.155520 -0.008650
0.793959 -0.311040 -0.017300
0.972699 -0.466560 -0.025950
1.120818 -0.622080 -0.034601
1.249667 -0.777600 -0.043251
1.364984 -0.933120 -0.051901
1.470142 -1.088640 -0.060551
1.567321 -1.244160 -0.069201
-0.637949 0.398186 -0.086049
0.400597 0.350329 -0.094699
0.697249 0.295245 -0.103349
0.897163 0.228618 -0.111999
1.057071 0.138898 -0.120649
1.193659 -0.005445 -0.129299
1.314542 -0.160965 -0.137950
1.423945 -0.316485 -0.146600
1.524494 -0.472005 -0.155250
-1.275897 0.580176 -0.172097
0.133455 0.548498 -0.180747
0.583470 0.514802 -0.189398
0.813879 0.478677 -0.198048
0.988708 0.439554 -0.206698
1.134516 0.396605 -0.215348
1.261799 0.348539 -0.223998
1.375968 0.293143 -0.232648
1.480240 0.225978 -0.241299
-1.913846 0.716124 -0.258146
-0.495398 0.691026 -0.266796
0.439770 0.664915 -0.275446
0.720076 0.637664 -0.284096
0.914640 0.609121 -0.292747
1.071685 0.579097 -0.301397
1.206429 0.547354 -0.310047
1.326003 0.513581 -0.318697
1.434416 0.477362 -0.327347
-2.551795 0.828782 -0.344195
-1.133346 0.807461 -0.352845
0.218543 0.785508 -0.361495
0.610842 0.762869 -0.370145
0.833281 0.739478 -0.378795
1.004434 0.715261 -0.387445
1.148029 0.690130 -0.396095
1.273799 0.663980 -0.404746
1.386853 0.636687 -0.413396
-3.189743 0.926783 -0.430243
-1.771295 0.907978 -0.438893
-0.352846 0.888734 -0.447543
0.475738 0.869021 -0.456194
0.742152 0.848804 -0.464844
0.931757 0.828046 -0.473494
1.086078 0.806703 -0.482144
1.219049 0.784728 -0.490794
1.337352 0.762063 -0.499444
-3.827692 1.014492 -0.516292
-2.409244 0.997514 -0.524942
-0.990795 0.980208 -0.533592
0.282104 0.962556 -0.542242
0.636982 0.944538 -0.550892
0.852202 0.926132 -0.559543
1.019891 0.907312 -0.568193
1.161366 0.888052 -0.576843
1.285673 0.868322 -0.585493
-4.465641 1.094474 -0.602340
-3.047192 1.078897 -0.610991
-1.628744 1.063064 -0.619641
-0.210295 1.046963 -0.628291
0.509145 1.030581 -0.636941
0.763540 1.013903 -0.645591
0.948533 0.996913 -0.654241
1.100262 0.979596 -0.662892
1.231522 0.961932 -0.671542
-5.103589 1.168388 -0.688389
-3.685141 1.153928 -0.697039
-2.266692 1.139262 -0.705689
-0.848244 1.124380 -0.714339
0.334776 1.109274 -0.722990
0.662033 1.093933 -0.731640
0.870673 1.078347 -0.740290
1.035092 1.062505 -0.748940
1.174533 1.046394 -0.757590
-0.218000 -0.054135 0.363398
0.507396 -0.209654 0.360649
0.762401 -0.365174 0.357880
0.947635 -0.520694 0.355090
1.099500 -0.676214 0.352279
1.230852 -0.831734 0.349447
1.347988 -0.987254 0.346593
1.454544 -1.142774 0.343716
1.552839 -1.298294 0.340816
-0.855948 0.382187 0.335100
0.332129 0.332129 0.332129
0.660705 0.273700 0.329133
0.869686 0.201098 0.326111
1.034276 0.095515 0.323062
1.173826 -0.059580 0.319987
1.296792 -0.215100 0.316883
1.407760 -0.370620 0.313751
1.509539 -0.526140 0.310590
-1.493897 0.569357 0.304345
-0.075449 0.537016 0.301093
0.538803 0.502528 0.297807
0.783193 0.465434 0.294489
0.964106 0.425092 0.291135
1.113492 0.380541 0.287746
1.243191 0.330246 0.284321
1.359129 0.271448 0.280857
1.464765 0.198156 0.277355
-2.131846 0.707496 0.270416
-0.713397 0.682058 0.266791
0.378256 0.655565 0.263121
0.684837 0.627883 0.259406
0.887759 0.598849 0.255642
1.049245 0.568257 0.251829
1.186837 0.535847 0.247965
1.308430 0.501276 0.244048
1.418367 0.464081 0.240075
-2.769795 0.821429 0.232169
-1.351346 0.799894 0.228019
0.067102 0.777709 0.223803
0.568423 0.754815 0.219519
0.803403 0.731146 0.215164
0.980271 0.706622 0.210733
1.127289 0.681149 0.206223
1.255394 0.654617 0.201631
1.370167 0.626891 0.196951
-3.407743 0.920285 0.187567
-1.989295 0.901331 0.182599
-0.570846 0.881927 0.177522
0.419488 0.862042 0.172328
0.708093 0.841642 0.167010
0.905436 0.820685 0.161559
1.063978 0.799128 0.155965
1.199689 0.776919 0.150216
1.319951 0.754000 0.144301
-4.045692 1.008618 0.132245
-2.627243 0.991528 0.125745
-1.208795 0.974104 0.119007
0.177521 0.956327 0.112005
0.596519 0.938176 0.104706
0.823074 0.919629 0.097073
0.996145 0.900659 0.089058
1.140899 0.881239 0.080356
1.267464 0.861337 0.071706
-4.683641 1.089080 0.054858
-3.265192 1.073416 0.046208
-1.846744 1.057491 0.037558
-0.428295 1.041293 0.028908
0.457056 1.024810 0.020258
0.730557 1.008025 0.011608
0.922741 0.990923 0.002957
1.078487 0.973487 -0.005693
1.212388 0.955698 -0.014343
-5.321589 1.163377 -0.031190
-3.903141 1.148847 -0.039840
-2.484692 1.134107 -0.048491
-1.066244 1.119148 -0.057141
0.250229 1.103961 -0.065791
0.623291 1.088536 -0.074441
0.842245 1.072863 -0.083091
1.011743 1.056928 -0.091741
1.154329 1.040721 -0.100392
-0.436000 -0.108269 0.532654
0.455104 -0.263789 0.530780
0.729362 -0.419309 0.528899
0.921815 -0.574829 0.527011
1.077708 -0.730349 0.525116
1.211706 -0.885869 0.523214
1.330745 -1.041389 0.521306
1.438753 -1.196909 0.519389
1.538200 -1.352429 0.517466
-1.073948 0.365509 0.513699
0.246770 0.312937 0.511753
0.621875 0.250514 0.509800
0.841221 0.170082 0.507840
1.010907 0.041806 0.505871
1.153608 -0.113714 0.503895
1.278762 -0.269234 0.501910
1.391360 -0.424754 0.499918
1.494412 -0.580274 0.497918
-1.711897 0.558320 0.493998
-0.293448 0.525275 0.491973
0.489940 0.489940 0.489940
0.751144 0.451801 0.487897
0.938788 0.410124 0.485847
1.092013 0.363790 0.483787
1.224264 0.310946 0.481718
1.342049 0.248077 0.479641
1.449101 0.166715 0.477554
-2.349846 0.698754 0.473463
-0.931397 0.672962 0.471349
0.305074 0.646072 0.469224
0.647545 0.617940 0.467091
0.859951 0.588389 0.464947
1.026255 0.557197 0.462793
1.166873 0.524079 0.460629
1.290585 0.488655 0.458455
1.402109 0.450406 0.456271
-2.987794 0.814003 0.451986
-1.569346 0.792248 0.449770
-0.150897 0.769823 0.447542
0.522422 0.746668 0.445304
0.772264 0.722711 0.443055
0.955427 0.697868 0.440794
1.106111 0.672040 0.438521
1.236678 0.645109 0.436237
1.353246 0.616930 0.433940
-3.625743 0.913737 0.429433
-2.207295 0.894629 0.427100
-0.788846 0.875062 0.424755
0.354557 0.855002 0.422396
0.672179 0.834412 0.420025
0.878244 0.813252 0.417640
1.041352 0.791474 0.415241
1.179971 0.769025 0.412829
1.302285 0.745843 0.410403
-4.263692 1.002706 0.405637
-2.845243 0.985501 0.403169
-1.426795 0.967957 0.400685
-0.008346 0.950052 0.398186
0.552951 0.931766 0.395672
0.792776 0.913075 0.393142
0.971752 0.893952 0.390596
1.120011 0.874368 0.388034
1.248952 0.854290 0.385455
-4.901640 1.083657 0.380384
-3.483192 1.067903 0.377755
-2.064743 1.051884 0.375108
-0.646295 1.035589 0.372442
0.398186 1.019002 0.369758
0.695887 1.002109 0.367055
0.896128 0.984893 0.364333
1.056209 0.967336 0.361591
1.192907 0.949419 0.358829
-5.539589 1.158343 0.353390
-4.121141 1.143740 0.350566
-2.702692 1.128925 0.347721
-1.284244 1.113888 0.344853
0.127229 1.098619 0.341962
0.581825 1.083109 0.339048
0.812727 1.067346 0.336110
0.987779 1.051318 0.333148
1.133719 1.035013 0.330160
-0.653999 -0.162404 0.659089
0.395947 -0.317924 0.657590
0.694628 -0.473444 0.656088
0.895171 -0.628963 0.654582
1.055412 -0.784483 0.653073
1.192211 -0.940003 0.651560
1.313245 -1.095523 0.650043
1.422760 -1.251043 0.648522
1.523399 -1.406563 0.646998
-1.291948 0.348065 0.644017
0.121289 0.292585 0.642481
0.580303 0.225276 0.640942
0.811663 0.133924 0.639398
0.986920 -0.012329 0.637850
1.132983 -0.167849 0.636299
1.260439 -0.323369 0.634743
1.374736 -0.478889 0.633184
1.479107 -0.634409 0.631620
-1.929897 0.547052 0.628562
-0.511448 0.513258 0.626987
0.435534 0.477014 0.625406
0.717545 0.437742 0.623822
0.912691 0.394598 0.622234
1.070050 0.346264 0.620641
1.204999 0.290466 0.619044
1.324718 0.222603 0.617442
1.433241 0.129896 0.615836
-2.567845 0.689893 0.612696
-1.149397 0.663734 0.611077
0.210370 0.636429 0.609453
0.607825 0.607825 0.607825
0.831121 0.577731 0.606192
1.002677 0.545905 0.604555
1.146517 0.512033 0.602913
1.272455 0.475694 0.601266
1.385632 0.436302 0.599614
-3.205794 0.806503 0.596384
-1.787346 0.784521 0.594718
-0.368897 0.761850 0.593048
0.471826 0.738424 0.591372
0.739701 0.714169 0.589692
0.929847 0.688995 0.588006
1.084468 0.662798 0.586315
1.217635 0.635450 0.584620
1.336080 0.606798 0.582919
-3.843743 0.907136 0.579591
-2.425294 0.887872 0.577875
-1.006846 0.868137 0.576153
0.275600 0.847897 0.574426
0.634095 0.827114 0.572693
0.850094 0.805744 0.570955
1.018164 0.783739 0.569212
1.159873 0.761043 0.567463
1.284343 0.737589 0.565708
-4.481691 0.996755 0.562274
-3.063243 0.979434 0.560502
-1.644795 0.961766 0.558725
-0.226346 0.943732 0.556941
0.505496 0.925308 0.555152
0.761165 0.906469 0.553357
0.946661 0.887189 0.551555
1.098675 0.867437 0.549748
1.230125 0.847178 0.547934
-5.119640 1.078202 0.544384
-3.701192 1.062357 0.542552
-2.282743 1.046244 0.540713
-0.864295 1.029849 0.538868
0.329238 1.013157 0.537016
0.659263 0.996154 0.535158
0.868615 0.978821 0.533293
1.033393 0.961141 0.531421
1.173059 0.943093 0.529543
-5.757589 1.153283 0.525864
-4.339140 1.138608 0.523965
-2.920692 1.123716 0.522059
-1.502243 1.108600 0.520146
-0.083795 1.093248 0.518225
0.537016 1.077652 0.516297
0.781992 1.061798 0.514362
0.963150 1.045675 0.512419
1.112678 1.029270 0.510469
-0.871999 -0.216538 0.763864
0.326549 -0.372058 0.762586
0.657929 -0.527578 0.761304
0.867625 -0.683098 0.760021
1.032576 -0.838618 0.758735
1.172351 -0.994138 0.757447
1.295475 -1.149658 0.756156
1.406560 -1.305178 0.754863
1.508431 -1.460698 0.753568
-1.509948 0.329747 0.751038
-0.091499 0.270850 0.749736
0.535361 0.197373 0.748431
0.780882 0.089106 0.747123
0.962267 -0.066463 0.745813
1.111927 -0.221983 0.744501
1.241809 -0.377503 0.743186
1.357880 -0.533023 0.741869
1.463619 -0.688543 0.740549
-2.147897 0.535538 0.737971
-0.729448 0.500945 0.736643
0.373336 0.463723 0.735313
0.682165 0.423217 0.733981
0.885744 0.378451 0.732646
1.047571 0.327851 0.731308
1.185380 0.268577 0.729967
1.307126 0.194385 0.728624
1.417177 0.083840 0.727278
-2.785845 0.680909 0.724649
-1.367397 0.654366 0.723296
0.051052 0.626628 0.721939
0.565169 0.597530 0.720580
0.801155 0.566863 0.719218
0.978466 0.534365 0.717853
1.125745 0.499689 0.716485
1.254027 0.462365 0.715115
1.368929 0.421729 0.713742
-3.423794 0.798926 0.711059
-2.005345 0.776711 0.709677
-0.586897 0.753785 0.708293
0.415046 0.730079 0.706905
0.705515 0.705515 0.705515
0.903465 0.679998 0.704122
1.062331 0.653416 0.702726
1.198250 0.625633 0.701326
1.318660 0.596484 0.699924
-4.061743 0.900482 0.697184
-2.643294 0.881057 0.695773
-1.224846 0.861151 0.694359
0.167786 0.840726 0.692941
0.593425 0.819744 0.691521
0.820885 0.798159 0.690097
0.994372 0.775921 0.688671
1.139376 0.752968 0.687241
1.266111 0.729234 0.685808
-4.699691 0.990764 0.683007
-3.281243 0.973325 0.681565
-1.862794 0.955532 0.680119
-0.444346 0.937364 0.678670
0.452981 0.918798 0.677217
0.728065 0.899809 0.675762
0.920811 0.880369 0.674303
1.076864 0.860444 0.672840
1.210966 0.840001 0.671374
-5.337640 1.072716 0.668509
-3.919191 1.056780 0.667033
-2.500743 1.040570 0.665554
-1.082295 1.024073 0.664071
0.242975 1.007275 0.662584
0.620337 0.990159 0.661094
0.840111 0.972708 0.659600
1.010000 0.954902 0.658103
1.152826 0.936721 0.656602
-5.975589 1.148199 0.653669
-4.557140 1.133449 0.652157
-3.138692 1.118481 0.650641
-1.720243 1.103283 0.649122
-0.301795 1.087848 0.647599
0.487969 1.072163 0.646072
0.749887 1.056217 0.644542
0.937803 1.039997 0.643007
1.091182 1.023490 0.641469
-1.089999 -0.270673 0.855008
0.239425 -0.426193 0.853877
0.618914 -0.581713 0.852745
0.839084 -0.737233 0.851610
1.009162 -0.892752 0.850475
1.152103 -1.048272 0.849337
1.277423 -1.203792 0.848198
1.390144 -1.359312 0.847057
1.493291 -1.514832 0.845914
-1.727948 0.310418 0.843684
-0.309499 0.247429 0.842537
0.486143 0.165817 0.841387
0.748725 0.034922 0.840236
0.936894 -0.120598 0.839084
1.090413 -0.276118 0.837929
1.222857 -0.431638 0.836773
1.340782 -0.587158 0.835615
1.447940 -0.742678 0.834455
-2.365896 0.523763 0.832191
-0.947448 0.488315 0.831026
0.299026 0.450037 0.829860
0.644709 0.408182 0.828691
0.857865 0.361607 0.827521
1.024540 0.308411 0.826349
1.165388 0.244965 0.825175
1.289260 0.162382 0.823999
1.400903 0.029477 0.822821
-3.003845 0.671796 0.820523
-1.585397 0.644854 0.819340
-0.166948 0.616663 0.818155
0.518868 0.587045 0.816968
0.769917 0.555775 0.815779
0.953570 0.522563 0.814589
1.104534 0.487026 0.813396
1.235287 0.448638 0.812202
1.351990 0.406639 0.811005
-3.641794 0.791270 0.808670
-2.223345 0.768815 0.807468
-0.804897 0.745625 0.806264
0.349317 0.721631 0.805058
0.669454 0.696746 0.803850
0.876205 0.670872 0.802640
1.039665 0.643889 0.801428
1.178504 0.615652 0.800215
1.300974 0.585979 0.798999
-4.279742 0.893773 0.796625
-2.861294 0.874185 0.795403
-1.442845 0.854102 0.794179
-0.024397 0.833488 0.792953
0.549601 0.812302 0.791725
0.790495 0.790495 0.790495
0.969929 0.768015 0.789263
1.118455 0.744799 0.788029
1.247577 0.720775 0.786793
-4.917691 0.984732 0.784379
-3.499243 0.967172 0.783136
-2.080794 0.949251 0.781891
-0.662346 0.930948 0.780645
0.393508 0.912238 0.779396
0.693261 0.893095 0.778144
0.894134 0.873490 0.776891
1.054548 0.853389 0.775635
1.191458 0.832756 0.774378
-5.555640 1.067199 0.771921
-4.137191 1.051169 0.770657
-2.718743 1.034861 0.769390
-1.300294 1.018261 0.768122
0.114626 1.001354 0.766850
0.578649 0.984123 0.765577
0.810508 0.966551 0.764301
0.985989 0.948617 0.763023
1.132185 0.930300 0.761743
-6.193588 1.143089 0.759242
-4.775140 1.128264 0.757955
-3.356691 1.113217 0.756665
-1.938243 1.097938 0.755373
-0.519795 1.082417 0.754079
0.433315 1.066643 0.752782
0.716225 1.050603 0.751483
0.911675 1.034285 0.750181
1.069200 1.017674 0.748877
-1.307999 -0.324807 0.936580
0.108241 -0.480327 0.935557
0.577118 -0.635847 0.934533
0.809440 -0.791367 0.933508
0.985128 -0.946887 0.932481
1.131447 -1.102407 0.931453
1.259078 -1.257927 0.930424
1.373503 -1.413447 0.929394
1.477973 -1.568967 0.928362
-1.945947 0.289904 0.926349
-0.527499 0.221892 0.925314
0.431256 0.128817 0.924277
0.715004 -0.019213 0.923239
0.910737 -0.174733 0.922200
1.068413 -0.330252 0.921159
1.203567 -0.485772 0.920117
1.323432 -0.641292 0.919074
1.432065 -0.796812 0.918030
-2.583896 0.511709 0.915992
-1.165448 0.475344 0.914943
0.201924 0.435922 0.913894
0.604791 0.392581 0.912843
0.828955 0.343974 0.911790
1.000917 0.287766 0.910737
1.145002 0.219184 0.909682
1.271108 0.124675 0.908625
1.384410 -0.024658 0.907567
-3.221845 0.662550 0.905503
-1.803396 0.635191 0.904442
-0.384948 0.606526 0.903379
0.467881 0.576361 0.902314
0.737242 0.544452 0.901248
0.927933 0.510480 0.900181
1.082856 0.474020 0.899112
1.216220 0.434476 0.898042
1.334806 0.390978 0.896971
-3.859794 0.783533 0.894880
-2.441345 0.760829 0.893804
-1.022897 0.737369 0.892727
0.268954 0.713074 0.891648
0.631195 0.687858 0.890568
0.847981 0.661613 0.889487
1.016433 0.634211 0.888404
1.158378 0.605496 0.887320
1.283010 0.575275 0.886234
-4.497742 0.887008 0.884115
-3.079294 0.867252 0.883025
-1.660845 0.846989 0.881934
-0.242397 0.826181 0.880841
0.501819 0.804784 0.879746
0.758781 0.782750 0.878650
0.944784 0.760021 0.877552
1.097086 0.736532 0.876453
1.228726 0.712208 0.875353
-5.135691 0.978659 0.873205
-3.717242 0.960976 0.872100
-2.298794 0.942925 0.870993
-0.880345 0.924483 0.869885
0.323612 0.905625 0.868775
0.656480 0.886325 0.867664
0.866551 0.866551 0.866551
1.031690 0.846269 0.865437
1.171583 0.825442 0.864321
-5.773640 1.061650 0.862143
-4.355191 1.045525 0.861022
-2.936743 1.029117 0.859900
-1.518294 1.012411 0.858776
-0.099846 0.995394 0.857650
0.533562 0.978046 0.856523
0.779677 0.960350 0.855394
0.961309 0.942286 0.854264
1.111111 0.923830 0.853132
-6.411588 1.137953 0.850923
-4.993140 1.123052 0.849786
-3.574691 1.107925 0.848647
-2.156243 1.092563 0.847507
-0.737794 1.076955 0.846365
0.370752 1.061090 0.845221
0.680771 1.044955 0.844076
0.884695 1.028537 0.842929
1.046700 1.011821 0.841780
-1.525999 -0.378942 1.010966
-0.107550 -0.534462 1.010026
0.531897 -0.689982 1.009086
0.778563 -0.845502 1.008144
0.960424 -1.001022 1.007202
1.110359 -1.156542 1.006258
1.240425 -1.312061 1.005313
1.356629 -1.467581 1.004368
1.462471 -1.623101 1.003421
-2.163947 0.267973 1.001575
-0.745499 0.193590 1.000625
0.368352 0.082418 0.999675
0.679482 -0.073347 0.998723
0.883724 -0.228867 0.997771
1.045895 -0.384387 0.996817
1.183921 -0.539907 0.995863
1.305820 -0.695427 0.994907
1.415986 -0.850947 0.993951
-2.801896 0.499357 0.992085
-1.383447 0.462006 0.991125
0.035001 0.421335 0.990164
0.561894 0.376349 0.989203
0.798900 0.325439 0.988240
0.976657 0.265678 0.987276
1.124199 0.190554 0.986312
1.252658 0.076728 0.985346
1.367690 -0.078792 0.984379
-3.439845 0.653165 0.982493
-2.021396 0.625370 0.981523
-0.602948 0.596207 0.980551
0.410557 0.565466 0.979579
0.702927 0.532880 0.978606
0.901489 0.498097 0.977632
1.060680 0.460642 0.976656
1.196809 0.419840 0.975680
1.317367 0.374679 0.974702
-4.077793 0.775712 0.972795
-2.659345 0.752753 0.971814
-1.240896 0.729011 0.970833
0.157595 0.704407 0.969850
0.590314 0.678845 0.968866
0.818689 0.652213 0.967880
0.992595 0.624374 0.966894
1.137850 0.595159 0.965907
1.264757 0.564358 0.964918
-4.715742 0.880187 0.962990
-3.297294 0.860258 0.961998
-1.878845 0.839809 0.961005
-0.460397 0.818802 0.960011
0.448870 0.797189 0.959015
0.725564 0.774920 0.958019
0.918876 0.751935 0.957021
1.075239 0.728164 0.956023
1.209542 0.703528 0.955023
-5.353691 0.972545 0.953072
-3.935242 0.954736 0.952069
-2.516794 0.936551 0.951064
-1.098345 0.917967 0.950058
0.235528 0.898959 0.949052
0.617369 0.879497 0.948044
0.837970 0.859551 0.947034
1.008254 0.839084 0.946024
1.151320 0.818056 0.945012
-5.991639 1.056068 0.943039
-4.573191 1.039846 0.942023
-3.154742 1.023336 0.941007
-1.736294 1.006524 0.939990
-0.317845 0.989394 0.938971
0.484158 0.971927 0.937951
0.747464 0.954105 0.936929
0.935907 0.935907 0.935907
1.089580 0.917309 0.934883
-6.629588 1.132791 0.932886
-5.211140 1.117813 0.931858
-3.792691 1.102605 0.930830
-2.374243 1.087159 0.929800
-0.955794 1.071463 0.928769
0.295837 1.055505 0.927736
0.643229 1.039273 0.926703
0.856777 1.022753 0.925668
1.023647 1.005930 0.924631
-1.743998 -0.433076 1.079708
-0.325550 -0.588596 1.078835
0.482317 -0.744116 1.077961
0.746298 -0.899636 1.077086
0.934995 -1.055156 1.076211
1.088810 -1.210676 1.075334
1.221448 -1.366196 1.074457
1.339513 -1.521716 1.073579
1.446778 -1.677236 1.072701
-2.381947 0.244310 1.070987
-0.963499 0.161466 1.070106
0.292864 0.028038 1.069224
0.641859 -0.127482 1.068342
0.855772 -0.283002 1.067458
1.022821 -0.438522 1.066574
1.163901 -0.594042 1.065689
1.287933 -0.749561 1.064803
1.399696 -0.905081 1.063916
-3.019896 0.486685 1.062186
-1.601447 0.448267 1.061297
-0.182999 0.406231 1.060407
0.515290 0.359411 1.059516
0.767563 0.305857 1.058625
0.951708 0.241818 1.057732
1.102954 0.157960 1.056839
1.233895 0.022593 1.055944
1.350733 -0.132927 1.055049
-3.657844 0.643634 1.053303
-2.239396 0.615384 1.052406
-0.820947 0.585698 1.051507
0.344001 0.554348 1.050608
0.666716 0.521043 1.049708
0.874161 0.485392 1.048807
1.037974 0.446862 1.047905
1.177036 0.404681 1.047002
1.299661 0.357664 1.046098
-4.295793 0.767804 1.044336
-2.877345 0.744581 1.043430
-1.458896 0.720549 1.042523
-0.040448 0.695623 1.041615
0.546230 0.669702 1.040706
0.788207 0.642667 1.039796
0.968103 0.614370 1.038885
1.116897 0.584630 1.037974
1.246200 0.553217 1.037061
-4.933742 0.873306 1.035282
-3.515293 0.853201 1.034367
-2.096845 0.832563 1.033451
-0.678396 0.811350 1.032534
0.388776 0.789515 1.031616
0.690624 0.767004 1.030697
0.892135 0.743754 1.029777
1.052884 0.719692 1.028857
1.190007 0.694733 1.027935
-5.571690 0.966387 1.026138
-4.153242 0.948449 1.025214
-2.734794 0.930129 1.024289
-1.316345 0.911400 1.023363
0.101042 0.892237 1.022436
0.575454 0.872611 1.021508
0.808281 0.852487 1.020579
0.984195 0.831830 1.019649
1.130648 0.810596 1.018718
-6.209639 1.050453 1.016903
-4.791191 1.034132 1.015969
-3.372742 1.017519 1.015035
-1.954294 1.000598 1.014099
-0.535845 0.983353 1.013163
0.429015 0.965765 1.012226
0.713679 0.947815 1.011287
0.909719 0.929480 1.010348
1.067561 0.910737 1.009408
-6.847588 1.127603 1.007573
-5.429139 1.112546 1.006630
-4.010691 1.097256 1.005686
-2.592242 1.081724 1.004741
-1.173794 1.065938 1.003795
0.197416 1.049886 1.002847
0.603208 1.033556 1.001899
0.827826 1.016932 1.000950
1.000000 1.000000 1.000000
