src/rc/ocio/aces2065_Inverse.cube
TITLE "ACES2065-1 to Linear sRGB LUT 65"
LUT_3D_SIZE 5
0.000000 0.000000 0.000000
0.793959 -0.311040 -0.017300
1.120818 -0.622080 -0.034601
1.364984 -0.933120 -0.051901
1.567321 -1.244160 -0.069201
-1.275897 0.580176 -0.172097
0.583470 0.514802 -0.189398
0.988708 0.439554 -0.206698
1.261799 0.348539 -0.223998
1.480240 0.225978 -0.241299
-2.551795 0.828782 -0.344195
0.218543 0.785508 -0.361495
0.833281 0.739478 -0.378795
1.148029 0.690130 -0.396095
1.386853 0.636687 -0.413396
-3.827692 1.014492 -0.516292
-0.990795 0.980208 -0.533592
0.636982 0.944538 -0.550892
1.019891 0.907312 -0.568193
1.285673 0.868322 -0.585493
-5.103589 1.168388 -0.688389
-2.266692 1.139262 -0.705689
0.334776 1.109274 -0.722990
0.870673 1.078347 -0.740290
1.174533 1.046394 -0.757590
-0.436000 -0.108269 0.532654
0.729362 -0.419309 0.528899
1.077708 -0.730349 0.525116
1.330745 -1.041389 0.521306
1.538200 -1.352429 0.517466
-1.711897 0.558320 0.493998
0.489940 0.489940 0.489940
0.938788 0.410124 0.485847
1.224264 0.310946 0.481718
1.449101 0.166715 0.477554
-2.987794 0.814003 0.451986
-0.150897 0.769823 0.447542
0.772264 0.722711 0.443055
1.106111 0.672040 0.438521
1.353246 0.616930 0.433940
-4.263692 1.002706 0.405637
-1.426795 0.967957 0.400685
0.552951 0.931766 0.395672
0.971752 0.893952 0.390596
1.248952 0.854290 0.385455
-5.539589 1.158343 0.353390
-2.702692 1.128925 0.347721
0.127229 1.098619 0.341962
0.812727 1.067346 0.336110
1.133719 1.035013 0.330160
-0.871999 -0.216538 0.763864
0.657929 -0.527578 0.761304
1.032576 -0.838618 0.758735
1.295475 -1.149658 0.756156
1.508431 -1.460698 0.753568
-2.147897 0.535538 0.737971
0.373336 0.463723 0.735313
0.885744 0.378451 0.732646
1.185380 0.268577 0.729967
1.417177 0.083840 0.727278
-3.423794 0.798926 0.711059
-0.586897 0.753785 0.708293
0.705515 0.705515 0.705515
1.062331 0.653416 0.702726
1.318660 0.596484 0.699924
-4.699691 0.990764 0.683007
-1.862794 0.955532 0.680119
0.452981 0.918798 0.677217
0.920811 0.880369 0.674303
1.210966 0.840001 0.671374
-5.975589 1.148199 0.653669
-3.138692 1.118481 0.650641
-0.301795 1.087848 0.647599
0.749887 1.056217 0.644542
1.091182 1.023490 0.641469
-1.307999 -0.324807 0.936580
0.577118 -0.635847 0.934533
0.985128 -0.946887 0.932481
1.259078 -1.257927 0.930424
1.477973 -1.568967 0.928362
-2.583896 0.511709 0.915992
0.201924 0.435922 0.913894
0.828955 0.343974 0.911790
1.145002 0.219184 0.909682
1.384410 -0.024658 0.907567
-3.859794 0.783533 0.894880
-1.022897 0.737369 0.892727
0.631195 0.687858 0.890568
1.016433 0.634211 0.888404
1.283010 0.575275 0.886234
-5.135691 0.978659 0.873205
-2.298794 0.942925 0.870993
0.323612 0.905625 0.868775
0.866551 0.866551 0.866551
1.171583 0.825442 0.864321
-6.411588 1.137953 0.850923
-3.574691 1.107925 0.848647
-0.737794 1.076955 0.846365
0.680771 1.044955 0.844076
1.046700 1.011821 0.841780
-1.743998 -0.433076 1.079708
0.482317 -0.744116 1.077961
0.934995 -1.055156 1.076211
1.221448 -1.366196 1.074457
1.446778 -1.677236 1.072701
-3.019896 0.486685 1.062186
-0.182999 0.406231 1.060407
0.767563 0.305857 1.058625
1.102954 0.157960 1.056839
1.350733 -0.132927 1.055049
-4.295793 0.767804 1.044336
-1.458896 0.720549 1.042523
0.546230 0.669702 1.040706
0.968103 0.614370 1.038885
1.246200 0.553217 1.037061
-5.571690 0.966387 1.026138
-2.734794 0.930129 1.024289
0.101042 0.892237 1.022436
0.808281 0.852487 1.020579
1.130648 0.810596 1.018718
-6.847588 1.127603 1.007573
-4.010691 1.097256 1.005686
-1.173794 1.065938 1.003795
0.603208 1.033556 1.001899
1.000000 1.000000 1.000000
