src/rc/ocio/aces2065_Forward.cube
TITLE "ACES2065-1 to Linear sRGB LUT 65"
LUT_3D_SIZE 9
0.000000 0.000000 0.000000
0.012826 0.002619 0.000512
0.034359 0.007016 0.001371
0.067841 0.013854 0.002707
0.114124 0.023305 0.004554
0.173897 0.035511 0.006938
0.247743 0.050591 0.009885
0.336171 0.068649 0.013413
0.439633 0.089776 0.017541
0.011173 0.023732 0.003254
0.023999 0.026351 0.003766
0.045532 0.030748 0.004625
0.079014 0.037585 0.005961
0.125297 0.047037 0.007808
0.185070 0.059243 0.010193
0.258916 0.074323 0.013139
0.347344 0.092380 0.016667
0.450806 0.113508 0.020795
0.029932 0.063573 0.008718
0.042758 0.066193 0.009230
0.064291 0.070590 0.010089
0.097773 0.077427 0.011425
0.144056 0.086878 0.013271
0.203829 0.099085 0.015656
0.277675 0.114164 0.018603
0.366103 0.132222 0.022131
0.469565 0.153350 0.026259
0.059100 0.125524 0.017213
0.071926 0.128143 0.017725
0.093459 0.132540 0.018584
0.126941 0.139378 0.019920
0.173224 0.148829 0.021767
0.232997 0.161035 0.024151
0.306843 0.176115 0.027098
0.395271 0.194173 0.030626
0.498733 0.215300 0.034754
0.099420 0.211160 0.028956
0.112246 0.213779 0.029468
0.133779 0.218177 0.030327
0.167261 0.225014 0.031663
0.213544 0.234465 0.033510
0.273317 0.246671 0.035895
0.347163 0.261751 0.038841
0.435590 0.279809 0.042369
0.539053 0.300937 0.046497
0.151491 0.321756 0.044122
0.164317 0.324376 0.044634
0.185850 0.328773 0.045493
0.219332 0.335610 0.046829
0.265615 0.345061 0.048676
0.325388 0.357267 0.051061
0.399234 0.372347 0.054007
0.487662 0.390405 0.057535
0.591124 0.411533 0.061663
0.215823 0.458391 0.062859
0.228649 0.461010 0.063371
0.250182 0.465408 0.064230
0.283664 0.472245 0.065566
0.329947 0.481696 0.067412
0.389720 0.493902 0.069797
0.463566 0.508982 0.072744
0.551993 0.527040 0.076272
0.655456 0.548168 0.080400
0.292857 0.622006 0.085295
0.305683 0.624625 0.085807
0.327216 0.629023 0.086666
0.360698 0.635860 0.088002
0.406981 0.645311 0.089849
0.466754 0.657517 0.092234
0.540600 0.672597 0.095180
0.629027 0.690655 0.098708
0.732490 0.711783 0.102837
0.382989 0.813439 0.111547
0.395815 0.816059 0.112058
0.417348 0.820456 0.112917
0.450830 0.827293 0.114253
0.497113 0.836744 0.116100
0.556886 0.848951 0.118485
0.630732 0.864030 0.121431
0.719159 0.882088 0.124960
0.822622 0.903216 0.129088
0.005175 0.002824 0.025408
0.018001 0.005443 0.025920
0.039534 0.009840 0.026779
0.073016 0.016677 0.028115
0.119299 0.026129 0.029962
0.179072 0.038335 0.032347
0.252918 0.053415 0.035293
0.341346 0.071472 0.038821
0.444808 0.092600 0.042949
0.016348 0.026555 0.028663
0.029174 0.029174 0.029174
0.050707 0.033572 0.030033
0.084189 0.040409 0.031369
0.130472 0.049860 0.033216
0.190245 0.062066 0.035601
0.264091 0.077146 0.038547
0.352519 0.095204 0.042076
0.455981 0.116332 0.046204
0.035107 0.066397 0.034126
0.047933 0.069016 0.034638
0.069466 0.073413 0.035497
0.102948 0.080251 0.036833
0.149231 0.089702 0.038680
0.209004 0.101908 0.041064
0.282850 0.116988 0.044011
0.371278 0.135046 0.047539
0.474740 0.156173 0.051667
0.064275 0.128348 0.042621
0.077101 0.130967 0.043133
0.098634 0.135364 0.043992
0.132116 0.142201 0.045328
0.178399 0.151653 0.047175
0.238172 0.163859 0.049560
0.312018 0.178939 0.052506
0.400445 0.196996 0.056034
0.503908 0.218124 0.060162
0.104595 0.213984 0.054365
0.117421 0.216603 0.054876
0.138954 0.221000 0.055735
0.172436 0.227838 0.057071
0.218719 0.237289 0.058918
0.278492 0.249495 0.061303
0.352338 0.264575 0.064249
0.440765 0.282632 0.067778
0.544228 0.303760 0.071906
0.156666 0.324580 0.069531
0.169492 0.327199 0.070042
0.191025 0.331596 0.070901
0.224507 0.338434 0.072237
0.270790 0.347885 0.074084
0.330563 0.360091 0.076469
0.404409 0.375171 0.079415
0.492837 0.393229 0.082944
0.596299 0.414356 0.087072
0.220998 0.461215 0.088267
0.233824 0.463834 0.088779
0.255357 0.468231 0.089638
0.288838 0.475069 0.090974
0.335122 0.484520 0.092821
0.394895 0.496726 0.095206
0.468741 0.511806 0.098152
0.557168 0.529863 0.101680
0.660631 0.550991 0.105808
0.298032 0.624830 0.110704
0.310858 0.627449 0.111215
0.332391 0.631846 0.112075
0.365873 0.638683 0.113411
0.412156 0.648135 0.115257
0.471929 0.660341 0.117642
0.545775 0.675421 0.120589
0.634202 0.693478 0.124117
0.737665 0.714606 0.128245
0.388164 0.816263 0.136955
0.400990 0.818882 0.137467
0.422523 0.823279 0.138326
0.456005 0.830117 0.139662
0.502288 0.839568 0.141508
0.562061 0.851774 0.143893
0.635907 0.866854 0.146840
0.724334 0.884912 0.150368
0.827797 0.906039 0.154496
0.013863 0.007564 0.068065
0.026689 0.010183 0.068577
0.048222 0.014580 0.069436
0.081704 0.021418 0.070772
0.127987 0.030869 0.072619
0.187760 0.043075 0.075004
0.261606 0.058155 0.077950
0.350033 0.076213 0.081478
0.453496 0.097340 0.085606
0.025036 0.031296 0.071319
0.037862 0.033915 0.071831
0.059395 0.038312 0.072690
0.092877 0.045149 0.074026
0.139160 0.054601 0.075873
0.198933 0.066807 0.078258
0.272779 0.081887 0.081204
0.361207 0.099944 0.084733
0.464669 0.121072 0.088861
0.043795 0.071137 0.076783
0.056621 0.073757 0.077295
0.078154 0.078154 0.078154
0.111636 0.084991 0.079490
0.157919 0.094443 0.081336
0.217692 0.106649 0.083721
0.291538 0.121729 0.086668
0.379965 0.139786 0.090196
0.483428 0.160914 0.094324
0.072963 0.133088 0.085278
0.085789 0.135707 0.085790
0.107322 0.140104 0.086649
0.140804 0.146942 0.087985
0.187087 0.156393 0.089832
0.246860 0.168599 0.092217
0.320706 0.183679 0.095163
0.409133 0.201737 0.098691
0.512596 0.222864 0.102819
0.113283 0.218724 0.097021
0.126109 0.221343 0.097533
0.147642 0.225741 0.098392
0.181124 0.232578 0.099728
0.227407 0.242029 0.101575
0.287180 0.254235 0.103960
0.361026 0.269315 0.106906
0.449453 0.287373 0.110435
0.552916 0.308501 0.114563
0.165354 0.329320 0.112187
0.178180 0.331940 0.112699
0.199713 0.336337 0.113558
0.233195 0.343174 0.114894
0.279478 0.352625 0.116741
0.339251 0.364832 0.119126
0.413097 0.379911 0.122072
0.501525 0.397969 0.125601
0.604987 0.419097 0.129729
0.229685 0.465955 0.130924
0.242511 0.468574 0.131436
0.264044 0.472972 0.132295
0.297526 0.479809 0.133631
0.343810 0.489260 0.135478
0.403583 0.501466 0.137863
0.477428 0.516546 0.140809
0.565856 0.534604 0.144337
0.669318 0.555732 0.148465
0.306720 0.629570 0.153361
0.319546 0.632189 0.153872
0.341079 0.636587 0.154731
0.374561 0.643424 0.156067
0.420844 0.652875 0.157914
0.480617 0.665081 0.160299
0.554463 0.680161 0.163245
0.642890 0.698219 0.166774
0.746353 0.719347 0.170902
0.396852 0.821003 0.179612
0.409677 0.823623 0.180123
0.431211 0.828020 0.180983
0.464692 0.834857 0.182319
0.510976 0.844308 0.184165
0.570749 0.856515 0.186550
0.644594 0.871595 0.189497
0.733022 0.889652 0.193025
0.836484 0.910780 0.197153
0.027372 0.014935 0.134393
0.040198 0.017554 0.134905
0.061731 0.021951 0.135764
0.095213 0.028789 0.137100
0.141496 0.038240 0.138946
0.201269 0.050446 0.141331
0.275115 0.065526 0.144278
0.363542 0.083584 0.147806
0.467005 0.104711 0.151934
0.038545 0.038667 0.137647
0.051371 0.041286 0.138159
0.072904 0.045683 0.139018
0.106386 0.052520 0.140354
0.152669 0.061972 0.142201
0.212442 0.074178 0.144585
0.286288 0.089258 0.147532
0.374716 0.107315 0.151060
0.478178 0.128443 0.155188
0.057304 0.078508 0.143111
0.070130 0.081128 0.143622
0.091663 0.085525 0.144481
0.125145 0.092362 0.145817
0.171428 0.101813 0.147664
0.231201 0.114020 0.150049
0.305047 0.129099 0.152995
0.393474 0.147157 0.156524
0.496937 0.168285 0.160652
0.086472 0.140459 0.151606
0.099298 0.143078 0.152118
0.120831 0.147475 0.152977
0.154313 0.154313 0.154313
0.200596 0.163764 0.156159
0.260369 0.175970 0.158544
0.334215 0.191050 0.161491
0.422642 0.209108 0.165019
0.526105 0.230235 0.169147
0.126792 0.226095 0.163349
0.139618 0.228714 0.163861
0.161151 0.233112 0.164720
0.194632 0.239949 0.166056
0.240916 0.249400 0.167903
0.300689 0.261606 0.170287
0.374535 0.276686 0.173234
0.462962 0.294744 0.176762
0.566425 0.315872 0.180890
0.178863 0.336691 0.178515
0.191689 0.339311 0.179027
0.213222 0.343708 0.179886
0.246704 0.350545 0.181222
0.292987 0.359996 0.183069
0.352760 0.372203 0.185453
0.426606 0.387282 0.188400
0.515034 0.405340 0.191928
0.618496 0.426468 0.196056
0.243194 0.473326 0.197252
0.256020 0.475945 0.197763
0.277553 0.480343 0.198623
0.311035 0.487180 0.199959
0.357318 0.496631 0.201805
0.417091 0.508837 0.204190
0.490937 0.523917 0.207137
0.579365 0.541975 0.210665
0.682827 0.563103 0.214793
0.320229 0.636941 0.219688
0.333055 0.639560 0.220200
0.354588 0.643958 0.221059
0.388070 0.650795 0.222395
0.434353 0.660246 0.224242
0.494126 0.672452 0.226627
0.567972 0.687532 0.229573
0.656399 0.705590 0.233101
0.759862 0.726718 0.237229
0.410360 0.828374 0.245939
0.423186 0.830994 0.246451
0.444719 0.835391 0.247310
0.478201 0.842228 0.248646
0.524484 0.851679 0.250493
0.584257 0.863886 0.252878
0.658103 0.878965 0.255824
0.746531 0.897023 0.259352
0.849993 0.918151 0.263480
0.046046 0.025124 0.226080
0.058872 0.027743 0.226591
0.080405 0.032141 0.227451
0.113886 0.038978 0.228786
0.160170 0.048429 0.230633
0.219943 0.060635 0.233018
0.293789 0.075715 0.235964
0.382216 0.093773 0.239493
0.485679 0.114901 0.243621
0.057219 0.048856 0.229334
0.070045 0.051475 0.229846
0.091578 0.055872 0.230705
0.125060 0.062709 0.232041
0.171343 0.072161 0.233887
0.231116 0.084367 0.236272
0.304962 0.099447 0.239219
0.393390 0.117504 0.242747
0.496852 0.138632 0.246875
0.075978 0.088698 0.234797
0.088804 0.091317 0.235309
0.110337 0.095714 0.236168
0.143818 0.102551 0.237504
0.190102 0.112003 0.239351
0.249875 0.124209 0.241736
0.323721 0.139289 0.244682
0.412148 0.157346 0.248210
0.515611 0.178474 0.252339
0.105146 0.150648 0.243293
0.117972 0.153267 0.243804
0.139505 0.157664 0.244664
0.172986 0.164502 0.245999
0.219270 0.173953 0.247846
0.279043 0.186159 0.250231
0.352889 0.201239 0.253177
0.441316 0.219297 0.256706
0.544779 0.240425 0.260834
0.145465 0.236284 0.255036
0.158291 0.238904 0.255548
0.179824 0.243301 0.256407
0.213306 0.250138 0.257743
0.259589 0.259589 0.259589
0.319362 0.271796 0.261974
0.393208 0.286875 0.264921
0.481636 0.304933 0.268449
0.585098 0.326061 0.272577
0.197537 0.346881 0.270202
0.210363 0.349500 0.270714
0.231896 0.353897 0.271573
0.265378 0.360734 0.272909
0.311661 0.370186 0.274755
0.371434 0.382392 0.277140
0.445280 0.397472 0.280087
0.533708 0.415529 0.283615
0.637170 0.436657 0.287743
0.261868 0.483515 0.288939
0.274694 0.486135 0.289450
0.296227 0.490532 0.290309
0.329709 0.497369 0.291645
0.375992 0.506820 0.293492
0.435765 0.519027 0.295877
0.509611 0.534106 0.298823
0.598039 0.552164 0.302352
0.701501 0.573292 0.306480
0.338902 0.647130 0.311375
0.351728 0.649749 0.311887
0.373261 0.654147 0.312746
0.406743 0.660984 0.314082
0.453026 0.670435 0.315929
0.512799 0.682641 0.318313
0.586645 0.697721 0.321260
0.675073 0.715779 0.324788
0.778535 0.736907 0.328916
0.429034 0.838564 0.337626
0.441860 0.841183 0.338138
0.463393 0.845580 0.338997
0.496875 0.852417 0.340333
0.543158 0.861869 0.342180
0.602931 0.874075 0.344565
0.676777 0.889155 0.347511
0.765205 0.907212 0.351039
0.868667 0.928340 0.355167
0.070162 0.038283 0.344490
0.082988 0.040902 0.345002
0.104521 0.045299 0.345861
0.138003 0.052137 0.347197
0.184286 0.061588 0.349043
0.244059 0.073794 0.351428
0.317905 0.088874 0.354375
0.406333 0.106932 0.357903
0.509795 0.128059 0.362031
0.081336 0.062015 0.347744
0.094162 0.064634 0.348256
0.115695 0.069031 0.349115
0.149176 0.075868 0.350451
0.195460 0.085320 0.352298
0.255233 0.097526 0.354683
0.329079 0.112606 0.357629
0.417506 0.130663 0.361157
0.520969 0.151791 0.365285
0.100094 0.101856 0.353208
0.112920 0.104476 0.353719
0.134453 0.108873 0.354578
0.167935 0.115710 0.355914
0.214218 0.125161 0.357761
0.273991 0.137368 0.360146
0.347837 0.152447 0.363092
0.436265 0.170505 0.366621
0.539727 0.191633 0.370749
0.129262 0.163807 0.361703
0.142088 0.166426 0.362215
0.163621 0.170823 0.363074
0.197103 0.177661 0.364410
0.243386 0.187112 0.366256
0.303159 0.199318 0.368641
0.377005 0.214398 0.371588
0.465433 0.232456 0.375116
0.568895 0.253583 0.379244
0.169582 0.249443 0.373446
0.182408 0.252062 0.373958
0.203941 0.256460 0.374817
0.237423 0.263297 0.376153
0.283706 0.272748 0.378000
0.343479 0.284954 0.380385
0.417325 0.300034 0.383331
0.505753 0.318092 0.386859
0.609215 0.339220 0.390987
0.221653 0.360039 0.388612
0.234479 0.362659 0.389124
0.256012 0.367056 0.389983
0.289494 0.373893 0.391319
0.335778 0.383344 0.393166
0.395551 0.395551 0.395551
0.469396 0.410630 0.398497
0.557824 0.428688 0.402025
0.661286 0.449816 0.406153
0.285985 0.496674 0.407349
0.298811 0.499293 0.407861
0.320344 0.503691 0.408720
0.353826 0.510528 0.410056
0.400109 0.519979 0.411902
0.459882 0.532185 0.414287
0.533728 0.547265 0.417234
0.622155 0.565323 0.420762
0.725618 0.586451 0.424890
0.363019 0.660289 0.429785
0.375845 0.662908 0.430297
0.397378 0.667306 0.431156
0.430860 0.674143 0.432492
0.477143 0.683594 0.434339
0.536916 0.695800 0.436724
0.610762 0.710880 0.439670
0.699190 0.728938 0.443198
0.802652 0.750066 0.447326
0.453151 0.851722 0.456036
0.465977 0.854342 0.456548
0.487510 0.858739 0.457407
0.520992 0.865576 0.458743
0.567275 0.875027 0.460590
0.627048 0.887234 0.462975
0.700894 0.902313 0.465921
0.789321 0.920371 0.469449
0.892784 0.941499 0.473578
0.099957 0.054540 0.490778
0.112783 0.057159 0.491290
0.134316 0.061556 0.492149
0.167798 0.068394 0.493485
0.214081 0.077845 0.495332
0.273854 0.090051 0.497717
0.347700 0.105131 0.500663
0.436127 0.123189 0.504192
0.539590 0.144316 0.508320
0.111130 0.078272 0.494033
0.123956 0.080891 0.494545
0.145489 0.085288 0.495404
0.178971 0.092125 0.496740
0.225254 0.101577 0.498586
0.285027 0.113783 0.500971
0.358873 0.128863 0.503918
0.447301 0.146920 0.507446
0.550763 0.168048 0.511574
0.129889 0.118113 0.499496
0.142715 0.120733 0.500008
0.164248 0.125130 0.500867
0.197730 0.131967 0.502203
0.244013 0.141418 0.504050
0.303786 0.153625 0.506435
0.377632 0.168704 0.509381
0.466059 0.186762 0.512909
0.569522 0.207890 0.517037
0.159057 0.180064 0.507992
0.171883 0.182683 0.508503
0.193416 0.187080 0.509362
0.226898 0.193918 0.510698
0.273181 0.203369 0.512545
0.332954 0.215575 0.514930
0.406800 0.230655 0.517876
0.495227 0.248713 0.521405
0.598690 0.269840 0.525533
0.199376 0.265700 0.519735
0.212202 0.268319 0.520247
0.233735 0.272717 0.521106
0.267217 0.279554 0.522442
0.313501 0.289005 0.524288
0.373273 0.301211 0.526673
0.447119 0.316291 0.529620
0.535547 0.334349 0.533148
0.639009 0.355477 0.537276
0.251448 0.376296 0.534901
0.264274 0.378916 0.535413
0.285807 0.383313 0.536272
0.319289 0.390150 0.537608
0.365572 0.399601 0.539454
0.425345 0.411808 0.541839
0.499191 0.426887 0.544786
0.587619 0.444945 0.548314
0.691081 0.466073 0.552442
0.315779 0.512931 0.553637
0.328605 0.515550 0.554149
0.350138 0.519948 0.555008
0.383620 0.526785 0.556344
0.429903 0.536236 0.558191
0.489676 0.548442 0.560576
0.563522 0.563522 0.563522
0.651950 0.581580 0.567051
0.755412 0.602708 0.571179
0.392814 0.676546 0.576074
0.405640 0.679165 0.576586
0.427173 0.683563 0.577445
0.460654 0.690400 0.578781
0.506938 0.699851 0.580627
0.566711 0.712057 0.583012
0.640557 0.727137 0.585959
0.728984 0.745195 0.589487
0.832447 0.766323 0.593615
0.482945 0.867979 0.602325
0.495771 0.870599 0.602837
0.517304 0.874996 0.603696
0.550786 0.881833 0.605032
0.597069 0.891284 0.606879
0.656842 0.903491 0.609263
0.730688 0.918570 0.612210
0.819116 0.936628 0.615738
0.922578 0.957756 0.619866
0.135634 0.074007 0.665953
0.148460 0.076626 0.666465
0.169993 0.081024 0.667324
0.203475 0.087861 0.668660
0.249759 0.097312 0.670507
0.309531 0.109518 0.672892
0.383377 0.124598 0.675838
0.471805 0.142656 0.679367
0.575267 0.163784 0.683495
0.146808 0.097739 0.669208
0.159634 0.100358 0.669720
0.181167 0.104755 0.670579
0.214649 0.111592 0.671915
0.260932 0.121044 0.673761
0.320705 0.133250 0.676146
0.394551 0.148330 0.679093
0.482978 0.166387 0.682621
0.586441 0.187515 0.686749
0.165567 0.137581 0.674671
0.178392 0.140200 0.675183
0.199926 0.144597 0.676042
0.233407 0.151434 0.677378
0.279691 0.160886 0.679225
0.339464 0.173092 0.681610
0.413309 0.188172 0.684556
0.501737 0.206229 0.688084
0.605199 0.227357 0.692212
0.194734 0.199531 0.683167
0.207560 0.202150 0.683678
0.229093 0.206547 0.684537
0.262575 0.213385 0.685873
0.308859 0.222836 0.687720
0.368631 0.235042 0.690105
0.442477 0.250122 0.693051
0.530905 0.268180 0.696580
0.634367 0.289308 0.700708
0.235054 0.285167 0.694910
0.247880 0.287787 0.695422
0.269413 0.292184 0.696281
0.302895 0.299021 0.697617
0.349178 0.308472 0.699463
0.408951 0.320679 0.701848
0.482797 0.335758 0.704795
0.571225 0.353816 0.708323
0.674687 0.374944 0.712451
0.287126 0.395764 0.710076
0.299952 0.398383 0.710588
0.321485 0.402780 0.711447
0.354967 0.409617 0.712783
0.401250 0.419069 0.714629
0.461023 0.431275 0.717014
0.534869 0.446355 0.719961
0.623296 0.464412 0.723489
0.726759 0.485540 0.727617
0.351457 0.532398 0.728812
0.364283 0.535018 0.729324
0.385816 0.539415 0.730183
0.419298 0.546252 0.731519
0.465581 0.555703 0.733366
0.525354 0.567910 0.735751
0.599200 0.582989 0.738697
0.687628 0.601047 0.742226
0.791090 0.622175 0.746354
0.428491 0.696013 0.751249
0.441317 0.698632 0.751761
0.462850 0.703030 0.752620
0.496332 0.709867 0.753956
0.542615 0.719318 0.755802
0.602388 0.731524 0.758187
0.676234 0.746604 0.761134
0.764662 0.764662 0.764662
0.868124 0.785790 0.768790
0.518623 0.887447 0.777500
0.531449 0.890066 0.778012
0.552982 0.894463 0.778871
0.586464 0.901300 0.780207
0.632747 0.910752 0.782054
0.692520 0.922958 0.784438
0.766366 0.938038 0.787385
0.854794 0.956095 0.790913
0.958256 0.977223 0.795041
0.177378 0.096784 0.870912
0.190204 0.099403 0.871424
0.211737 0.103801 0.872283
0.245219 0.110638 0.873619
0.291502 0.120089 0.875466
0.351275 0.132295 0.877851
0.425121 0.147375 0.880797
0.513549 0.165433 0.884325
0.617011 0.186561 0.888453
0.188552 0.120516 0.874167
0.201378 0.123135 0.874678
0.222911 0.127532 0.875537
0.256393 0.134369 0.876873
0.302676 0.143821 0.878720
0.362449 0.156027 0.881105
0.436295 0.171107 0.884051
0.524722 0.189164 0.887580
0.628185 0.210292 0.891708
0.207310 0.160358 0.879630
0.220136 0.162977 0.880142
0.241669 0.167374 0.881001
0.275151 0.174211 0.882337
0.321434 0.183663 0.884184
0.381207 0.195869 0.886568
0.455053 0.210949 0.889515
0.543481 0.229006 0.893043
0.646943 0.250134 0.897171
0.236478 0.222308 0.888125
0.249304 0.224927 0.888637
0.270837 0.229324 0.889496
0.304319 0.236162 0.890832
0.350602 0.245613 0.892679
0.410375 0.257819 0.895064
0.484221 0.272899 0.898010
0.572649 0.290957 0.901538
0.676111 0.312085 0.905666
0.276798 0.307944 0.899869
0.289624 0.310564 0.900380
0.311157 0.314961 0.901239
0.344639 0.321798 0.902575
0.390922 0.331249 0.904422
0.450695 0.343455 0.906807
0.524541 0.358535 0.909753
0.612969 0.376593 0.913282
0.716431 0.397721 0.917410
0.328870 0.418541 0.915035
0.341696 0.421160 0.915546
0.363229 0.425557 0.916405
0.396711 0.432394 0.917741
0.442994 0.441846 0.919588
0.502767 0.454052 0.921973
0.576613 0.469132 0.924919
0.665040 0.487189 0.928448
0.768503 0.508317 0.932576
0.393201 0.555175 0.933771
0.406027 0.557795 0.934283
0.427560 0.562192 0.935142
0.461042 0.569029 0.936478
0.507325 0.578480 0.938325
0.567098 0.590687 0.940710
0.640944 0.605766 0.943656
0.729372 0.623824 0.947184
0.832834 0.644952 0.951312
0.470235 0.718790 0.956208
0.483061 0.721409 0.956719
0.504594 0.725807 0.957579
0.538076 0.732644 0.958915
0.584359 0.742095 0.960761
0.644132 0.754301 0.963146
0.717978 0.769381 0.966093
0.806406 0.787439 0.969621
0.909868 0.808567 0.973749
0.560367 0.910224 0.982459
0.573193 0.912843 0.982971
0.594726 0.917240 0.983830
0.628208 0.924077 0.985166
0.674491 0.933529 0.987012
0.734264 0.945735 0.989397
0.808110 0.960815 0.992344
0.896538 0.978872 0.995872
1.000000 1.000000 1.000000
