src/rc/ocio/DEH2020-ACES-AP0-ACEScc-Inverse.cube
TITLE "Generated by Resolve"
LUT_3D_SIZE 65
0 0 0
0 0 0
0 0 0
0.000427253 0 0
0.00190738 0 0
0.00480659 0 0
0.00935378 0 0
0.0155642 0 0
0.0226902 0 0
0.0305791 0 0
0.0390936 0 0
0.0492256 0 0
0.0622416 0 0
0.0788891 0 0
0.0992905 0 0
0.121782 0 0
0.146761 0 0
0.174395 0 0
0.204852 0 0
0.238285 0 0
0.274846 0 0
0.314656 0 0
0.357839 0 0
0.404456 0 0
0.45452 0 0
0.507973 0 0
0.564691 0 0
0.624445 0 0
0.6869 0 0
0.751614 0 0
0.818021 0 0
0.885451 0 0
0.95314 0 0
1 0 0
1 0 0
1 0 0
1 0 0
1 0 0
1 0 0
1 0 0
1 0 0
1 0 0
1 0 0
1 0 0
1 0 0
1 0 0
1 0 0
1 0 0
1 0 0
1 0 0
1 0 0
1 0 0
1 0 0
1 0 0
1 0 0
1 0 0
1 0 0
1 0 0
1 0 0
1 0 0
1 0 0
1 0 0
1 0 0
1 0 0
1 0 0
0 0 0
0 0 0
0 0 0
0.000122072 0 0
0.00108339 0 0
0.00332647 0 0
0.0071107 0 0
0.0126802 0 0
0.0193942 0 0
0.0269322 0 0
0.035172 0 0
0.0450294 0 0
0.0577554 0 0
0.0741131 0 0
0.0947127 0 0
0.11754 0 0
0.14284 0 0
0.170779 0 0
0.201511 0 0
0.235218 0 0
0.272023 0 0
0.312062 0 0
0.355459 0 0
0.402274 0 0
0.452491 0 0
0.506111 0 0
0.562966 0 0
0.622858 0 0
0.685435 0 0
0.750256 0 0
0.816754 0 0
0.88426 0 0
0.952026 0 0
1 0 0
1 0 0
1 0 0
1 0 0
1 0 0
1 0 0
1 0 0
1 0 0
1 0 0
1 0 0
1 0 0
1 0 0
1 0 0
1 0 0
1 0 0
1 0 0
1 0 0
1 0 0
1 0 0
1 0 0
1 0 0
1 0 0
1 0 0
1 0 0
1 0 0
1 0 0
1 0 0
1 0 0
1 0 0
1 0 0
1 0 0
1 0 0
0 0 0
0 0 0
0 0 0
1.5259e-05 0 0
0.000518807 0 0
0.00215152 0 0
0.00521859 0 0
0.00991836 0 0
0.0162509 0 0
0.0234226 0 0
0.0313573 0 0
0.0409247 0 0
0.0533455 0 0
0.069398 0 0
0.0900282 0 0
0.113222 0 0
0.138857 0 0
0.167102 0 0
0.198138 0 0
0.232105 0 0
0.269169 0 0
0.309453 0 0
0.353063 0 0
0.400061 0 0
0.450462 0 0
0.504234 0 0
0.561242 0 0
0.621256 0 0
0.683955 0 0
0.748882 0 0
0.815473 0 0
0.88307 0 0
0.950896 0 0
1 0 0
1 0 0
1 0 0
1 0 0
1 0 0
1 0 0
1 0 0
1 0 0
1 0 0
1 0 0
1 0 0
1 0 0
1 0 0
1 0 0
1 0 0
1 0 0
1 0 0
1 0 0
1 0 0
1 0 0
1 0 0
1 0 0
1 0 0
1 0 0
1 0 0
1 0 0
1 0 0
1 0 0
1 0 0
1 0 0
1 0 0
1 0 0
0 0 0
0 0 0
0 0 0
0 0 0
0.000183108 0 0
0.0012665 0 0
0.00364691 0 0
0.00758373 0 0
0.0132906 0 0
0.0200656 0 0
0.0276646 0 0
0.0369268 0 0
0.0490272 0 0
0.0647593 0 0
0.0852674 0 0
0.108827 0 0
0.134813 0 0
0.163378 0 0
0.19472 0 0
0.228977 0 0
0.266285 0 0
0.306813 0 0
0.350637 0 0
0.397833 0 0
0.448417 0 0
0.502358 0 0
0.559503 0 0
0.619654 0 0
0.68246 0 0
0.747494 0 0
0.814191 0 0
0.881865 0 0
0.949767 0 0
1 0 0
1 0 0
1 0 0
1 0 0
1 0 0
1 0 0
1 0 0
1 0 0
1 0 0
1 0 0
1 0 0
1 0 0
1 0 0
1 0 0
1 0 0
1 0 0
1 0 0
1 0 0
1 0 0
1 0 0
1 0 0
1 0 0
1 0 0
1 0 0
1 0 0
1 0 0
1 0 0
1 0 0
1 0 0
1 0 0
1 0 0
1 0 0
0 1.5259e-05 0
0 0 0
0 0 0
0 0 0
3.0518e-05 0 0
0.00062562 0 0
0.00239567 0 0
0.00560006 0 0
0.0104524 0 0
0.0168765 0 0
0.0241093 0 0
0.0330205 0 0
0.0447852 0 0
0.0601816 0 0
0.0801556 0 0
0.104341 0 0
0.130694 0 0
0.159609 0 0
0.191257 0 0
0.225803 0 0
0.263386 0 0
0.304143 0 0
0.348196 0 0
0.39559 0 0
0.446357 0 0
0.50045 0 0
0.557763 0 0
0.618036 0 0
0.680964 0 0
0.746105 0 0
0.812894 0 0
0.880659 0 0
0.948638 0 0
1 0 0
1 0 0
1 0 0
1 0 0
1 0 0
1 0 0
1 0 0
1 0 0
1 0 0
1 0 0
1 0 0
1 0 0
1 0 0
1 0 0
1 0 0
1 0 0
1 0 0
1 0 0
1 0 0
1 0 0
1 0 0
1 0 0
1 0 0
1 0 0
1 0 0
1 0 0
1 0 0
1 0 0
1 0 0
1 0 0
1 0 0
1 0 0
0 0.000213626 0
0 0.00015259 0
0 0.000106813 0
0 7.62951e-05 0
0 4.57771e-05 0
0.000228885 1.5259e-05 0
0.00143435 0 0
0.00395209 0 0
0.00802625 0 0
0.0138552 0 0
0.0206912 0 0
0.0292515 0 0
0.04065 0 0
0.0556802 0 0
0.075288 0 0
0.0997787 0 0
0.126513 0 0
0.155779 0 0
0.187762 0 0
0.222599 0 0
0.260456 0 0
0.301457 0 0
0.345724 0 0
0.393332 0 0
0.444282 0 0
0.498558 0 0
0.556008 0 0
0.616419 0 0
0.679469 0 0
0.744717 0 0
0.811597 0 0
0.879454 0 0
0.947509 0 0
1 0 0
1 0 0
1 0 0
1 0 0
1 0 0
1 0 0
1 0 0
1 0 0
1 0 0
1 0 0
1 0 0
1 0 0
1 0 0
1 0 0
1 0 0
1 0 0
1 0 0
1 0 0
1 0 0
1 0 0
1 0 0
1 0 0
1 0 0
1 0 0
1 0 0
1 0 0
1 0 0
1 0 0
1 0 0
1 0 0
1 0 0
1 0 0
0 0.000701915 0
0 0.000579843 0
0 0.00047303 0
0 0.000366217 0
0 0.000289921 0
4.57771e-05 0.000213626 0
0.000747692 0.00015259 0
0.00262455 0.000106813 0
0.00596628 7.62951e-05 0
0.0110475 4.57771e-05 0
0.0174563 1.5259e-05 0
0.0256199 0 0
0.0366369 0 0
0.0512856 0 0
0.0705272 0 0
0.0951553 0 0
0.122286 0 0
0.151919 0 0
0.184222 0 0
0.219364 0 0
0.257496 0 0
0.298756 0 0
0.343252 0 0
0.391073 0 0
0.442206 0 0
0.496635 0 0
0.554238 0 0
0.614801 0 0
0.677974 0 0
0.743328 0 0
0.8103 0 0
0.878233 0 0
0.946365 0 0
1 0 0
1 0 0
1 0 0
1 0 0
1 0 0
1 0 0
1 0 0
1 0 0
1 0 0
1 0 0
1 0 0
1 0 0
1 0 0
1 0 0
1 0 0
1 0 0
1 0 0
1 0 0
1 0 0
1 0 0
1 0 0
1 0 0
1 0 0
1 0 0
1 0 0
1 0 0
1 0 0
1 0 0
1 0 0
1 0 0
1 0 0
1 0 0
0 0.0015259 0
0 0.00134279 0
0 0.00115969 0
0 0.000991836 0
0 0.000839246 0
0 0.000701915 0
0.00030518 0.000579843 0
0.00161746 0.00047303 0
0.00425727 0.000366217 0
0.00848402 0.000289921 0
0.0144198 0.000213626 0
0.0221561 0.00015259 0
0.0327611 9.15541e-05 0
0.0469978 4.57771e-05 0
0.0658579 1.5259e-05 0
0.0904707 0 0
0.118013 0 0
0.148028 0 0
0.180682 0 0
0.216129 0 0
0.254551 0 0
0.296056 0 0
0.34078 0 0
0.3888 0 0
0.440131 0 0
0.494728 0 0
0.552483 0 0
0.613169 0 0
0.676463 0 0
0.741939 0 0
0.809003 0 0
0.877028 0 0
0.945235 0 0
1 0 0
1 0 0
1 0 0
1 0 0
1 0 0
1 0 0
1 0 0
1 0 0
1 0 0
1 0 0
1 0 0
1 0 0
1 0 0
1 0 0
1 0 0
1 0 0
1 0 0
1 0 0
1 0 0
1 0 0
1 0 0
1 0 0
1 0 0
1 0 0
1 0 0
1 0 0
1 0 0
1 0 0
1 0 0
1 0 0
1 0 0
1 0 0
0 0.00276188 0
0 0.00247196 0
0 0.00221256 0
0 0.00196841 0
0 0.00173953 0
0 0.0015259 0
7.62951e-05 0.00132753 0
0.000869764 0.00114443 0
0.00288396 0.000976577 0
0.00636301 0.000823987 0
0.0115969 0.000701915 0
0.0188602 0.000564584 0
0.0290227 0.000427253 0
0.0428321 0.000289921 0
0.0612802 0.00015259 0
0.0857099 6.10361e-05 0
0.113695 0 0
0.144106 0 0
0.177096 0 0
0.212879 0 0
0.251575 0 0
0.293355 0 0
0.338308 0 0
0.386542 0 0
0.438056 0 0
0.492836 0 0
0.550729 0 0
0.611551 0 0
0.674968 0 0
0.740551 0 0
0.807721 0 0
0.875822 0 0
0.944106 0 0
1 0 0
1 0 0
1 0 0
1 0 0
1 0 0
1 0 0
1 0 0
1 0 0
1 0 0
1 0 0
1 0 0
1 0 0
1 0 0
1 0 0
1 0 0
1 0 0
1 0 0
1 0 0
1 0 0
1 0 0
1 0 0
1 0 0
1 0 0
1 0 0
1 0 0
1 0 0
1 0 0
1 0 0
1 0 0
1 0 0
1 0 0
1 0 0
0 0.00440986 0
0 0.00404364 0
0 0.00369268 0
0 0.00335698 0
0 0.00303655 0
0 0.00274662 0
0 0.0024567 0
0.000381476 0.0021973 0
0.00181582 0.00195315 0
0.00459297 0.00172427 0
0.0089723 0.00151064 0
0.0157626 0.00129702 0
0.0254368 0.00106813 0
0.0388037 0.000823987 0
0.0568093 0.000579843 0
0.0806439 0.000335698 0
0.109331 0.00015259 0
0.140139 3.0518e-05 0
0.17351 0 0
0.209598 0 0
0.2486 0 0
0.290639 0 0
0.335836 0 0
0.384268 0 0
0.435981 0 0
0.490929 0 0
0.548974 0 0
0.609934 0 0
0.673487 0 0
0.739162 0 0
0.806424 0 0
0.874617 0 0
0.942977 0 0
1 0 0
1 0 0
1 0 0
1 0 0
1 0 0
1 0 0
1 0 0
1 0 0
1 0 0
1 0 0
1 0 0
1 0 0
1 0 0
1 0 0
1 0 0
1 0 0
1 0 0
1 0 0
1 0 0
1 0 0
1 0 0
1 0 0
1 0 0
1 0 0
1 0 0
1 0 0
1 0 0
1 0 0
1 0 0
1 0 0
1 0 0
1 0 0
0 0.00653086 0
0 0.00605783 0
0 0.00561532 0
0 0.00518807 0
0 0.00477607 0
0 0.00437934 0
0 0.00401312 0
0.000106813 0.00366217 0
0.00102235 0.00332647 0
0.00315862 0.00302129 0
0.00679026 0.00273136 0
0.0128634 0.00241093 0
0.0220188 0.00207523 0
0.0348821 0.00170901 0
0.0524453 0.00131228 0
0.0758526 0.0009308 0
0.104906 0.000564584 0
0.136141 0.000259403 0
0.169879 6.10361e-05 0
0.206317 0 0
0.245609 0 0
0.287907 0 0
0.333349 0 0
0.381994 0 0
0.433906 0 0
0.489021 0 0
0.547234 0 0
0.608331 0 0
0.671992 0 0
0.737774 0 0
0.805142 0 0
0.873411 0 0
0.941848 0 0
1 0 0
1 0 0
1 0 0
1 0 0
1 0 0
1 0 0
1 0 0
1 0 0
1 0 0
1 0 0
1 0 0
1 0 0
1 0 0
1 0 0
1 0 0
1 0 0
1 0 0
1 0 0
1 0 0
1 0 0
1 0 0
1 0 0
1 0 0
1 0 0
1 0 0
1 0 0
1 0 0
1 0 0
1 0 0
1 0 0
1 0 0
1 0 0
0 0.00946059 0
0 0.00888075 0
0 0.00831617 0
0 0.0077821 0
0 0.00726329 0
0 0.00675975 0
0 0.00627146 0
0 0.00581369 0
0.000427253 0.00538643 0
0.00192264 0.00495918 0
0.00477607 0.00457771 0
0.00982681 0.00415045 0
0.0184024 0.00367742 0
0.0306859 0.00315862 0
0.047715 0.00259403 0
0.0706188 0.00199893 0
0.0999161 0.00140383 0
0.13164 0.000839246 0
0.165805 0.000381476 0
0.202625 7.62951e-05 0
0.242252 0 0
0.284871 0 0
0.330571 0 0
0.379477 0 0
0.431586 0 0
0.4869 0 0
0.545281 0 0
0.606531 0 0
0.670329 0 0
0.736233 0 0
0.803708 0 0
0.872084 0 0
0.940597 0 0
1 0 0
1 0 0
1 0 0
1 0 0
1 0 0
1 0 0
1 0 0
1 0 0
1 0 0
1 0 0
1 0 0
1 0 0
1 0 0
1 0 0
1 0 0
1 0 0
1 0 0
1 0 0
1 0 0
1 0 0
1 0 0
1 0 0
1 0 0
1 0 0
1 0 0
1 0 0
1 0 0
1 0 0
1 0 0
1 0 0
1 0 0
1 0 0
0 0.0138552 0
0 0.0131685 0
0 0.0124819 0
0 0.0118105 0
0 0.0111543 0
0 0.0104372 0
0 0.00981155 0
0 0.00921645 0
7.62951e-05 0.00863661 0
0.000869764 0.00808728 0
0.0028687 0.00756847 0
0.00682078 0.00700389 0
0.0143435 0.00636301 0
0.025864 0.00563058 0
0.0421759 0.00482185 0
0.0644388 0.00395209 0
0.0937972 0.00303655 0
0.126131 0.002121 0
0.160845 0.0012665 0
0.198138 0.000564584 0
0.238193 0.000122072 0
0.281178 0 0
0.327214 0 0
0.37641 0 0
0.428794 0 0
0.484337 0 0
0.542931 0 0
0.604364 0 0
0.66833 0 0
0.734386 0 0
0.801984 0 0
0.870466 0 0
0.939086 0 0
1 0 0
1 0 0
1 0 0
1 0 0
1 0 0
1 0 0
1 0 0
1 0 0
1 0 0
1 0 0
1 0 0
1 0 0
1 0 0
1 0 0
1 0 0
1 0 0
1 0 0
1 0 0
1 0 0
1 0 0
1 0 0
1 0 0
1 0 0
1 0 0
1 0 0
1 0 0
1 0 0
1 0 0
1 0 0
1 0 0
1 0 0
1 0 0
0 0.019791 0
0 0.0190127 0
0 0.0182345 0
0 0.0174716 0
0 0.0167239 0
0 0.0159762 0
0 0.0152438 0
0 0.0145113 0
0 0.0138094 0
0.000198367 0.0131228 0
0.00129702 0.0124361 0
0.00402838 0.0117037 0
0.00987259 0.0107576 0
0.0204013 0.00976577 0
0.0357824 0.00865187 0
0.0572213 0.00740063 0
0.0862593 0.00605783 0
0.119387 0.004654 0
0.154788 0.00325017 0
0.192676 0.00195315 0
0.233249 0.000885023 0
0.276692 0.000198367 0
0.32314 0 0
0.372702 0 0
0.425406 0 0
0.481224 0 0
0.540078 0 0
0.60174 0 0
0.665904 0 0
0.732143 0 0
0.799908 0 0
0.868528 0 0
0.937255 0 0
1 0 0
1 0 0
1 0 0
1 0 0
1 0 0
1 0 0
1 0 0
1 0 0
1 0 0
1 0 0
1 0 0
1 0 0
1 0 0
1 0 0
1 0 0
1 0 0
1 0 0
1 0 0
1 0 0
1 0 0
1 0 0
1 0 0
