src/rc/ocio/DEH2020-ACES-AP0-ACEScct-Forward.cube
TITLE "Generated by Resolve"
LUT_3D_SIZE 5
0.0729076 0.0729076 0.0729076
0.318791 0.18381 0.0953231
0.401526 0.26006 0.128679
0.466224 0.313756 0.175051
0.527031 0.356115 0.214939
0.306981 0.374105 0.199969
0.375097 0.383825 0.21239
0.431495 0.396765 0.227985
0.486488 0.413321 0.246571
0.54406 0.432212 0.266209
0.388617 0.465309 0.276539
0.425635 0.470253 0.281895
0.466529 0.477333 0.289265
0.513664 0.487221 0.299016
0.569238 0.499672 0.31046
0.451255 0.548775 0.330724
0.476066 0.552728 0.33373
0.508125 0.558587 0.338018
0.550561 0.567178 0.343923
0.608225 0.578668 0.351202
0.50808 0.668971 0.3738
0.528099 0.675685 0.375753
0.556863 0.686336 0.378592
0.600381 0.703761 0.382605
0.673854 0.731975 0.387655
0.24062 0.189288 0.380621
0.348684 0.244724 0.382467
0.416205 0.290654 0.385122
0.475792 0.33196 0.388907
0.53489 0.368277 0.393683
0.340215 0.384451 0.391638
0.393317 0.393317 0.393317
0.443275 0.405264 0.395727
0.495216 0.420752 0.399176
0.551843 0.438682 0.40354
0.404883 0.470588 0.406195
0.437903 0.475395 0.40766
0.476081 0.482292 0.409812
0.521706 0.491981 0.412863
0.577218 0.504219 0.41677
0.461646 0.553002 0.424628
0.485191 0.556954 0.42591
0.516258 0.562844 0.427756
0.558373 0.571481 0.430411
0.617319 0.583078 0.433845
0.516228 0.676158 0.445548
0.535943 0.683284 0.446647
0.564706 0.694652 0.448249
0.609171 0.713527 0.450553
0.688014 0.744976 0.453544
0.318379 0.265644 0.473335
0.380972 0.293065 0.474266
0.435172 0.322621 0.475624
0.489174 0.353796 0.477607
0.546426 0.384024 0.480171
0.374868 0.398138 0.479072
0.415808 0.406027 0.479973
0.459144 0.416815 0.4813
0.507637 0.431037 0.483223
0.563409 0.447745 0.48574
0.425498 0.478126 0.487282
0.454307 0.482765 0.488151
0.489448 0.489448 0.489448
0.533379 0.498863 0.491295
0.589303 0.510826 0.493721
0.475959 0.559258 0.498756
0.49807 0.563241 0.499596
0.528054 0.569162 0.500832
0.570016 0.57789 0.502617
0.631571 0.58967 0.504936
0.528008 0.687602 0.513237
0.547478 0.69546 0.514031
0.576471 0.708186 0.515221
0.622827 0.729839 0.51693
0.712718 0.768032 0.519173
0.374426 0.319493 0.560891
0.415488 0.335714 0.561654
0.458915 0.355596 0.562814
0.507454 0.378927 0.564477
0.563241 0.40351 0.56669
0.411032 0.415549 0.565728
0.442695 0.422415 0.566506
0.479912 0.431937 0.567666
0.525002 0.444724 0.569345
0.580575 0.46006 0.571572
0.450721 0.48864 0.572961
0.475593 0.493065 0.573739
0.507713 0.499489 0.574914
0.550179 0.508583 0.576623
0.607767 0.520241 0.578866
0.495171 0.568444 0.583658
0.515846 0.572473 0.584466
0.544884 0.5785 0.585672
0.587411 0.587411 0.587411
0.654719 0.599542 0.589731
0.544854 0.706554 0.59826
0.564309 0.715923 0.5991
0.594156 0.731487 0.600366
0.644678 0.759548 0.602197
0.763836 0.816907 0.604654
0.420203 0.362066 0.706401
0.450004 0.3729 0.708156
0.485878 0.387121 0.710796
0.530221 0.405005 0.714778
0.585977 0.425086 0.720256
0.446555 0.435325 0.717861
0.472007 0.44126 0.719814
0.504555 0.449622 0.722774
0.547219 0.461051 0.72723
0.60441 0.475044 0.733425
0.478798 0.501839 0.737484
0.500664 0.506065 0.739849
0.530465 0.51223 0.743465
0.572457 0.521035 0.748974
0.634668 0.532418 0.756741
0.518624 0.580758 0.775494
0.538293 0.584894 0.779034
0.567071 0.591104 0.784527
0.611856 0.600381 0.793164
0.692607 0.613138 0.805966
0.567025 0.737942 0.879057
0.587091 0.750851 0.891081
0.619303 0.7738 0.912718
0.679393 0.822522 0.959564
1 1 1
