src/rc/ocio/DEH2020-ACES-AP0-ACEScct-Forward.cube
TITLE "Generated by Resolve"
LUT_3D_SIZE 65
0.0729076 0.0729076 0.0729076
0.162203 0.0910353 0.0764172
0.190234 0.0983139 0.0778363
0.208469 0.104524 0.0790417
0.222217 0.110185 0.0801251
0.233341 0.11548 0.0811475
0.242863 0.120607 0.0821393
0.252033 0.126101 0.0831922
0.260761 0.131899 0.0843214
0.269078 0.138003 0.0854963
0.277028 0.144411 0.086717
0.284657 0.151125 0.088014
0.291981 0.158099 0.0893568
0.299031 0.164904 0.0907607
0.305837 0.17145 0.0922255
0.312413 0.177737 0.0937514
0.318791 0.18381 0.0953231
0.324956 0.189685 0.0969711
0.330953 0.195361 0.0986648
0.336767 0.200855 0.10042
0.342443 0.20618 0.102235
0.347967 0.211353 0.104112
0.353353 0.216373 0.10605
0.358618 0.221256 0.108034
0.36376 0.226001 0.110094
0.368795 0.230625 0.1122
0.373739 0.235142 0.114382
0.378576 0.239536 0.116609
0.383322 0.243839 0.118898
0.387991 0.248035 0.121263
0.392569 0.252125 0.123674
0.397086 0.256138 0.126146
0.401526 0.26006 0.128679
0.405905 0.263905 0.131273
0.410224 0.267659 0.133928
0.414481 0.271351 0.136645
0.418692 0.274968 0.139437
0.422843 0.278523 0.142275
0.426963 0.282002 0.145174
0.431037 0.28542 0.148135
0.435065 0.288777 0.151171
0.439048 0.292073 0.154253
0.443015 0.295323 0.157382
0.446937 0.298512 0.160449
0.450843 0.301656 0.16347
0.454719 0.304753 0.166445
0.458579 0.307805 0.16936
0.462409 0.310796 0.172229
0.466224 0.313756 0.175051
0.470024 0.31667 0.177829
0.473808 0.319539 0.180575
0.477592 0.322362 0.183261
0.481361 0.325154 0.185916
0.48513 0.327916 0.188525
0.488899 0.330632 0.191089
0.492668 0.333318 0.193637
0.496437 0.335973 0.196124
0.500206 0.338598 0.198596
0.50399 0.341176 0.201022
0.507774 0.34374 0.203418
0.511589 0.346273 0.205783
0.515419 0.348775 0.208118
0.519265 0.351247 0.210422
0.523125 0.353689 0.212696
0.527031 0.356115 0.214939
0.151064 0.213672 0.0949111
0.214572 0.222431 0.0984512
0.230823 0.225696 0.0998703
0.242618 0.228382 0.101076
0.252094 0.230762 0.102174
0.260121 0.232914 0.103197
0.267216 0.234958 0.104189
0.27425 0.237095 0.105257
0.281102 0.239292 0.106371
0.28777 0.241535 0.107561
0.29427 0.243824 0.108797
0.300618 0.246174 0.110094
0.306798 0.248539 0.111437
0.312825 0.25095 0.112856
0.318715 0.253407 0.114321
0.324468 0.255863 0.115846
0.330083 0.25835 0.117449
0.335592 0.260868 0.119081
0.340963 0.263386 0.12079
0.346227 0.265934 0.12256
0.351385 0.268467 0.124376
0.356451 0.271031 0.126268
0.36141 0.273579 0.128206
0.366278 0.276143 0.130205
0.371069 0.278706 0.13228
0.375769 0.28127 0.134401
0.380392 0.283818 0.136584
0.384955 0.286381 0.138827
0.389425 0.28893 0.141131
0.393851 0.291463 0.143496
0.398215 0.293996 0.145907
0.402502 0.296513 0.148394
0.406744 0.299031 0.150942
0.410941 0.301518 0.153552
0.415091 0.304021 0.156222
0.419181 0.306493 0.158877
0.423239 0.308949 0.161501
0.427253 0.311406 0.164111
0.431235 0.313848 0.16669
0.435187 0.316258 0.169238
0.439094 0.318669 0.171771
0.442985 0.321065 0.174273
0.44683 0.323445 0.176745
0.450675 0.325811 0.179187
0.454475 0.328161 0.181613
0.458274 0.330495 0.184024
0.462043 0.332815 0.186389
0.465797 0.335119 0.188754
0.469551 0.337407 0.191073
0.473289 0.339696 0.193378
0.477012 0.341955 0.195666
0.480735 0.344198 0.197925
0.484459 0.346426 0.200153
0.488167 0.348638 0.202365
0.49189 0.350851 0.204562
0.495613 0.353033 0.206729
0.499336 0.3552 0.208865
0.503075 0.357366 0.211002
0.506828 0.359503 0.213107
0.510582 0.361639 0.215183
0.514366 0.36376 0.217243
0.518166 0.365866 0.219287
0.521996 0.367956 0.221317
0.525841 0.370031 0.223316
0.529717 0.372107 0.225299
0.178958 0.241978 0.103761
0.228931 0.248356 0.107301
0.242878 0.250797 0.108721
0.253223 0.252811 0.109926
0.261662 0.254612 0.111025
0.268879 0.25626 0.112047
0.275349 0.257816 0.113054
0.281773 0.259464 0.114107
0.28809 0.261158 0.115236
0.294286 0.262913 0.116426
0.300343 0.264714 0.117662
0.306294 0.26656 0.118959
0.312108 0.268452 0.120317
0.317815 0.270375 0.121721
0.323415 0.272343 0.123201
0.328893 0.274342 0.124727
0.334264 0.276356 0.126314
0.339529 0.278416 0.127977
0.344701 0.280491 0.129686
0.349767 0.282582 0.131441
0.354757 0.284703 0.133272
0.359655 0.286824 0.135164
0.364462 0.288975 0.137102
0.369192 0.291142 0.139116
0.373846 0.293309 0.141176
0.378439 0.295491 0.143313
0.382956 0.297673 0.145495
0.387396 0.29987 0.147738
0.391791 0.302068 0.150042
0.396109 0.304265 0.152422
0.400381 0.306462 0.154849
0.404608 0.308675 0.157305
0.408774 0.310872 0.159762
0.412909 0.313069 0.162203
0.416983 0.315267 0.16463
0.421027 0.317464 0.167025
0.425025 0.319661 0.169421
0.428977 0.321843 0.171786
0.432914 0.324025 0.174151
0.436805 0.326207 0.176486
0.440681 0.328374 0.178805
0.444526 0.330541 0.181109
0.448341 0.332692 0.183398
0.45214 0.334844 0.185657
0.455909 0.33698 0.187915
0.459678 0.339117 0.190143
0.463416 0.341238 0.192355
0.46714 0.343343 0.194553
0.470863 0.345449 0.196719
0.474571 0.347555 0.198886
0.478279 0.349645 0.201022
0.481971 0.35172 0.203143
0.485679 0.35378 0.205249
0.489372 0.35584 0.207324
0.49308 0.3579 0.2094
0.496773 0.35993 0.211444
0.500496 0.361959 0.213474
0.504219 0.363989 0.215488
0.507958 0.366003 0.217487
0.511711 0.368002 0.219471
0.51548 0.369985 0.221439
0.519265 0.371969 0.223377
0.523079 0.373953 0.225315
0.526925 0.375906 0.227222
0.5308 0.377874 0.229129
0.197147 0.260441 0.111299
0.239536 0.265644 0.114855
0.251972 0.267643 0.116274
0.261341 0.269306 0.117479
0.269078 0.270802 0.118578
0.275731 0.272175 0.119615
0.281727 0.273472 0.120607
0.287739 0.274861 0.121675
0.29366 0.27628 0.122805
0.299489 0.27776 0.123995
0.305226 0.279286 0.125231
0.310872 0.280858 0.126528
0.316426 0.28246 0.127886
0.321874 0.284108 0.129305
0.32723 0.285801 0.130785
0.332509 0.28751 0.132311
0.337682 0.289265 0.133913
0.342779 0.291035 0.135561
0.347784 0.292851 0.13727
0.352697 0.294682 0.13904
0.357534 0.296529 0.140871
0.36231 0.298405 0.142763
0.366995 0.300298 0.144717
0.371618 0.302205 0.146715
0.376165 0.304128 0.148791
0.380652 0.306065 0.150912
0.385077 0.308019 0.153109
0.389441 0.309972 0.155367
0.393759 0.31194 0.157641
0.398016 0.313924 0.159915
0.402213 0.315908 0.162173
0.406363 0.317906 0.164446
0.410483 0.31989 0.16669
0.414542 0.321889 0.168948
0.41857 0.323903 0.171176
0.422568 0.325902 0.173404
0.42652 0.327901 0.175616
0.430442 0.329915 0.177829
0.434333 0.331914 0.180026
0.438178 0.333928 0.182208
0.442023 0.335927 0.184375
0.445823 0.337926 0.186542
0.449607 0.339925 0.188678
0.453376 0.341909 0.190814
0.45713 0.343908 0.192935
0.460853 0.345892 0.195041
0.464576 0.347875 0.197131
0.468284 0.349859 0.199207
0.471977 0.351827 0.201266
0.47567 0.353796 0.203311
0.479347 0.355749 0.205341
0.48304 0.357717 0.207355
0.486717 0.359655 0.209354
0.490394 0.361608 0.211353
0.494087 0.363546 0.213321
0.49778 0.365469 0.215274
0.501472 0.367391 0.217227
0.50518 0.369314 0.21915
0.508919 0.371221 0.221073
0.512657 0.373129 0.222965
0.516411 0.375036 0.224857
0.520195 0.376913 0.226719
0.52401 0.378805 0.22858
0.527855 0.380682 0.230426
0.531716 0.382559 0.232258
0.210864 0.274388 0.118181
0.248157 0.278859 0.121736
0.259495 0.280583 0.123156
0.268132 0.282017 0.124361
0.275303 0.283314 0.125475
0.281529 0.284504 0.126497
0.28716 0.285649 0.127504
0.292821 0.286854 0.128573
0.298436 0.288106 0.129702
0.303975 0.289403 0.130877
0.309438 0.290745 0.132128
0.314839 0.292119 0.133425
0.320165 0.293538 0.134783
0.325414 0.295003 0.136202
0.330587 0.296498 0.137682
0.335683 0.298024 0.139223
0.340688 0.29958 0.14081
0.345632 0.301167 0.142473
0.3505 0.302785 0.144183
0.355291 0.304417 0.145953
0.360006 0.306096 0.147784
0.36466 0.307774 0.149676
0.369253 0.309483 0.151629
0.37377 0.311208 0.153643
0.378225 0.312963 0.155718
0.382635 0.314717 0.157809
0.386984 0.316503 0.159915
0.391272 0.318288 0.16202
0.395514 0.320089 0.164111
0.39971 0.321904 0.166232
0.403845 0.323735 0.168322
0.40795 0.325567 0.170428
0.412009 0.327413 0.172534
0.416022 0.329259 0.17464
0.420005 0.331106 0.17673
0.423957 0.332967 0.17882
0.427863 0.334829 0.180896
0.431739 0.33669 0.182971
0.435599 0.338567 0.185031
0.439429 0.340444 0.187091
0.443229 0.342306 0.189151
0.446998 0.344182 0.19118
0.450752 0.346059 0.193225
0.45449 0.347936 0.195239
0.458213 0.349813 0.197253
0.461921 0.351675 0.199252
0.465629 0.353552 0.201236
0.469306 0.355413 0.20322
0.472984 0.35729 0.205188
0.476661 0.359152 0.207141
0.480323 0.361013 0.209079
0.483986 0.36286 0.211017
0.487648 0.364721 0.21294
0.491325 0.366567 0.214847
0.494987 0.368414 0.216739
0.49868 0.37026 0.218616
0.502358 0.372107 0.220493
0.506065 0.373938 0.222339
0.509789 0.375769 0.224186
0.513512 0.377584 0.226017
0.517266 0.379416 0.227848
0.52105 0.381231 0.229648
0.524849 0.383032 0.231449
0.528679 0.384848 0.233234
0.532555 0.386648 0.235004
0.221958 0.28571 0.12462
0.255512 0.289662 0.128176
0.265995 0.291188 0.129595
0.274037 0.29247 0.130816
0.280766 0.293629 0.131914
0.286641 0.294682 0.132952
0.291966 0.295705 0.133959
0.297337 0.296788 0.135027
0.302678 0.297902 0.136156
0.307973 0.299062 0.137346
0.313222 0.300267 0.138582
0.31841 0.301518 0.139895
0.323537 0.3028 0.141253
0.328618 0.304112 0.142672
0.333608 0.30547 0.144152
0.338552 0.306859 0.145693
0.34342 0.308278 0.14728
0.348226 0.309712 0.148943
0.352972 0.311192 0.150652
0.357641 0.312688 0.152438
0.362264 0.314214 0.154269
0.366812 0.315755 0.156161
0.371313 0.317327 0.158068
0.375753 0.318914 0.159991
0.380133 0.320531 0.161929
0.384451 0.322148 0.163882
0.388739 0.323796 0.165835
0.39295 0.325444 0.167788
0.397131 0.327123 0.169757
0.401266 0.328801 0.171725
0.405356 0.33051 0.173709
0.409415 0.332219 0.175677
0.413428 0.333928 0.177661
0.417395 0.335653 0.179629
0.421332 0.337392 0.181598
0.425238 0.339132 0.183581
0.429114 0.340887 0.18555
0.432959 0.342641 0.187503
0.436774 0.344396 0.189471
0.440574 0.346166 0.191424
0.444343 0.347921 0.193378
0.448096 0.349691 0.195315
0.45182 0.351476 0.197253
0.455543 0.353246 0.199176
0.459236 0.355016 0.201099
0.462928 0.356802 0.203006
0.466606 0.358572 0.204913
0.470268 0.360357 0.206806
0.47393 0.362142 0.208698
0.477577 0.363912 0.210575
0.481224 0.365682 0.212436
0.484886 0.367468 0.214298
0.488533 0.369238 0.216144
0.49218 0.371008 0.21799
0.495842 0.372778 0.219806
0.499519 0.374548 0.221622
0.503197 0.376318 0.223438
0.506889 0.378073 0.225223
0.510597 0.379843 0.227008
0.514321 0.381598 0.228794
0.518074 0.383352 0.230549
0.521843 0.385107 0.232303
0.525643 0.386847 0.234043
0.529473 0.388586 0.235782
0.533333 0.390326 0.237491
0.231464 0.295445 0.130846
0.262074 0.298985 0.134417
0.271839 0.300374 0.135836
0.279393 0.301534 0.137057
0.28574 0.302571 0.138155
0.29131 0.303548 0.139193
0.296376 0.304463 0.1402
0.301503 0.30544 0.141268
0.306615 0.306462 0.142397
0.311696 0.30753 0.143587
0.316732 0.308629 0.144839
0.321736 0.309758 0.146136
0.326696 0.310933 0.147509
0.331594 0.312139 0.148928
0.336446 0.313375 0.150408
0.341253 0.314656 0.151949
0.345983 0.315953 0.153552
0.350683 0.317281 0.1552
0.355306 0.318639 0.156909
0.359869 0.320027 0.158633
0.364385 0.321431 0.160372
0.368856 0.322866 0.162142
0.373266 0.324331 0.163928
0.377615 0.325795 0.165713
0.381933 0.327291 0.167529
0.386191 0.328817 0.169345
0.390402 0.330343 0.171176
0.394568 0.331884 0.173022
0.398688 0.333455 0.174868
0.402762 0.335027 0.17673
0.406806 0.336614 0.178592
0.410803 0.338231 0.180453
0.414771 0.339834 0.18233
0.418708 0.341466 0.184192
0.422599 0.343099 0.186069
0.426474 0.344747 0.18793
0.430304 0.346395 0.189807
0.434119 0.348058 0.191669
0.437903 0.349722 0.193545
0.441672 0.351385 0.195407
0.445411 0.353063 0.197269
0.449134 0.354742 0.199115
0.452842 0.356435 0.200977
0.456535 0.358129 0.202823
0.460212 0.359823 0.204654
0.463874 0.361517 0.2065
0.467536 0.36321 0.208331
0.471183 0.364904 0.210147
0.47483 0.366613 0.211963
0.478462 0.368322 0.213764
0.482094 0.370016 0.215564
0.48574 0.371725 0.217365
0.489372 0.373419 0.219135
0.493019 0.375128 0.22092
0.496666 0.376837 0.222675
0.500328 0.378531 0.224445
0.50399 0.38024 0.226184
0.507683 0.381933 0.227924
0.511376 0.383627 0.229664
0.515099 0.385336 0.231373
0.518837 0.38703 0.233097
0.522606 0.388724 0.234791
0.52639 0.390417 0.236484
0.530221 0.392096 0.238163
0.534081 0.39379 0.239841
0.240604 0.304829 0.13753
0.268589 0.308034 0.1411
0.277699 0.309285 0.142535
0.284794 0.310338 0.14374
0.290791 0.311284 0.144854
0.296056 0.312169 0.145892
0.300862 0.313008 0.146899
0.305745 0.313893 0.147967
0.310643 0.314824 0.149096
0.315511 0.315801 0.150286
0.320348 0.316808 0.151537
0.32517 0.317845 0.15285
0.329961 0.318914 0.154208
0.334707 0.320027 0.155627
0.339406 0.321172 0.157092
0.34406 0.322332 0.158587
0.348669 0.323537 0.160113
0.353231 0.324758 0.161669
0.357748 0.326024 0.163241
0.362219 0.327306 0.164843
0.366629 0.328603 0.166461
0.370993 0.329931 0.168109
0.375326 0.331289 0.169772
0.379599 0.332662 0.171435
0.383825 0.334051 0.173129
0.388006 0.335454 0.174838
0.392157 0.336889 0.176562
0.396262 0.338338 0.178286
0.40032 0.339803 0.180026
0.404334 0.341283 0.181765
0.408331 0.342763 0.18352
0.412284 0.344274 0.18529
0.416205 0.345785 0.187045
0.420081 0.347326 0.188815
0.423941 0.348867 0.1906
0.427771 0.350408 0.19237
0.431571 0.351965 0.194141
0.435355 0.353536 0.195926
0.439109 0.355123 0.197696
0.442847 0.356695 0.199466
0.446555 0.358297 0.201251
0.450248 0.359884 0.203021
0.453941 0.361486 0.204791
0.457603 0.363104 0.206561
0.46125 0.364721 0.208316
0.464897 0.366323 0.210071
0.468528 0.367956 0.211826
0.47216 0.369574 0.213581
0.475792 0.371206 0.21532
0.479408 0.372839 0.21706
0.483024 0.374456 0.218799
0.486656 0.376089 0.220523
0.490272 0.377737 0.222232
0.493904 0.37937 0.223941
0.497536 0.381003 0.22565
0.501183 0.382635 0.227359
0.504845 0.384283 0.229038
0.508522 0.385916 0.230732
0.512215 0.387564 0.232395
0.515923 0.389197 0.234073
0.519661 0.390829 0.235721
0.523415 0.392462 0.237385
0.527214 0.39411 0.239017
0.531029 0.395743 0.240665
0.53489 0.397375 0.242283
0.249287 0.313771 0.144594
0.274983 0.316686 0.148165
0.283497 0.317815 0.149584
0.29015 0.318776 0.150805
0.295811 0.319646 0.151919
0.300801 0.320455 0.152956
0.305379 0.321218 0.153964
0.310033 0.322042 0.155032
0.314702 0.322896 0.156161
0.319371 0.323781 0.157336
0.324025 0.324712 0.158541
0.328664 0.325658 0.159792
0.333272 0.32665 0.161074
0.337865 0.327672 0.162402
0.342412 0.328725 0.163745
0.346929 0.329809 0.165133
0.351415 0.330922 0.166537
0.355856 0.332052 0.167971
0.36025 0.333211 0.169436
0.364614 0.334401 0.170932
0.368933 0.335622 0.172442
0.373205 0.336843 0.173968
0.377447 0.338109 0.175509
0.381628 0.339391 0.177081
0.385794 0.340688 0.178668
0.389899 0.342 0.18027
0.393973 0.343343 0.181872
0.398016 0.344701 0.183505
0.402014 0.346059 0.185138
0.405982 0.347448 0.186786
0.409918 0.348852 0.188434
0.413809 0.350271 0.190097
0.417685 0.35169 0.19176
0.42153 0.35314 0.193439
0.425345 0.354589 0.195117
0.429129 0.356054 0.196796
0.432898 0.357534 0.198489
0.436637 0.359014 0.200183
0.44036 0.36051 0.201862
0.444068 0.362005 0.203555
0.447745 0.363516 0.205249
0.451423 0.365042 0.206943
0.45507 0.366567 0.208637
0.458717 0.368093 0.210315
0.462348 0.369635 0.212009
0.465965 0.371176 0.213687
0.469581 0.372717 0.215381
0.473198 0.374273 0.21706
0.476799 0.37583 0.218723
0.4804 0.377386 0.220401
0.484001 0.378958 0.222065
0.487617 0.380514 0.223728
0.491218 0.382086 0.225376
0.494835 0.383658 0.227039
0.498466 0.385229 0.228672
0.502098 0.386816 0.23032
0.505745 0.388388 0.231952
0.509407 0.38996 0.233585
0.5131 0.391546 0.235203
0.516808 0.393133 0.23682
0.520531 0.394705 0.238422
0.524285 0.396292 0.240024
0.528069 0.397879 0.241627
0.531884 0.399451 0.243214
0.535729 0.401038 0.244785
0.257572 0.322316 0.15201
0.281239 0.324987 0.155596
0.289204 0.326024 0.157
0.29546 0.326909 0.15819
0.300801 0.327703 0.159258
0.305531 0.328435 0.16025
0.30988 0.329152 0.161181
0.314321 0.3299 0.162173
0.318791 0.330694 0.16321
0.323262 0.331502 0.164294
0.327733 0.332357 0.165408
0.332204 0.333242 0.166552
0.336645 0.334157 0.167742
0.341085 0.335103 0.168963
0.345495 0.33608 0.170214
0.349874 0.337072 0.171496
0.354223 0.338109 0.172793
0.358541 0.339162 0.174136
0.362829 0.34023 0.175494
0.367086 0.341344 0.176883
0.371298 0.342473 0.178286
0.375479 0.343618 0.179721
0.379629 0.344793 0.18117
0.383734 0.345983 0.182635
0.387808 0.347204 0.184115
0.391852 0.34844 0.185611
0.395865 0.349691 0.187121
0.399832 0.350958 0.188647
0.403769 0.352239 0.190188
0.407675 0.353552 0.191745
0.411566 0.354864 0.193301
0.415412 0.356207 0.194873
0.419226 0.357549 0.196445
0.423026 0.358907 0.198032
0.426795 0.360281 0.199634
0.430549 0.361669 0.201221
0.434272 0.363058 0.202823
0.43798 0.364462 0.204425
0.441672 0.365881 0.206043
0.445335 0.367315 0.207645
0.448997 0.36875 0.209262
0.452628 0.370184 0.21088
0.45626 0.371633 0.212497
0.459876 0.373098 0.214115
0.463478 0.374563 0.215717
0.467079 0.376043 0.217334
0.47068 0.377508 0.218952
0.474266 0.379004 0.220554
0.477852 0.380484 0.222171
0.481437 0.381979 0.223774
0.485023 0.383474 0.225376
0.488609 0.384985 0.226978
0.49221 0.386496 0.228565
0.495811 0.388006 0.230167
0.499428 0.389517 0.231754
0.503044 0.391028 0.233326
0.506691 0.392554 0.234913
0.510353 0.394064 0.236484
0.514015 0.39559 0.238056
0.517723 0.397116 0.239612
0.521431 0.398642 0.241169
0.525185 0.400168 0.242725
0.528969 0.401709 0.244266
0.532769 0.403235 0.245808
0.536629 0.404761 0.247333
0.265492 0.330526 0.159701
0.287373 0.332967 0.163027
0.29482 0.333928 0.164309
0.30071 0.334737 0.165408
0.305776 0.33547 0.166384
0.310262 0.336156 0.167285
0.314397 0.336812 0.168154
0.318624 0.337499 0.16907
0.322896 0.338231 0.170031
0.327184 0.338979 0.171023
0.331472 0.339773 0.172045
0.335775 0.340597 0.173114
0.340063 0.341436 0.174212
0.34435 0.342321 0.175341
0.348608 0.343221 0.176501
0.352865 0.344152 0.177691
0.357092 0.345113 0.178897
0.361288 0.34609 0.180148
0.365469 0.347097 0.181415
0.369604 0.348119 0.182712
0.373724 0.349172 0.184024
0.377813 0.350256 0.185351
0.381872 0.351354 0.186709
0.385901 0.352468 0.188083
0.389899 0.353613 0.189471
0.393866 0.354757 0.190875
0.397803 0.355932 0.192309
0.401709 0.357137 0.193744
0.405585 0.358343 0.195193
0.40943 0.359564 0.196658
0.41326 0.360815 0.198123
0.41706 0.362066 0.199619
0.420829 0.363333 0.201099
0.424582 0.36463 0.202609
0.428305 0.365927 0.20412
0.432013 0.367239 0.205631
0.435706 0.368551 0.207156
0.439384 0.369894 0.208682
0.44303 0.371237 0.210208
0.446662 0.372595 0.211749
0.450294 0.373953 0.213275
0.453895 0.375326 0.214817
0.457496 0.376715 0.216358
0.461082 0.378103 0.217914
0.464668 0.379507 0.219455
0.468238 0.380911 0.220996
0.471809 0.382315 0.222538
0.47538 0.383734 0.224094
0.47895 0.385168 0.225635
0.482521 0.386603 0.227176
0.486091 0.388037 0.228717
0.489662 0.389471 0.230259
0.493248 0.390921 0.231785
0.496834 0.39237 0.233326
0.500435 0.39382 0.234852
0.504051 0.395285 0.236378
0.507683 0.39675 0.237903
0.511315 0.398215 0.239429
0.514992 0.39968 0.24094
0.518669 0.40116 0.242451
0.522393 0.40264 0.243961
0.526131 0.404105 0.245457
0.5299 0.405585 0.246952
0.533715 0.407065 0.248447
0.53756 0.40856 0.249943
0.273075 0.338415 0.167102
0.293355 0.340673 0.170153
0.300343 0.341558 0.171344
0.305913 0.342306 0.172351
0.310689 0.342992 0.173251
0.314946 0.343618 0.174075
0.318883 0.344213 0.174884
0.322927 0.344869 0.175723
0.327001 0.345541 0.176608
0.331106 0.346242 0.177523
0.335241 0.346975 0.178485
0.339376 0.347738 0.179461
0.343511 0.348516 0.180484
0.347646 0.34934 0.181537
0.351781 0.350179 0.182605
0.355901 0.351049 0.183719
0.359991 0.351934 0.184848
0.36408 0.35285 0.186007
0.368154 0.353796 0.187198
0.372198 0.354757 0.188403
0.376211 0.355749 0.189624
0.380209 0.356756 0.190875
0.384176 0.357778 0.192142
0.388128 0.358831 0.193439
0.392035 0.359899 0.194736
0.395926 0.360983 0.196063
0.399802 0.362081 0.197406
0.403647 0.36321 0.198764
0.407462 0.364355 0.200122
0.411246 0.365515 0.201511
0.415015 0.366674 0.202899
0.418769 0.367864 0.204303
0.422492 0.36907 0.205722
0.426184 0.370291 0.207141
0.429877 0.371511 0.20856
0.433539 0.372763 0.21001
0.437186 0.374014 0.21146
0.440818 0.37528 0.212909
0.444434 0.376562 0.214359
0.448035 0.377844 0.215824
0.451637 0.379141 0.217288
0.455207 0.380453 0.218753
0.458778 0.381765 0.220233
0.462348 0.383093 0.221714
0.465904 0.384436 0.223194
0.469459 0.385779 0.224674
0.472999 0.387137 0.226154
0.476555 0.388495 0.227634
0.480095 0.389853 0.229114
0.48365 0.391226 0.230594
0.487205 0.392599 0.232074
0.490761 0.393988 0.233555
0.494331 0.395377 0.235035
0.497902 0.39678 0.236515
0.501488 0.398169 0.23798
0.505089 0.399573 0.23946
0.508705 0.400992 0.240925
0.512337 0.402396 0.242405
0.515999 0.403815 0.24387
0.519677 0.405234 0.245319
0.523384 0.406668 0.246784
0.527123 0.408087 0.248234
0.530892 0.409522 0.249683
0.534691 0.410956 0.251133
0.538537 0.41239 0.252583
0.280354 0.346029 0.174197
0.299214 0.348119 0.177005
0.305791 0.348928 0.178103
0.31104 0.34963 0.179034
0.315557 0.350256 0.179858
0.319615 0.350851 0.180636
0.323354 0.3514 0.181369
0.327214 0.35201 0.182162
0.331121 0.352636 0.182971
0.335058 0.353292 0.183825
0.33901 0.353964 0.18471
0.342992 0.354681 0.185626
0.34699 0.355413 0.186572
0.350988 0.356176 0.187549
0.354971 0.356954 0.188556
0.358968 0.357763 0.189578
0.362951 0.358602 0.190646
0.366918 0.359457 0.19173
0.370886 0.360342 0.192828
0.374823 0.361242 0.193957
0.378744 0.362173 0.195117
0.38265 0.363119 0.196292
0.386526 0.36408 0.197482
0.390387 0.365072 0.198688
0.394232 0.366064 0.199924
0.398047 0.367102 0.20116
0.401846 0.368139 0.202426
0.405631 0.369192 0.203693
0.409384 0.370275 0.20499
0.413108 0.371359 0.206302
0.416831 0.372473 0.207614
0.420523 0.373602 0.208942
0.424201 0.374731 0.210285
0.427848 0.375891 0.211627
0.431495 0.37705 0.212985
0.435111 0.378241 0.214343
0.438727 0.379431 0.215732
0.442313 0.380636 0.217105
0.445899 0.381842 0.218494
0.44947 0.383078 0.219883
0.453025 0.384314 0.221286
0.45658 0.385565 0.22269
0.460121 0.386816 0.224094
0.463645 0.388083 0.225513
0.467185 0.389364 0.226932
0.47071 0.390646 0.228336
0.474235 0.391943 0.229755
0.47776 0.39324 0.231189
0.481285 0.394553 0.232609
0.484825 0.395865 0.234028
0.48835 0.397192 0.235447
0.49189 0.39852 0.236881
0.495445 0.399863 0.2383
0.499001 0.40119 0.239719
0.502586 0.402548 0.241138
0.506172 0.403891 0.242557
0.509773 0.405264 0.243977
0.513405 0.406622 0.245396
0.517052 0.407996 0.246815
0.520714 0.409369 0.248234
0.524422 0.410742 0.249638
0.528145 0.412116 0.251057
0.531914 0.413504 0.252461
0.535714 0.414893 0.253864
0.539559 0.416281 0.255253
0.287373 0.353384 0.181018
0.304952 0.355322 0.183612
0.311131 0.356085 0.184619
0.316091 0.356725 0.185473
0.320394 0.357321 0.186252
0.324239 0.357855 0.186969
0.32781 0.358389 0.187655
0.331487 0.358938 0.188373
0.335225 0.359533 0.189136
0.338994 0.360143 0.189929
0.342809 0.360769 0.190753
0.346639 0.36144 0.191608
0.350484 0.362127 0.192493
0.354345 0.362844 0.193393
0.358206 0.363577 0.194339
0.362081 0.36434 0.1953
0.365942 0.365118 0.196292
0.369802 0.365927 0.197299
0.373648 0.366751 0.198337
0.377493 0.36759 0.199405
0.381323 0.36846 0.200473
0.385138 0.36936 0.201572
0.388937 0.37026 0.202701
0.392721 0.371191 0.203845
0.396475 0.372137 0.20499
0.400229 0.373114 0.206165
0.403952 0.37409 0.207355
0.40766 0.375097 0.20856
0.411353 0.376104 0.209781
0.41503 0.377142 0.211017
0.418692 0.378195 0.212268
0.422324 0.379263 0.213519
0.425956 0.380331 0.214786
0.429557 0.38143 0.216068
0.433158 0.382544 0.217365
0.436728 0.383658 0.218662
0.440299 0.384787 0.219959
0.443854 0.385946 0.221286
0.447395 0.387091 0.222599
0.450935 0.388266 0.223926
0.454459 0.389441 0.225269
0.457984 0.390646 0.226612
0.461494 0.391836 0.227955
0.465003 0.393057 0.229297
0.468513 0.394278 0.230655
0.472007 0.395499 0.232013
0.475517 0.39675 0.233371
0.479011 0.397986 0.234745
0.482521 0.399252 0.236103
0.48603 0.400504 0.237476
0.489555 0.401785 0.238834
0.49308 0.403067 0.240208
