src/rc/ocio/DEH2020-ACES-AP0-ACEScc-Inverse.cube
TITLE "Generated by Resolve"
LUT_3D_SIZE 5
0 0 0
0.146761 0 0
0.95314 0 0
1 0 0
1 0 0
0 0.0522164 0
0.0534218 0.0314946 0
0.929259 0 0
1 0 0
1 0 0
0 0.65272 0
0 0.644846 0
0.657359 0.562692 0
1 0.3991 0
1 0.373785 0
0 1 0
0 1 0
0 1 0
1 1 0
1 0.993439 0
0 1 0
0 1 0
0 1 0
1 1 0
1 1 0
0 0 0.0364385
0.117571 0 0.0352789
0.945113 0 0.0245212
1 0 0.00958267
1 0 0.00805676
0 0.0447852 0.0261997
0.0251469 0.0251469 0.0251469
0.921065 0 0.0156252
1 0 0.00416571
1 0 0.00325017
0 0.650034 0
0 0.64213 0
0.646403 0.55967 0
1 0.395209 0
1 0.369711 0
0 1 0
0 1 0
0 1 0
1 1 0
1 0.991547 0
0 1 0
0 1 0
0 1 0
1 1 0
1 1 0
0 0 0.586389
0 0 0.585901
0.862654 0 0.581003
1 0 0.572732
1 0 0.571618
0 0.000335698 0.581811
0 0 0.581308
0.836591 0 0.576379
1 0 0.568048
1 0 0.566949
0 0.623041 0.534981
0 0.614862 0.534463
0.529198 0.529198 0.529198
1 0.355367 0.520302
1 0.327871 0.519127
0 1 0.448661
0 1 0.448051
0 1 0.442054
1 0.98497 0.431891
1 0.972732 0.430533
0 1 0.436301
0 1 0.435691
0 1 0.429572
1 1 0.419181
1 1 0.417792
0 0 1
0 0 1
0.706981 0 1
1 0 1
1 0 1
0 0 1
0 0 1
0.676097 0 1
1 0 1
1 0 1
0 0.575616 1
0 0.566918 1
0.267903 0.474922 1
1 0.280949 1
1 0.248707 1
0 1 0.962097
0 1 0.961776
0 1 0.958526
0.953048 0.953048 0.953048
1 0.940459 0.952331
0 1 0.955413
0 1 0.955093
0 1 0.951812
0.900084 1 0.946319
1 1 0.945586
0 0 1
0 0 1
0.684215 0 1
1 0 1
1 0 1
0 0 1
0 0 1
0.652461 0 1
1 0 1
1 0 1
0 0.5691 1
0 0.560327 1
0.220691 0.467384 1
1 0.270161 1
1 0.237095 1
0 1 1
0 1 1
0 1 1
0.935409 0.94876 1
1 0.93611 1
0 1 1
0 1 1
0 1 1
0.881544 1 0.998322
0.99762 0.99762 0.99762
