src/rc/ocio/DEH2020-ACES-AP0-ACEScct-Forward.cube
TITLE "Generated by Resolve"
LUT_3D_SIZE 9
0.0729076 0.0729076 0.0729076
0.260761 0.131899 0.0843214
0.318791 0.18381 0.0953231
0.36376 0.226001 0.110094
0.401526 0.26006 0.128679
0.435065 0.288777 0.151171
0.466224 0.313756 0.175051
0.496437 0.335973 0.196124
0.527031 0.356115 0.214939
0.249287 0.313771 0.144594
0.314702 0.322896 0.156161
0.351415 0.330922 0.166537
0.385794 0.340688 0.178668
0.417685 0.35169 0.19176
0.447745 0.363516 0.205249
0.476799 0.37583 0.218723
0.505745 0.388388 0.231952
0.535729 0.401038 0.244785
0.306981 0.374105 0.199969
0.347463 0.379171 0.206531
0.375097 0.383825 0.21239
0.403479 0.389746 0.219669
0.431495 0.396765 0.227985
0.459052 0.404669 0.237049
0.486488 0.413321 0.246571
0.514488 0.422538 0.256352
0.54406 0.432212 0.266209
0.351492 0.422538 0.242298
0.379095 0.425895 0.246357
0.400259 0.429053 0.250095
0.423621 0.433158 0.254856
0.44802 0.438132 0.260487
0.47306 0.443915 0.266819
0.498848 0.450401 0.273701
0.525887 0.457542 0.28098
0.555169 0.465232 0.288548
0.388617 0.465309 0.276539
0.408896 0.467842 0.279301
0.425635 0.470253 0.281895
0.445151 0.473426 0.285237
0.466529 0.477333 0.289265
0.489357 0.481941 0.293889
0.513664 0.487221 0.299016
0.53994 0.493141 0.30457
0.569238 0.499672 0.31046
0.421271 0.506233 0.305486
0.437125 0.50837 0.3075
0.450874 0.510414 0.309407
0.467567 0.513115 0.311879
0.486595 0.516503 0.3149
0.507652 0.520531 0.318425
0.530846 0.525231 0.322377
0.556741 0.530556 0.326726
0.586633 0.536553 0.331395
0.451255 0.548775 0.330724
0.464332 0.55079 0.33228
0.476066 0.552728 0.33373
0.490791 0.555322 0.335653
0.508125 0.558587 0.338018
0.527962 0.562539 0.34078
0.550561 0.567178 0.343923
0.576715 0.572549 0.347402
0.608225 0.578668 0.351202
0.47982 0.59823 0.353277
0.491157 0.600458 0.354498
0.501595 0.602609 0.355673
0.515038 0.605524 0.357214
0.531334 0.609232 0.359106
0.550607 0.613794 0.361349
0.573343 0.619242 0.363912
0.600778 0.625696 0.366781
0.635813 0.633249 0.369909
0.50808 0.668971 0.3738
0.51838 0.672343 0.374807
0.528099 0.675685 0.375753
0.540902 0.680293 0.37702
0.556863 0.686336 0.378592
0.576379 0.694041 0.380453
0.600381 0.703761 0.382605
0.631006 0.716091 0.385
0.673854 0.731975 0.387655
0.184115 0.135927 0.31989
0.289586 0.188159 0.321614
0.335164 0.220127 0.323247
0.374456 0.249943 0.325399
0.409232 0.276951 0.328023
0.441032 0.301335 0.33109
0.471153 0.323476 0.334554
0.500755 0.34374 0.338384
0.531044 0.362493 0.342535
0.281453 0.323476 0.330205
0.331746 0.331746 0.331746
0.363409 0.339086 0.333227
0.394583 0.348104 0.335149
0.42446 0.358358 0.33753
0.453239 0.369467 0.340307
0.481468 0.38114 0.343465
0.509941 0.393133 0.34696
0.539712 0.405295 0.350774
0.325368 0.379507 0.339178
0.359915 0.384314 0.340581
0.384756 0.388754 0.341924
0.411048 0.39443 0.343694
0.437613 0.401175 0.345861
0.464179 0.408804 0.348424
0.490974 0.417166 0.351324
0.518593 0.426108 0.354574
0.548028 0.435538 0.358099
0.363485 0.426123 0.349996
0.388403 0.429389 0.351263
0.408042 0.432456 0.352468
0.430091 0.436469 0.354055
0.453498 0.441337 0.356023
0.477836 0.446983 0.358328
0.503136 0.453361 0.360967
0.529915 0.460365 0.363912
0.559152 0.467948 0.367132
0.397192 0.468025 0.362097
0.416159 0.470512 0.363226
0.432029 0.472892 0.364294
0.450736 0.47602 0.365713
0.471458 0.479881 0.367453
0.493782 0.484443 0.369528
0.517784 0.489662 0.371893
0.543908 0.495521 0.374548
0.573297 0.501991 0.377462
0.427863 0.508507 0.37499
0.443015 0.510628 0.375982
0.45626 0.512657 0.376928
0.472465 0.515358 0.37818
0.491081 0.518715 0.379736
0.511833 0.522744 0.381582
0.534844 0.527413 0.383703
0.560723 0.532723 0.386084
0.59086 0.538705 0.388708
0.456626 0.550927 0.388327
0.469306 0.552941 0.389212
0.480766 0.554879 0.390051
0.495201 0.557488 0.391165
0.512291 0.560754 0.392538
0.531975 0.564706 0.394186
0.554543 0.56936 0.396078
0.580819 0.574746 0.398199
0.612802 0.580911 0.400565
0.484443 0.60061 0.401877
0.495552 0.602853 0.402655
0.505837 0.605035 0.403403
0.519127 0.60798 0.404395
0.535332 0.611719 0.405631
0.554574 0.616327 0.407095
0.577432 0.621851 0.408789
0.605219 0.628397 0.410697
0.641138 0.636072 0.412833
0.512245 0.672587 0.415488
0.522454 0.676051 0.41619
0.532113 0.6795 0.416861
0.544869 0.68426 0.417746
0.560861 0.690501 0.418845
0.580499 0.698497 0.420157
0.604822 0.708629 0.421683
0.636179 0.721569 0.423423
0.680858 0.738384 0.425345
0.24062 0.189288 0.380621
0.310643 0.221927 0.381567
0.348684 0.244724 0.382467
0.383825 0.26807 0.383658
0.416205 0.290654 0.385122
0.446555 0.311986 0.386877
0.475792 0.33196 0.388907
0.50486 0.350683 0.391165
0.53489 0.368277 0.393683
0.304265 0.331975 0.386374
0.345708 0.339559 0.387274
0.37377 0.346349 0.388128
0.402441 0.354757 0.389258
0.430671 0.364385 0.390661
0.458366 0.374899 0.392325
0.485893 0.386007 0.394247
0.513939 0.397513 0.396414
0.543542 0.409247 0.39881
0.340215 0.384451 0.391638
0.370611 0.389059 0.392493
0.393317 0.393317 0.393317
0.417929 0.398764 0.3944
0.443275 0.405264 0.395727
0.468986 0.41265 0.39733
0.495216 0.420752 0.399176
0.522499 0.42948 0.401251
0.551843 0.438682 0.40354
0.373831 0.42948 0.398322
0.396704 0.43267 0.39913
0.415076 0.43566 0.399893
0.436057 0.439582 0.400916
0.45861 0.444343 0.402182
0.482322 0.449897 0.403693
0.50721 0.456153 0.405432
0.533761 0.463035 0.407401
0.562997 0.470512 0.409598
0.404883 0.470588 0.406195
0.422766 0.473045 0.406943
0.437903 0.475395 0.40766
0.455924 0.478477 0.408621
0.476081 0.482292 0.409812
0.497993 0.486809 0.411231
0.521706 0.491981 0.412863
0.547723 0.497795 0.41471
0.577218 0.504219 0.41677
0.433921 0.510689 0.41503
0.448478 0.512795 0.415732
0.461295 0.514809 0.416388
0.477073 0.517494 0.417288
0.495323 0.520851 0.418387
0.515801 0.524849 0.419715
0.538689 0.529503 0.421241
0.564584 0.534813 0.42298
0.594995 0.54078 0.424903
0.461646 0.553002 0.424628
0.473991 0.555016 0.425284
0.485191 0.556954 0.42591
0.499367 0.559564 0.426734
0.516258 0.562844 0.427756
0.535821 0.566812 0.428992
0.558373 0.571481 0.430411
0.584833 0.576883 0.432029
0.617319 0.583078 0.433845
0.488792 0.602914 0.434852
0.499733 0.605173 0.435447
0.50988 0.607385 0.436027
0.523049 0.610361 0.43679
0.539162 0.614145 0.437751
0.558419 0.618799 0.438895
0.581399 0.624399 0.440223
0.609583 0.631037 0.441733
0.646433 0.638834 0.443412
0.516228 0.676158 0.445548
0.526345 0.679728 0.446097
0.535943 0.683284 0.446647
0.548684 0.688197 0.447349
0.564706 0.694652 0.448249
0.584497 0.702953 0.449317
0.609171 0.713527 0.450553
0.641306 0.727108 0.451957
0.688014 0.744976 0.453544
0.283467 0.231525 0.429633
0.332921 0.252888 0.430259
0.364263 0.269459 0.430854
0.395209 0.287633 0.431662
0.424964 0.306218 0.432654
0.453651 0.324529 0.433829
0.481819 0.34226 0.435218
0.510262 0.359258 0.436774
0.540017 0.375555 0.438514
0.327932 0.34226 0.433494
0.36173 0.349111 0.434104
0.386191 0.355291 0.434684
0.412192 0.362997 0.435462
0.438544 0.371923 0.436423
0.464958 0.381735 0.437583
0.491661 0.392203 0.438911
0.519219 0.403128 0.440436
0.548638 0.414343 0.442145
0.357076 0.390738 0.43711
0.383383 0.395087 0.43769
0.403815 0.39913 0.43827
0.426566 0.404318 0.439017
0.450507 0.410529 0.439963
0.475227 0.417609 0.441093
0.500786 0.425406 0.44239
0.527703 0.433845 0.443885
0.55697 0.442771 0.445548
0.386252 0.433845 0.441794
0.406912 0.436927 0.442374
0.423911 0.439841 0.442924
0.443641 0.443641 0.443641
0.465217 0.44828 0.444556
0.488182 0.453696 0.445655
0.512581 0.4598 0.446921
0.538888 0.46656 0.448371
0.56817 0.473899 0.449973
0.41445 0.47396 0.447471
0.431098 0.476387 0.44802
0.445396 0.478691 0.448554
0.462623 0.481743 0.449256
0.482109 0.485496 0.450141
0.503517 0.489937 0.451194
0.526909 0.495048 0.452415
0.552834 0.500801 0.453819
0.582528 0.507164 0.455375
0.441627 0.513588 0.454047
0.455482 0.515679 0.454582
0.467796 0.517678 0.455085
0.48307 0.520348 0.455756
0.500893 0.523674 0.456611
0.521065 0.527657 0.457618
0.543801 0.532296 0.458793
0.569772 0.537591 0.460136
0.600595 0.543542 0.461631
0.468132 0.555764 0.461418
0.480079 0.557794 0.461921
0.490974 0.559747 0.462409
0.504875 0.562356 0.463066
0.521523 0.565637 0.463874
0.540948 0.569619 0.464836
0.563516 0.574319 0.465965
0.590249 0.579751 0.467262
0.623514 0.585992 0.468696
0.494499 0.606027 0.469505
0.505211 0.608331 0.469993
0.515221 0.610559 0.470451
0.528237 0.613581 0.471077
0.544274 0.617426 0.471855
0.563561 0.622156 0.472786
0.58677 0.627848 0.473869
0.615534 0.634623 0.475105
0.653819 0.642603 0.476478
0.521477 0.681102 0.478248
0.531518 0.684825 0.478706
0.54107 0.688533 0.479149
0.553796 0.693675 0.479744
0.569894 0.70045 0.480491
0.589914 0.709209 0.481376
0.615106 0.720455 0.482414
0.648447 0.735042 0.483604
0.698314 0.754528 0.484932
0.318379 0.265644 0.473335
0.355077 0.280659 0.473808
0.380972 0.293065 0.474266
0.408057 0.307362 0.474876
0.435172 0.322621 0.475624
0.462119 0.338231 0.476539
0.489174 0.353796 0.477607
0.51693 0.369085 0.478813
0.546426 0.384024 0.480171
0.351125 0.353811 0.47628
0.378805 0.35993 0.476738
0.400015 0.365499 0.477195
0.423423 0.372503 0.477791
0.447852 0.380667 0.478538
0.472923 0.389746 0.479438
0.498726 0.399527 0.480491
0.52578 0.409812 0.481682
0.555062 0.420447 0.483024
0.374868 0.398138 0.479072
0.397543 0.402228 0.47953
0.415808 0.406027 0.479973
0.436667 0.410941 0.480568
0.459144 0.416815 0.4813
0.482795 0.42356 0.4822
0.507637 0.431037 0.483223
0.534173 0.439124 0.484413
0.563409 0.447745 0.48574
0.400076 0.439124 0.48275
0.418616 0.442115 0.483207
0.434211 0.444923 0.483635
0.452659 0.4486 0.48423
0.473152 0.453086 0.484947
0.495338 0.458335 0.485817
0.519219 0.464286 0.486839
0.545312 0.470878 0.487999
0.574731 0.47805 0.489311
0.425498 0.478126 0.487282
0.440894 0.480491 0.487724
0.454307 0.482765 0.488151
0.470695 0.48574 0.488731
0.489448 0.489448 0.489448
0.510307 0.493828 0.490303
0.533379 0.498863 0.491295
0.559258 0.50454 0.492439
0.589303 0.510826 0.493721
0.450752 0.517189 0.492638
0.463874 0.519265 0.493065
0.475639 0.521248 0.493492
0.490379 0.523903 0.494041
0.507744 0.527214 0.494743
0.527596 0.531182 0.495583
0.55021 0.53579 0.496559
0.576333 0.54107 0.497688
0.607813 0.547021 0.498939
0.475959 0.559258 0.498756
0.48748 0.561288 0.499184
0.49807 0.563241 0.499596
0.511635 0.565866 0.500145
0.528054 0.569162 0.500832
0.547356 0.573175 0.501656
0.570016 0.57789 0.502617
0.597192 0.583383 0.503716
0.631571 0.58967 0.504936
0.501503 0.61001 0.505638
0.511986 0.612345 0.50605
0.521813 0.614618 0.506462
0.534707 0.617685 0.506996
0.550683 0.621607 0.507652
0.570062 0.626459 0.508461
0.593622 0.632288 0.509407
0.62327 0.639231 0.510475
0.663661 0.647456 0.511696
0.528008 0.687602 0.513237
0.537957 0.691539 0.513649
0.547478 0.69546 0.514031
0.56022 0.700923 0.514565
0.576471 0.708186 0.515221
0.596841 0.717617 0.515999
0.622827 0.729839 0.51693
0.657908 0.745953 0.517983
0.712718 0.768032 0.519173
0.34815 0.294438 0.515724
0.376547 0.305562 0.516136
0.398154 0.315145 0.516518
0.421897 0.326574 0.517052
0.446571 0.339208 0.517693
0.471824 0.352514 0.518486
0.497734 0.36614 0.519402
0.524849 0.379812 0.520455
0.554147 0.393423 0.52163
0.373358 0.36614 0.518257
0.396323 0.371588 0.518654
0.414755 0.376577 0.519051
0.435782 0.382895 0.51957
0.458366 0.390341 0.520211
0.482109 0.398703 0.520989
0.507012 0.407767 0.521904
0.533578 0.417395 0.522957
0.562814 0.427436 0.524132
0.392966 0.406485 0.520668
0.412558 0.410285 0.52108
0.428855 0.413855 0.521462
0.447959 0.418448 0.521981
0.469001 0.424002 0.522622
0.491569 0.430381 0.5234
0.515724 0.437507 0.524315
0.541924 0.445243 0.525353
0.571252 0.453544 0.526528
0.414801 0.445258 0.523888
0.431403 0.448112 0.524285
0.44567 0.450813 0.524666
0.462867 0.454353 0.525185
0.482322 0.458686 0.525826
0.503716 0.463767 0.526604
0.527108 0.469551 0.527504
0.553033 0.475959 0.528542
0.582742 0.482963 0.529717
0.437659 0.483024 0.527901
0.451865 0.485344 0.528298
0.464439 0.487556 0.528679
0.479973 0.490486 0.529198
0.497993 0.494118 0.529824
0.518334 0.498421 0.530602
0.541131 0.50338 0.531502
0.567056 0.50898 0.532525
0.597665 0.51519 0.5337
0.461082 0.521492 0.532708
0.473472 0.523552 0.533104
0.484703 0.525521 0.533486
0.498909 0.528161 0.533989
0.515816 0.531441 0.53463
0.535393 0.535393 0.535393
0.557946 0.540002 0.536294
0.584375 0.545266 0.537316
0.6168 0.551202 0.538476
0.485008 0.56347 0.538308
0.496101 0.565515 0.538689
0.506371 0.567483 0.539071
0.519646 0.570123 0.539574
0.535836 0.573449 0.540215
0.555077 0.577478 0.540978
0.577951 0.582254 0.541863
0.605783 0.587808 0.542885
0.64181 0.594186 0.544045
0.509712 0.614878 0.544701
0.519982 0.617273 0.545098
0.529671 0.619593 0.545464
0.542443 0.622751 0.545968
0.558419 0.62678 0.546609
0.577981 0.631769 0.547372
0.602106 0.637781 0.548257
0.633021 0.644968 0.549279
0.676539 0.653513 0.550439
0.53579 0.695949 0.551919
0.545693 0.700175 0.5523
0.5552 0.704417 0.552682
0.568032 0.710353 0.553185
0.584512 0.718288 0.553826
0.605432 0.72871 0.554589
0.632547 0.742428 0.555474
0.670222 0.760952 0.556512
0.73312 0.787381 0.557671
0.374426 0.319493 0.560891
0.397177 0.328099 0.561288
0.415488 0.335714 0.561654
0.436408 0.345037 0.562173
0.458915 0.355596 0.562814
0.482582 0.366995 0.563577
0.507454 0.378927 0.564477
0.533989 0.39115 0.565515
0.563241 0.40351 0.56669
0.394553 0.378927 0.563348
0.413901 0.383764 0.563745
0.43003 0.388235 0.564126
0.448981 0.393927 0.56463
0.469902 0.400702 0.56527
0.492393 0.408362 0.566049
0.516472 0.416754 0.566949
0.542657 0.425727 0.567987
0.572 0.435187 0.569162
0.411032 0.415549 0.565728
0.428092 0.419089 0.566125
0.442695 0.422415 0.566506
0.460197 0.426734 0.567025
0.479912 0.431937 0.567666
0.501488 0.43798 0.568444
0.525002 0.444724 0.569345
0.550958 0.45211 0.570382
0.580575 0.46006 0.571572
0.430076 0.452125 0.568933
0.444999 0.454856 0.569329
0.458091 0.45745 0.569711
0.474128 0.460853 0.570214
0.492607 0.465019 0.570871
0.513268 0.469932 0.571649
0.536217 0.475517 0.572564
0.562112 0.481743 0.573602
0.59234 0.488563 0.574792
0.450721 0.48864 0.572961
0.463828 0.490898 0.573358
0.475593 0.493065 0.573739
0.490349 0.495933 0.574258
0.507713 0.499489 0.574914
0.527565 0.503716 0.575692
0.550179 0.508583 0.576623
0.576303 0.514107 0.577676
0.607767 0.520241 0.578866
0.47245 0.526482 0.577859
0.484154 0.528527 0.578256
0.494881 0.530495 0.578653
0.508583 0.533104 0.579171
0.525093 0.53637 0.579828
0.544442 0.540307 0.580621
0.567056 0.5449 0.581552
0.594018 0.550164 0.58262
0.627878 0.556115 0.583841
0.495171 0.568444 0.583658
0.505867 0.570489 0.58407
0.515846 0.572473 0.584466
0.528862 0.575143 0.585
0.544884 0.5785 0.585672
0.564172 0.582574 0.586465
0.587411 0.587411 0.587411
0.616266 0.593057 0.58851
0.654719 0.599542 0.589731
0.519112 0.620752 0.590433
0.529198 0.623209 0.59086
0.538766 0.625605 0.591257
0.551492 0.62887 0.591806
0.567559 0.633036 0.592477
0.587457 0.638209 0.593301
0.612421 0.644465 0.594263
0.645182 0.651987 0.595376
0.693568 0.66096 0.596643
0.544854 0.706554 0.59826
0.554726 0.711223 0.598688
0.564309 0.715923 0.5991
0.577295 0.722545 0.599664
0.594156 0.731487 0.600366
0.615885 0.743435 0.601205
0.644678 0.759548 0.602197
0.68632 0.782162 0.603342
0.763836 0.816907 0.604654
0.398199 0.341817 0.615961
0.417014 0.348699 0.616419
0.432792 0.35491 0.616876
0.451408 0.362646 0.617472
0.472053 0.371588 0.618235
0.494331 0.38143 0.61915
0.518273 0.391928 0.620218
0.544396 0.402869 0.621469
0.573785 0.414115 0.622873
0.414786 0.391943 0.618875
0.431388 0.396246 0.619348
0.44567 0.400244 0.619806
0.462867 0.405386 0.620417
0.482322 0.411536 0.62118
0.503716 0.41857 0.62211
0.527092 0.426322 0.623209
0.553017 0.434684 0.62446
0.582727 0.443565 0.625895
0.428885 0.425208 0.621729
0.443931 0.428504 0.622202
0.457115 0.431586 0.62266
0.473243 0.435615 0.623285
0.491783 0.440513 0.624063
0.512489 0.446204 0.62501
0.535485 0.452598 0.626123
0.561364 0.459648 0.627405
0.591546 0.467247 0.628855
0.445701 0.459648 0.625605
0.45922 0.462257 0.626093
0.471275 0.464744 0.626566
0.486305 0.468009 0.627192
0.503914 0.472023 0.627985
0.523949 0.476753 0.628962
0.546609 0.48217 0.630091
0.572641 0.488212 0.631403
0.603738 0.49485 0.632898
0.464454 0.494911 0.630594
0.476631 0.497124 0.631083
0.487694 0.499245 0.631571
0.501747 0.502052 0.632227
0.518532 0.505531 0.633036
0.538018 0.509682 0.634028
0.560571 0.514473 0.635203
0.587152 0.519921 0.636561
0.619959 0.525994 0.638086
0.484718 0.532174 0.63679
0.495827 0.534203 0.637308
0.506096 0.536156 0.637812
0.519387 0.53875 0.638483
0.535576 0.542016 0.639338
0.554833 0.545937 0.64036
0.577676 0.550515 0.641581
0.605493 0.555795 0.642985
0.641474 0.561761 0.644587
0.506386 0.574182 0.644358
0.516732 0.576257 0.644892
0.526482 0.578271 0.645426
0.5393 0.580957 0.646128
0.555261 0.584375 0.647028
0.574746 0.58851 0.648112
0.598627 0.593439 0.649378
0.628977 0.599191 0.650858
0.671138 0.605829 0.652552
0.529686 0.627695 0.653513
0.53962 0.630259 0.654093
0.549142 0.632746 0.654658
0.561898 0.636149 0.655406
0.57818 0.640497 0.656367
0.598672 0.645914 0.657511
0.624872 0.652506 0.658885
0.660456 0.660456 0.660456
0.716793 0.670024 0.662272
0.55523 0.720134 0.664607
0.565164 0.72546 0.665248
0.574868 0.730846 0.665858
0.588159 0.738537 0.666667
0.605646 0.749111 0.667704
0.62858 0.763577 0.668956
0.659907 0.783917 0.670436
0.707958 0.814649 0.67216
0.818784 0.870558 0.674144
0.420203 0.362066 0.706401
0.436179 0.367727 0.707286
0.450004 0.3729 0.708156
0.466789 0.379431 0.709316
0.485878 0.387121 0.710796
0.506996 0.395697 0.712612
0.530221 0.405005 0.714778
0.556115 0.414832 0.717311
0.585977 0.425086 0.720256
0.434256 0.405005 0.712077
0.448783 0.408865 0.713024
0.46157 0.412467 0.713939
0.477333 0.417121 0.71516
0.495552 0.422721 0.716731
0.51603 0.429175 0.718654
0.538903 0.436347 0.720943
0.564797 0.44416 0.723629
0.595224 0.452506 0.726757
0.446555 0.435325 0.717861
0.459998 0.438376 0.718853
0.472007 0.44126 0.719814
0.486992 0.445029 0.721111
0.504555 0.449622 0.722774
0.524559 0.454994 0.724804
0.547219 0.461051 0.72723
0.573251 0.467765 0.730098
0.60441 0.475044 0.733425
0.461601 0.467765 0.726101
0.473945 0.470268 0.727184
0.485161 0.472633 0.728222
0.499336 0.475776 0.729641
0.516228 0.479637 0.731441
0.53579 0.484199 0.733654
0.558343 0.489433 0.736294
0.584787 0.495293 0.739437
0.617273 0.501778 0.743099
0.478798 0.501839 0.737484
0.490181 0.50399 0.738674
0.500664 0.506065 0.739849
0.514138 0.508812 0.741436
0.530465 0.51223 0.743465
0.549737 0.516304 0.745968
0.572457 0.521035 0.748974
0.599817 0.526406 0.752544
0.634668 0.532418 0.756741
0.497826 0.538552 0.753155
0.508431 0.540581 0.754574
0.518349 0.542519 0.755947
0.531304 0.545113 0.757824
0.547311 0.548363 0.76022
0.566629 0.552285 0.763195
0.58999 0.556878 0.766812
0.61915 0.562173 0.77113
0.658381 0.568185 0.776242
0.518624 0.580758 0.775494
0.52871 0.582864 0.777279
0.538293 0.584894 0.779034
0.551019 0.58764 0.78143
0.567071 0.591104 0.784527
0.586954 0.595346 0.788403
0.611856 0.600381 0.793164
0.644526 0.606287 0.798947
0.692607 0.613138 0.805966
0.541466 0.635874 0.810178
0.551339 0.63856 0.812802
0.560891 0.641184 0.815412
0.5738 0.644755 0.819028
0.590509 0.649363 0.823774
0.611902 0.655116 0.829847
0.640024 0.66215 0.837537
0.680034 0.67071 0.847303
0.751171 0.681086 0.859815
0.567025 0.737942 0.879057
0.577142 0.744305 0.884962
0.587091 0.750851 0.891081
0.600885 0.760357 0.899992
0.619303 0.7738 0.912718
0.644083 0.793072 0.931136
0.679393 0.822522 0.959564
0.739025 0.876066 1
1 1 1
