src/rc/ocio/DEH2020-ACES-AP0-ACEScc-Inverse.cube
TITLE "Generated by Resolve"
LUT_3D_SIZE 9
0 0 0
0.0226902 0 0
0.146761 0 0
0.45452 0 0
0.95314 0 0
1 0 0
1 0 0
1 0 0
1 0 0
0 0.00276188 0
0.00288396 0.000976577 0
0.113695 0 0
0.438056 0 0
0.944106 0 0
1 0 0
1 0 0
1 0 0
1 0 0
0 0.0522164 0
0 0.0439765 0
0.0534218 0.0314946 0
0.410361 0.000946059 0
0.929259 0 0
1 0 0
1 0 0
1 0 0
1 0 0
0 0.281056 0
0 0.275608 0
0 0.266606 0
0.283742 0.22884 0
0.867979 0.0858473 0
1 0 0
1 0 0
1 0 0
1 0 0
0 0.65272 0
0 0.649729 0
0 0.644846 0
0 0.625071 0
0.657359 0.562692 0
1 0.462654 0
1 0.3991 0
1 0.378714 0
1 0.373785 0
0 0.993957 0
0 0.991852 0
0 0.988418 0
0 0.974655 0
0.179217 0.932387 0
1 0.868772 0
1 0.831388 0
1 0.819944 0
1 0.817212 0
0 1 0
0 1 0
0 1 0
0 1 0
0 1 0
0.857313 1 0
1 1 0
1 0.995743 0
1 0.993439 0
0 1 0
0 1 0
0 1 0
0 1 0
0 1 0
0.810483 1 0
1 1 0
1 1 0
1 1 0
0 1 0
0 1 0
0 1 0
0 1 0
0 1 0
0.799054 1 0
1 1 0
1 1 0
1 1 0
0 0 0.00132753
0.0140993 0 0.00125124
0.135943 0 0.00111391
0.448997 0 0.000671397
0.950088 0 3.0518e-05
1 0 0
1 0 0
1 0 0
1 0 0
0 0.00202945 0.000656138
0.000595102 0.000595102 0.000595102
0.10164 0 0.000518807
0.43238 0 0.000244144
0.941024 0 0
1 0 0
1 0 0
1 0 0
1 0 0
0 0.0493477 9.15541e-05
0 0.0412451 7.62951e-05
0.0419471 0.0290379 4.57771e-05
0.40441 0.000579843 0
0.926146 0 0
1 0 0
1 0 0
1 0 0
1 0 0
0 0.279194 0
0 0.273716 0
0 0.264698 0
0.276158 0.226734 0
0.864668 0.0826429 0
1 0 0
1 0 0
1 0 0
1 0 0
0 0.651698 0
0 0.648692 0
0 0.643809 0
0 0.624018 0
0.653193 0.561547 0
1 0.461326 0
1 0.39762 0
1 0.377188 0
1 0.372229 0
0 0.993225 0
0 0.991119 0
0 0.987701 0
0 0.973922 0
0.16939 0.93164 0
0.997482 0.867964 0
1 0.830549 0
1 0.819089 0
1 0.816358 0
0 1 0
0 1 0
0 1 0
0 1 0
0 1 0
0.853971 1 0
1 1 0
1 0.995026 0
1 0.992721 0
0 1 0
0 1 0
0 1 0
0 1 0
0 1 0
0.806973 1 0
1 1 0
1 1 0
1 1 0
0 1 0
0 1 0
0 1 0
0 1 0
0 1 0
0.795514 1 0
1 1 0
1 1 0
1 1 0
0 0 0.0364385
0.00410468 0 0.035996
0.117571 0 0.0352789
0.439918 0 0.0324865
0.945113 0 0.0245212
1 0 0.0144503
1 0 0.00958267
1 0 0.00834669
1 0 0.00805676
0 0.00111391 0.0324102
0 0.000198367 0.0319829
0.0806897 0 0.0312963
0.423056 0 0.0285954
0.936004 0 0.0209812
1 0 0.0115053
1 0 0.00720226
1 0 0.00616464
1 0 0.00593576
0 0.0447852 0.0261997
0 0.0369268 0.025803
0.0251469 0.0251469 0.0251469
0.394644 0.000183108 0.0226291
0.921065 0 0.0156252
1 0 0.00733959
1 0 0.00416571
1 0 0.00341802
1 0 0.00325017
0 0.276158 0.0065156
0 0.270649 0.00628672
0 0.261555 0.00595102
0.263554 0.223316 0.00466926
0.859281 0.0771649 0.00187686
1 0 0.000137331
1 0 0
1 0 0
1 0 0
0 0.650034 0
0 0.647028 0
0 0.64213 0
0 0.622293 0
0.646403 0.55967 0
1 0.459144 0
1 0.395209 0
1 0.374685 0
1 0.369711 0
0 0.992065 0
0 0.989944 0
0 0.986526 0
0 0.972732 0
0.152819 0.930388 0
0.992721 0.866651 0
1 0.829175 0
1 0.817716 0
1 0.814969 0
0 1 0
0 1 0
0 1 0
0 1 0
0 1 0
0.848524 1 0
1 1 0
1 0.993866 0
1 0.991547 0
0 1 0
0 1 0
0 1 0
0 1 0
0 1 0
0.801266 1 0
1 1 0
1 1 0
1 1 0
0 1 0
0 1 0
0 1 0
0 1 0
0 1 0
0.789715 1 0
1 1 0
1 1 0
1 1 0
0 0 0.242603
0 0 0.242252
0.0381933 0 0.241703
0.402365 0 0.239475
0.925063 0 0.232715
1 0 0.222858
1 0 0.217227
1 0 0.215534
1 0 0.215137
0 0 0.239414
0 0 0.239063
0.0109865 0 0.238514
0.384375 0 0.236255
0.915785 0 0.229465
1 0 0.219516
1 0 0.21384
1 0 0.212131
1 0 0.211734
0 0.027985 0.234195
0 0.02121 0.233845
0 0.0116274 0.23328
0.353887 0 0.231006
0.900557 0 0.224125
1 0 0.214038
1 0 0.208286
1 0 0.206546
1 0 0.206134
0 0.263859 0.212726
0 0.258198 0.21236
0 0.248844 0.211749
0.209354 0.209354 0.209354
0.837507 0.0572061 0.20209
1 0 0.191409
1 0 0.185306
1 0 0.183474
1 0 0.183032
0 0.643351 0.140032
0 0.64033 0.139574
0 0.635386 0.138842
0 0.615381 0.135897
0.618708 0.552163 0.126925
1 0.450431 0.113603
1 0.385504 0.105882
1 0.364614 0.103532
1 0.359548 0.102968
0 0.987381 0.0168917
0 0.98526 0.016556
0 0.981811 0.0159915
0 0.967971 0.0138247
0.0765393 0.925444 0.00807202
0.97351 0.861387 0.00276188
1 0.823713 0.00111391
1 0.812192 0.00077821
1 0.80943 0.000717174
0 1 0
0 1 0
0 1 0
0 1 0
0 1 0
0.826505 1 0
1 0.998947 0
1 0.989181 0
1 0.986862 0
0 1 0
0 1 0
0 1 0
0 1 0
0 1 0
0.778134 1 0
1 1 0
1 1 0
1 1 0
0 1 0
0 1 0
0 1 0
0 1 0
0 1 0
0.766308 1 0
1 1 0
1 1 0
1 1 0
0 0 0.586389
0 0 0.586206
0 0 0.585901
0.271458 0 0.58468
0.862654 0 0.581003
1 0 0.575708
1 0 0.572732
1 0 0.571832
1 0 0.571618
0 0 0.584649
0 0 0.584451
0 0 0.584146
0.248005 0 0.582925
0.852796 0 0.579248
1 0 0.573938
1 0 0.570947
1 0 0.570062
1 0 0.569848
0 0.000335698 0.581811
0 0 0.581613
0 0 0.581308
0.206958 0 0.580072
0.836591 0 0.576379
1 0 0.571054
1 0 0.568048
1 0 0.567163
1 0 0.566949
0 0.224796 0.570367
0 0.218585 0.570169
0 0.208286 0.569863
0.00552377 0.164248 0.568612
0.769207 0.00994888 0.564858
1 0 0.559442
1 0 0.55639
1 0 0.555489
1 0 0.555276
0 0.623041 0.534981
0 0.619928 0.534783
0 0.614862 0.534463
0 0.594324 0.53315
0.529198 0.529198 0.529198
1 0.423575 0.523507
1 0.355367 0.520302
1 0.333257 0.519341
1 0.327871 0.519127
0 0.973251 0.480949
0 0.971099 0.48072
0 0.96762 0.480369
0 0.953597 0.47895
0 0.910491 0.474678
0.913939 0.845472 0.468498
1 0.807187 0.465019
1 0.795453 0.463981
1 0.79266 0.463737
0 1 0.448661
0 1 0.448432
0 1 0.448051
0 1 0.446555
0 1 0.442054
0.757382 1 0.435554
1 0.98497 0.431891
1 0.975082 0.430793
1 0.972732 0.430533
0 1 0.438682
0 1 0.438453
0 1 0.438071
0 1 0.436561
0 1 0.431983
0.705165 1 0.425376
1 1 0.421637
1 1 0.420523
1 1 0.420249
0 1 0.436301
0 1 0.436072
0 1 0.435691
0 1 0.434165
0 1 0.429572
0.692332 1 0.422934
1 1 0.419181
1 1 0.418067
1 1 0.417792
0 0 0.901717
0 0 0.901579
0 0 0.901366
0.00207523 0 0.900511
0.76585 0 0.897932
1 0 0.894224
1 0 0.892149
1 0 0.891524
1 0 0.891371
0 0 0.900496
0 0 0.900359
0 0 0.900145
0 0 0.899275
0.754955 0 0.896696
1 0 0.892989
1 0 0.890898
1 0 0.890288
1 0 0.890135
0 0 0.898497
0 0 0.89836
0 0 0.898146
0 0 0.897276
0.73698 0 0.894697
1 0 0.890974
1 0 0.888884
1 0 0.888258
1 0 0.888121
0 0.161181 0.890501
0 0.153811 0.890364
0 0.141482 0.89015
0 0.0869001 0.889281
0.661479 0 0.886671
1 0 0.882918
1 0 0.880812
1 0 0.880186
1 0 0.880034
0 0.592966 0.866163
0 0.589746 0.866026
0 0.584466 0.865812
0 0.563073 0.864927
0.376028 0.494911 0.862257
1 0.382818 0.858412
1 0.308949 0.85626
1 0.284627 0.855619
1 0.278676 0.855467
0 0.952682 0.830259
0 0.950484 0.830121
0 0.946929 0.829877
0 0.932647 0.828962
0 0.888685 0.8262
0.822217 0.822217 0.822217
1 0.782986 0.819989
1 0.770947 0.819318
1 0.768078 0.81915
0 1 0.809583
0 1 0.80943
0 1 0.809201
0 1 0.808255
0 1 0.805432
0.648096 0.997681 0.801373
0.999466 0.964599 0.799084
1 0.954543 0.798398
1 0.952148 0.798245
0 1 0.803326
0 1 0.803174
0 1 0.80293
0 1 0.801984
0 1 0.799146
0.588342 1 0.795056
0.958633 1 0.792752
1 1 0.792065
1 1 0.791913
0 1 0.801831
0 1 0.801678
0 1 0.80145
0 1 0.800504
0 1 0.79765
0.57348 1 0.793545
0.94873 1 0.791257
1 1 0.790555
1 1 0.790402
0 0 1
0 0 1
0 0 1
0 0 1
0.706981 0 1
1 0 1
1 0 1
1 0 1
1 0 1
0 0 1
0 0 1
0 0 1
0 0 1
0.695338 0 1
1 0 1
1 0 1
1 0 1
1 0 1
0 0 1
0 0 1
0 0 1
0 0 1
0.676097 0 1
1 0 1
1 0 1
1 0 1
1 0 1
0 0.11989 1
0 0.111482 1
0 0.0973373 1
0 0.0399329 1
0.594568 0 1
1 0 1
1 0 1
1 0 1
1 0 1
0 0.575616 1
0 0.572305 1
0 0.566918 1
0 0.544991 1
0.267903 0.474922 1
1 0.358663 1
1 0.280949 1
1 0.255055 1
1 0.248707 1
0 0.940993 0.980011
0 0.938781 0.979889
0 0.935195 0.979675
0 0.920745 0.978882
0 0.87628 0.976486
0.766934 0.808957 0.973037
1 0.769162 0.971099
1 0.756939 0.97052
1 0.754025 0.970382
0 1 0.962097
0 1 0.961975
0 1 0.961776
0 1 0.960967
0 1 0.958526
0.57998 0.986465 0.955016
0.953048 0.953048 0.953048
1 0.942885 0.952468
1 0.940459 0.952331
0 1 0.956695
0 1 0.956573
0 1 0.956374
0 1 0.95555
0 1 0.953109
0.514305 1 0.949584
0.91043 1 0.947601
1 0.992569 0.947021
1 0.99025 0.946868
0 1 0.955413
0 1 0.955291
0 1 0.955093
0 1 0.954269
0 1 0.951812
0.497795 1 0.948287
0.900084 1 0.946319
0.993332 1 0.945724
1 1 0.945586
0 0 1
0 0 1
0 0 1
0 0 1
0.688624 0 1
1 0 1
1 0 1
1 0 1
1 0 1
0 0 1
0 0 1
0 0 1
0 0 1
0.676722 0 1
1 0 1
1 0 1
1 0 1
1 0 1
0 0 1
0 0 1
0 0 1
0 0 1
0.657038 0 1
1 0 1
1 0 1
1 0 1
1 0 1
0 0.106432 1
0 0.0976425 1
0 0.0827649 1
0 0.0280919 1
0.573419 0 1
1 0 1
1 0 1
1 0 1
1 0 1
0 0.570352 1
0 0.567025 1
0 0.561593 1
0 0.539513 1
0.230152 0.468833 1
1 0.351232 1
1 0.272251 1
1 0.245838 1
1 0.239338 1
0 0.937484 1
0 0.935271 1
0 0.931655 1
0 0.917174 1
0 0.872541 1
0.749767 0.804959 1
1 0.764996 1
1 0.752728 1
1 0.749798 1
0 1 1
0 1 1
0 1 1
0 1 1
0 1 1
0.558404 0.983093 0.996933
0.938811 0.949584 0.995041
1 0.939376 0.994461
1 0.936934 0.994339
0 1 0.99855
0 1 0.998428
0 1 0.99823
0 1 0.997452
0 1 0.995087
0.490593 1 0.991699
0.895613 0.998978 0.989792
0.989227 0.989227 0.989227
1 0.986893 0.98909
0 1 0.997314
0 1 0.997192
0 1 0.996994
0 1 0.996201
0 1 0.993851
0.473487 1 0.990448
0.885115 1 0.98854
0.979599 1 0.987976
1 0.998413 0.987839
0 0 1
0 0 1
0 0 1
0 0 1
0.684215 0 1
1 0 1
1 0 1
1 0 1
1 0 1
0 0 1
0 0 1
0 0 1
0 0 1
0.672251 0 1
1 0 1
1 0 1
1 0 1
1 0 1
0 0 1
0 0 1
0 0 1
0 0 1
0.652461 0 1
1 0 1
1 0 1
1 0 1
1 0 1
0 0.103151 1
0 0.094255 1
0 0.0789654 1
0 0.0254673 1
0.568322 0 1
1 0 1
1 0 1
1 0 1
1 0 1
0 0.5691 1
0 0.565774 1
0 0.560327 1
0 0.538201 1
0.220691 0.467384 1
1 0.349462 1
1 0.270161 1
1 0.243626 1
1 0.237095 1
0 0.936645 1
0 0.934432 1
0 0.930831 1
0 0.91632 1
0 0.871656 1
0.745663 0.804013 1
1 0.764004 1
1 0.75172 1
1 0.748791 1
0 1 1
0 1 1
0 1 1
0 1 1
0 1 1
0.553201 0.982284 1
0.935409 0.94876 1
1 0.938537 1
1 0.93611 1
0 1 1
0 1 1
0 1 1
0 1 1
0 1 1
0.48484 1 1
0.892073 0.998199 0.999557
0.985977 0.988418 0.998993
1 0.986099 0.998856
0 1 1
0 1 1
0 1 1
0 1 1
0 1 1
0.467597 1 1
0.881544 1 0.998322
0.976318 0.999924 0.997757
0.99762 0.99762 0.99762
