src/rc/ocio/dvr-wg-intermadiate-inverse-v2.cube
TITLE "Generated by Resolve"
LUT_3D_SIZE 5
0 0 0
0.477714 0 0
0.972503 0 0
1 0 0
1 0 0
0 0.417975 0
0.353307 0.390707 0
0.920165 0.296193 0
1 0.148348 0
1 0.0866865 0
0 0.861509 0
0 0.849027 0
0.74136 0.810834 0
1 0.768078 0
1 0.756664 0
0 1 0
0 1 0
0.477394 1 0
0.993744 1 0
1 1 0
0 1 0
0 1 0
0.380011 1 0
0.952789 1 0
1 1 0
0 0 0.409812
0.462943 0 0.389975
0.965667 0 0.324468
1 0 0.237705
1 0 0.210483
0 0.36463 0.356085
0.333181 0.333181 0.333181
0.912886 0.217288 0.254566
1 0 0.136141
1 0 0.0906996
0 0.83769 0.104097
0 0.824811 0.0368505
0.732113 0.785336 0
1 0.740993 0
1 0.729122 0
0 1 0
0 1 0
0.462608 1 0
0.987045 1 0
1 1 0
0 1 0
0 1 0
0.361318 1 0
0.945769 1 0
1 1 0
0 0 0.846326
0.416098 0 0.837201
0.945052 0 0.809476
1 0 0.778927
1 0 0.770855
0 0.120211 0.82237
0.265476 0.029572 0.81294
0.890913 0 0.784298
1 0 0.752636
1 0 0.744259
0 0.762402 0.746502
0 0.748119 0.736019
0.703975 0.703975 0.703975
1 0.653681 0.668193
1 0.64007 0.658671
0 1 0.655741
0 1 0.643656
0.415732 1 0.606409
0.966949 1 0.564095
1 1 0.552666
0 1 0.630137
0 1 0.617533
0.29955 1 0.5785
0.924666 1 0.533883
1 1 0.521767
0 0 1
0.359945 0 1
0.922652 0 1
1 0 1
1 0 1
0 0 1
0.170703 0 1
0.866972 0 1
1 0 1
1 0 1
0 0.672633 1
0 0.656245 1
0.672755 0.604944 1
1 0.545022 1
1 0.528481 1
0 1 1
0 1 0.992844
0.359533 0.979522 0.970001
0.945113 0.945113 0.945113
1 0.936049 0.938598
0 1 0.984451
0 1 0.97673
0.217685 1 0.95346
0.901701 1 0.928084
1 1 0.921431
0 0 1
0.344091 0 1
0.916793 0 1
1 0 1
1 0 1
0 0 1
0.138659 0 1
0.860685 0 1
1 0 1
1 0 1
0 0.647395 1
0 0.630304 1
0.664469 0.576577 1
1 0.513222 1
1 0.495583 1
0 1 1
0 0.994781 1
0.343648 0.962936 1
0.939406 0.927855 1
1 0.918593 1
0 1 1
0 1 1
0.191989 1 1
0.895689 1 1
0.996948 0.996948 0.996948
