src/rc/ocio/dvr-wg-intermadiate-inverse-v2.cube
TITLE "Generated by Resolve"
LUT_3D_SIZE 9
0 0 0
0.29015 0 0
0.477714 0 0
0.714717 0 0
0.972503 0 0
1 0 0
1 0 0
1 0 0
1 0 0
0 0.249836 0
0.206195 0.231434 0
0.430167 0.203403 0
0.684382 0.135943 0
0.951064 0 0
1 0 0
1 0 0
1 0 0
1 0 0
0 0.417975 0
0 0.406821 0
0.353307 0.390707 0
0.639399 0.356878 0
0.920165 0.296193 0
1 0.217365 0
1 0.148348 0
1 0.106203 0
1 0.0866865 0
0 0.630426 0
0 0.623148 0
0.108675 0.612833 0
0.539193 0.591943 0
0.85565 0.557336 0
1 0.518624 0
1 0.491417 0
1 0.478187 0
1 0.472953 0
0 0.861509 0
0 0.856321 0
0 0.849027 0
0.321736 0.83444 0
0.74136 0.810834 0
1 0.785367 0
1 0.768078 0
1 0.759869 0
1 0.756664 0
0 1 0
0 1 0
0 1 0
0 1 0
0.59707 1 0
0.902815 0.985641 0
1 0.972229 0
1 0.965911 0
1 0.963439 0
0 1 0
0 1 0
0 1 0
0 1 0
0.477394 1 0
0.830945 1 0
0.993744 1 0
1 1 0
1 1 0
0 1 0
0 1 0
0 1 0
0 1 0
0.409522 1 0
0.794965 1 0
0.964416 1 0
1 1 0
1 1 0
0 1 0
0 1 0
0 1 0
0 1 0
0.380011 1 0
0.780545 1 0
0.952789 1 0
1 1 0
1 1 0
0 0 0.244327
0.280171 0 0.230945
0.471611 0 0.211048
0.710735 0 0.1664
0.969665 0 0.066804
1 0 0
1 0 0
1 0 0
1 0 0
0 0.21384 0.208072
0.192615 0.192615 0.192615
0.423377 0.15935 0.169192
0.680186 0.0704662 0.113603
0.948135 0 0
1 0 0
1 0 0
1 0 0
1 0 0
0 0.396582 0.146242
0 0.384802 0.12546
0.345052 0.367758 0.091722
0.634897 0.331701 0.0128481
0.917128 0.265812 0
1 0.176089 0
1 0.0882277 0
1 0.0325475 0
1 0.011017 0
0 0.616571 0
0 0.609125 0
0.0860151 0.59855 0
0.533791 0.577111 0
0.852354 0.541512 0
1 0.501549 0
1 0.47335 0
1 0.459586 0
1 0.454139 0
0 0.851652 0
0 0.846418 0
0 0.839017 0
0.312703 0.824231 0
0.737514 0.800305 0
0.998459 0.774456 0
1 0.756909 0
1 0.748562 0
1 0.745312 0
0 1 0
0 1 0
0 1 0
0 1 0
0.592218 0.997314 0
0.899718 0.977157 0
1 0.963623 0
1 0.957244 0
1 0.954757 0
0 1 0
0 1 0
0 1 0
0 1 0
0.47129 1 0
0.827558 1 0
0.990951 1 0
1 1 0
1 1 0
0 1 0
0 1 0
0 1 0
0 1 0
0.40238 1 0
0.791409 1 0
0.961532 1 0
1 1 0
1 1 0
0 1 0
0 1 0
0 1 0
0 1 0
0.37232 1 0
0.776913 1 0
0.949859 1 0
1 1 0
1 1 0
0 0 0.409812
0.265675 0 0.401648
0.462943 0 0.389975
0.705104 0 0.365896
0.965667 0 0.324468
1 0 0.27512
1 0 0.237705
1 0 0.218372
1 0 0.210483
0 0.152834 0.388266
0.172244 0.124361 0.37966
0.413687 0.0747692 0.367315
0.674296 0 0.341695
0.944045 0 0.297139
1 0 0.242893
1 0 0.200458
1 0 0.177905
1 0 0.168521
0 0.36463 0.356085
0 0.351843 0.3467
0.333181 0.333181 0.333181
0.62855 0.293187 0.304906
0.912886 0.217288 0.254566
1 0.10074 0.190372
1 0 0.136141
1 0 0.104646
1 0 0.0906996
0 0.596643 0.282704
0 0.588937 0.271015
0.0507515 0.577966 0.253864
0.526177 0.555718 0.216693
0.847745 0.518593 0.143679
1 0.476661 0.0267643
1 0.44686 0
1 0.432258 0
1 0.426459 0
0 0.83769 0.104097
0 0.832349 0.0769207
0 0.824811 0.0368505
0.299641 0.80975 0
0.732113 0.785336 0
0.994583 0.758938 0
1 0.740993 0
1 0.732448 0
1 0.729122 0
0 1 0
0 1 0
0 1 0
0 1 0
0.585382 0.985611 0
0.895369 0.965179 0
1 0.951461 0
1 0.944976 0
1 0.942458 0
0 1 0
0 1 0
0 1 0
0 1 0
0.462608 1 0
0.822797 1 0
0.987045 1 0
1 1 0
1 1 0
0 1 0
0 1 0
0 1 0
0 1 0
0.392187 1 0
0.786404 1 0
0.957504 1 0
1 1 0
1 1 0
0 1 0
0 1 0
0 1 0
0 1 0
0.361318 1 0
0.771801 1 0
0.945769 1 0
1 1 0
1 1 0
0 0 0.618906
0.234821 0 0.613581
0.44535 0 0.606043
0.693874 0 0.590921
0.957717 0 0.566186
1 0 0.539117
1 0 0.520485
1 0 0.511543
1 0 0.508034
0 0 0.604959
0.125307 0 0.599512
0.393927 0 0.591791
0.662501 0 0.576272
0.935897 0 0.550851
1 0 0.522957
1 0 0.5037
1 0 0.494469
1 0 0.490837
0 0.292165 0.584909
0 0.27628 0.579248
0.308537 0.252628 0.571252
0.615824 0.19913 0.555123
0.904433 0.0746319 0.528664
1 0 0.499489
1 0 0.479271
1 0 0.469535
1 0 0.465721
0 0.555169 0.543099
0 0.546838 0.53698
0 0.534997 0.528313
0.510796 0.510796 0.510796
0.838575 0.470039 0.481834
1 0.42327 0.449561
1 0.389441 0.426978
1 0.372625 0.416022
1 0.365911 0.411704
0 0.809384 0.469383
0 0.80383 0.462272
0 0.796017 0.452155
0.272251 0.780331 0.43151
0.72134 0.754894 0.39678
0.986908 0.727291 0.357015
1 0.708476 0.328313
1 0.699519 0.314092
1 0.69601 0.308415
0 1 0.377234
0 1 0.368368
0 0.993957 0.355642
0 0.98172 0.329183
0.571649 0.962081 0.282811
0.886732 0.941085 0.225574
1 0.926955 0.179858
1 0.920287 0.155032
1 0.917693 0.144564
0 1 0.302113
0 1 0.291127
0 1 0.275105
0 1 0.240803
0.444999 1 0.175845
0.813306 1 0.0767529
0.979309 1 0
1 1 0
1 1 0
0 1 0.260349
0 1 0.247715
0 1 0.229068
0 1 0.1879
0.371298 1 0.101808
0.77644 1 0
0.949477 1 0
1 1 0
1 1 0
0 1 0.242466
0 1 0.228992
0 1 0.208942
0 1 0.163851
0.338613 1 0.0627451
0.761639 1 0
0.937652 1 0
1 1 0
1 1 0
0 0 0.846326
0.177432 0 0.842542
0.416098 0 0.837201
0.675746 0 0.826566
0.945052 0 0.809476
1 0 0.791211
1 0 0.778927
1 0 0.773129
1 0 0.770855
0 0 0.836423
0.0225986 0 0.832578
0.360601 0 0.827176
0.643427 0 0.816403
0.922896 0 0.799084
1 0 0.780545
1 0 0.768078
1 0 0.762173
1 0 0.759884
0 0.120211 0.82237
0 0.0854505 0.818448
0.265476 0.029572 0.81294
0.595178 0 0.801968
0.890913 0 0.784298
1 0 0.765377
1 0 0.752636
1 0 0.746609
1 0 0.744259
0 0.482277 0.793866
0 0.472648 0.789792
0 0.458839 0.78407
0.485527 0.430304 0.772641
0.823865 0.381048 0.754223
1 0.32195 0.734462
1 0.276692 0.721126
1 0.253117 0.714809
1 0.243442 0.712352
0 0.762402 0.746502
0 0.756481 0.742153
0 0.748119 0.736019
0.223148 0.731334 0.723766
0.703975 0.703975 0.703975
0.974655 0.674128 0.682643
1 0.653681 0.668193
1 0.6439 0.661341
1 0.64007 0.658671
0 0.967849 0.693309
0 0.963302 0.688594
0 0.956893 0.681941
0 0.944121 0.66862
0.549279 0.923598 0.647013
0.872923 0.90161 0.623621
1 0.886793 0.607675
1 0.879789 0.600092
1 0.877058 0.597131
0 1 0.655741
0 1 0.650721
0 1 0.643656
0 1 0.62948
0.415732 1 0.606409
0.798108 1 0.581277
0.966949 1 0.564095
1 1 0.555871
1 1 0.552666
0 1 0.6374
0 1 0.632227
0 1 0.624949
0 1 0.6103
0.335851 1 0.586435
0.760418 1 0.560372
0.93669 1 0.542489
1 1 0.533928
1 1 0.530587
0 1 0.630137
0 1 0.624903
0 1 0.617533
0 1 0.602701
0.29955 1 0.5785
0.745281 1 0.552056
0.924666 1 0.533883
0.99646 1 0.525185
1 1 0.521767
0 0 1
0.0951858 0 1
0.3832 0 1
0.656245 0 1
0.931609 0 0.998459
1 0 0.984024
1 0 0.97438
1 0 0.969848
1 0 0.968093
0 0 1
0 0 1
0.322332 0 1
0.622858 0 1
0.909087 0 0.990219
1 0 0.975647
1 0 0.965927
1 0 0.961334
1 0 0.959564
0 0 1
0 0 1
0.212589 0 1
0.572778 0 0.992508
0.87657 0 0.978592
1 0 0.963821
1 0 0.953948
1 0 0.94931
1 0 0.947509
0 0.391775 0.986114
0 0.379858 0.98291
0 0.362585 0.978408
0.457618 0.325994 0.969467
0.808209 0.258793 0.955184
1 0.166079 0.940002
1 0.0717479 0.929854
1 0.016144 0.925078
1 0 0.923232
0 0.709743 0.949233
0 0.703349 0.945891
0 0.694286 0.941192
0.159457 0.676066 0.931853
0.685328 0.646204 0.916915
0.961685 0.613367 0.90103
1 0.590692 0.890394
1 0.579782 0.885374
1 0.575509 0.883436
0 0.927901 0.908949
0 0.923125 0.90544
0 0.916411 0.900511
0 0.903014 0.8907
0.524849 0.881422 0.874983
0.858244 0.858244 0.858244
1 0.842588 0.847013
1 0.835172 0.841718
1 0.832273 0.839658
0 1 0.8813
0 1 0.877668
0 1 0.872572
0 1 0.862409
0.382803 1 0.846113
0.781872 0.984543 0.828733
0.953857 0.971115 0.81706
1 0.964782 0.811551
1 0.96231 0.8094
0 1 0.86807
0 1 0.864363
0 1 0.859174
0 1 0.848844
0.294591 1 0.832273
0.743313 1 0.814557
0.92311 1 0.802655
0.995026 1 0.79704
1 1 0.794858
0 1 0.862882
0 1 0.859159
0 1 0.853941
0 1 0.843534
0.252995 1 0.826841
0.727779 1 0.808988
0.910903 1 0.797009
0.98381 1 0.791348
1 1 0.789136
0 0 1
0.0205386 0 1
0.359945 0 1
0.643061 0 1
0.922652 0 1
1 0 1
1 0 1
1 0 1
1 0 1
0 0 1
0 0 1
0.294606 0 1
0.608911 0 1
0.89987 0 1
1 0 1
1 0 1
1 0 1
1 0 1
0 0 1
0 0 1
0.170703 0 1
0.557519 0 1
0.866972 0 1
1 0 1
1 0 1
1 0 1
1 0 1
0 0.318807 1
0 0.304204 1
0 0.282658 1
0.43827 0.235126 1
0.797711 0.136019 1
1 0 1
1 0 1
1 0 1
1 0 1
0 0.672633 1
0 0.665858 1
0 0.656245 1
0.103914 0.636866 1
0.672755 0.604944 1
0.953017 0.569604 1
1 0.545022 1
1 0.53315 1
1 0.528481 1
0 0.900511 1
0 0.895582 1
0 0.88864 1
0 0.874769 1
0.508095 0.852399 0.994949
0.848417 0.828321 0.980453
1 0.812024 0.970764
1 0.804303 0.966217
1 0.801297 0.964446
0 1 1
0 1 0.997269
0 1 0.992844
0 0.998779 0.984054
0.359533 0.979522 0.970001
0.770993 0.958938 0.955077
0.945113 0.945113 0.945113
1 0.938582 0.940429
1 0.936049 0.938598
0 1 0.988937
0 1 0.985748
0 1 0.981262
0 1 0.972351
0.26424 1 0.958114
0.731792 1 0.942992
0.914061 1 0.932876
0.986694 0.994507 0.928115
1 0.992126 0.926268
0 1 0.984451
0 1 0.981247
0 1 0.97673
0 1 0.967773
0.217685 1 0.95346
0.715999 1 0.938247
0.901701 1 0.928084
0.975372 1 0.923293
1 1 0.921431
0 0 1
0 0 1
0.348592 0 1
0.63682 0 1
0.918425 0 1
1 0 1
1 0 1
1 0 1
1 0 1
0 0 1
0 0 1
0.280812 0 1
0.602289 0 1
0.895537 0 1
1 0 1
1 0 1
1 0 1
1 0 1
0 0 1
0 0 1
0.148119 0 1
0.550256 0 1
0.86244 0 1
1 0 1
1 0 1
1 0 1
1 0 1
0 0.278721 1
0 0.262119 1
0 0.237232 1
0.428946 0.180041 1
0.792752 0.0407568 1
1 0 1
1 0 1
1 0 1
1 0 1
0 0.654551 1
0 0.647562 1
0 0.637659 1
0.0703746 0.617655 1
0.666804 0.584634 1
0.948959 0.547936 1
1 0.522301 1
1 0.50988 1
1 0.504982 1
0 0.887419 1
0 0.882399 1
0 0.875349 1
0 0.861234 1
0.500084 0.838468 1
0.843793 0.813931 1
1 0.79733 1
1 0.789456 1
1 0.786374 1
0 1 1
0 1 1
0 0.999268 1
0 0.987121 1
0.34815 0.96759 1
0.76585 0.946731 1
0.941009 0.932708 0.998764
1 0.926085 0.994339
1 0.923506 0.99263
0 1 1
0 1 1
0 1 1
0 1 1
0.248951 1 1
0.72636 1 0.99675
0.909789 0.988998 0.987259
0.982788 0.982788 0.982788
1 0.980362 0.981048
0 1 1
0 1 1
0 1 1
0 1 1
0.199435 1 1
0.710414 1 0.992309
0.897383 1 0.982757
0.971405 1 0.978271
0.998444 1 0.976516
0 0 1
0 0 1
0.344091 0 1
0.634379 0 1
0.916793 0 1
1 0 1
1 0 1
1 0 1
1 0 1
0 0 1
0 0 1
0.275288 0 1
0.599695 0 1
0.893858 0 1
1 0 1
1 0 1
1 0 1
1 0 1
0 0 1
0 0 1
0.138659 0 1
0.547402 0 1
0.860685 0 1
1 0 1
1 0 1
1 0 1
1 0 1
0 0.261723 1
0 0.244099 1
0 0.217456 1
0.425269 0.154711 1
0.790829 0 1
1 0 1
1 0 1
1 0 1
1 0 1
0 0.647395 1
0 0.64033 1
0 0.630304 1
0.0568093 0.610056 1
0.664469 0.576577 1
0.947372 0.5393 1
1 0.513222 1
1 0.500572 1
1 0.495583 1
0 0.882292 1
0 0.877241 1
0 0.87013 1
0 0.85594 1
0.496941 0.833005 1
0.841993 0.808286 1
1 0.791562 1
1 0.783612 1
1 0.780514 1
0 1 1
0 1 1
0 0.994781 1
0 0.982559 1
0.343648 0.962936 1
0.763851 0.941955 1
0.939406 0.927855 1
1 0.921187 1
1 0.918593 1
0 1 1
0 1 1
0 1 1
0 1 1
0.242802 1 1
0.724239 0.997665 1
0.908141 0.984436 1
0.981262 0.978195 1
1 0.975769 1
0 1 1
0 1 1
0 1 1
0 1 1
0.191989 1 1
0.708247 1 1
0.895689 1 1
0.969863 0.999329 0.998657
0.996948 0.996948 0.996948
