src/rc/ocio/dvr-wg-intermadiate-inverse-v2.cube
TITLE "Generated by Resolve"
LUT_3D_SIZE 65
0 0 0
0.128878 0 0
0.159945 0 0
0.184176 0 0
0.206394 0 0
0.227634 0 0
0.248463 0 0
0.26923 0 0
0.29015 0 0
0.311406 0 0
0.33312 0 0
0.355413 0 0
0.378363 0 0
0.402014 0 0
0.426429 0 0
0.451667 0 0
0.477714 0 0
0.504631 0 0
0.532372 0 0
0.560967 0 0
0.590341 0 0
0.620478 0 0
0.651316 0 0
0.682765 0 0
0.714717 0 0
0.747082 0 0
0.779721 0 0
0.812497 0 0
0.845228 0 0
0.87776 0 0
0.909941 0 0
0.941573 0 0
0.972503 0 0
1 0 0
1 0 0
1 0 0
1 0 0
1 0 0
1 0 0
1 0 0
1 0 0
1 0 0
1 0 0
1 0 0
1 0 0
1 0 0
1 0 0
1 0 0
1 0 0
1 0 0
1 0 0
1 0 0
1 0 0
1 0 0
1 0 0
1 0 0
1 0 0
1 0 0
1 0 0
1 0 0
1 0 0
1 0 0
1 0 0
1 0 0
1 0 0
0 0.105272 0
0.0794842 0.0944991 0
0.119539 0.0907912 0
0.148684 0.0874189 0
0.174456 0.0839246 0
0.198505 0.0799573 0
0.221668 0.0759747 0
0.244404 0.0717174 0
0.267063 0.0671092 0
0.289876 0.0621042 0
0.312978 0.0566567 0
0.336538 0.0507057 0
0.360616 0.0442054 0
0.385336 0.0370794 0
0.410727 0.0292821 0
0.436866 0.0207523 0
0.463767 0.0114137 0
0.491447 0.00122072 0
0.519921 0 0
0.549172 0 0
0.579171 0 0
0.609888 0 0
0.64126 0 0
0.673213 0 0
0.705638 0 0
0.73843 0 0
0.77145 0 0
0.804593 0 0
0.837659 0 0
0.870512 0 0
0.902968 0 0
0.934874 0 0
0.966033 0 0
0.996307 0 0
1 0 0
1 0 0
1 0 0
1 0 0
1 0 0
1 0 0
1 0 0
1 0 0
1 0 0
1 0 0
1 0 0
1 0 0
1 0 0
1 0 0
1 0 0
1 0 0
1 0 0
1 0 0
1 0 0
1 0 0
1 0 0
1 0 0
1 0 0
1 0 0
1 0 0
1 0 0
1 0 0
1 0 0
1 0 0
1 0 0
1 0 0
0 0.13312 0
0.0607919 0.12398 0
0.104082 0.120867 0
0.135561 0.118059 0
0.162921 0.115175 0
0.188144 0.112108 0
0.212238 0.108797 0
0.235767 0.105165 0
0.259083 0.101152 0
0.282475 0.0966812 0
0.306096 0.0916762 0
0.330114 0.0860151 0
0.35462 0.0793164 0
0.379705 0.0722057 0
0.405447 0.0644083 0
0.431891 0.0558785 0
0.459083 0.04654 0
0.487037 0.036347 0
0.515755 0.0252384 0
0.545235 0.0131685 0
0.575463 6.10361e-05 0
0.606378 0 0
0.637919 0 0
0.670039 0 0
0.702617 0 0
0.735561 0 0
0.768719 0 0
0.801968 0 0
0.835157 0 0
0.868116 0 0
0.900664 0 0
0.932647 0 0
0.963897 0 0
0.994247 0 0
1 0 0
1 0 0
1 0 0
1 0 0
1 0 0
1 0 0
1 0 0
1 0 0
1 0 0
1 0 0
1 0 0
1 0 0
1 0 0
1 0 0
1 0 0
1 0 0
1 0 0
1 0 0
1 0 0
1 0 0
1 0 0
1 0 0
1 0 0
1 0 0
1 0 0
1 0 0
1 0 0
1 0 0
1 0 0
1 0 0
1 0 0
0 0.154849 0
0.0441749 0.146685 0
0.0890059 0.143938 0
0.123095 0.141451 0
0.152102 0.138903 0
0.178515 0.136217 0
0.20354 0.133318 0
0.227832 0.130159 0
0.251804 0.12668 0
0.275746 0.122835 0
0.299855 0.118563 0
0.324285 0.113756 0
0.349187 0.108354 0
0.374624 0.102235 0
0.400687 0.0952621 0
0.42742 0.0872663 0
0.454887 0.0777905 0
0.48307 0.0676127 0
0.512032 0.0565042 0
0.541711 0.044419 0
0.572122 0.0313115 0
0.60322 0.0171511 0
0.634943 0.00187686 0
0.667201 0 0
0.699931 0 0
0.732998 0 0
0.766278 0 0
0.799634 0 0
0.832929 0 0
0.86598 0 0
0.898619 0 0
0.930678 0 0
0.96199 0 0
0.992401 0 0
1 0 0
1 0 0
1 0 0
1 0 0
1 0 0
1 0 0
1 0 0
1 0 0
1 0 0
1 0 0
1 0 0
1 0 0
1 0 0
1 0 0
1 0 0
1 0 0
1 0 0
1 0 0
1 0 0
1 0 0
1 0 0
1 0 0
1 0 0
1 0 0
1 0 0
1 0 0
1 0 0
1 0 0
1 0 0
1 0 0
1 0 0
0 0.174762 0
0.0273136 0.167346 0
0.0720989 0.164858 0
0.109514 0.162615 0
0.14052 0.160311 0
0.168338 0.1579 0
0.194415 0.155291 0
0.219547 0.152468 0
0.244221 0.149386 0
0.268757 0.145968 0
0.2934 0.142184 0
0.318288 0.137957 0
0.343603 0.133242 0
0.369406 0.127932 0
0.395804 0.12195 0
0.422843 0.11516 0
0.450584 0.107424 0
0.479026 0.0985428 0
0.508217 0.0882734 0
0.538125 0.0760967 0
0.568734 0.0629892 0
0.600015 0.0488289 0
0.631891 0.0335546 0
0.664317 0.0171817 0
0.697185 0 0
0.730388 0 0
0.76379 0 0
0.797269 0 0
0.830655 0 0
0.863798 0 0
0.896529 0 0
0.928664 0 0
0.960052 0 0
0.990539 0 0
1 0 0
1 0 0
1 0 0
1 0 0
1 0 0
1 0 0
1 0 0
1 0 0
1 0 0
1 0 0
1 0 0
1 0 0
1 0 0
1 0 0
1 0 0
1 0 0
1 0 0
1 0 0
1 0 0
1 0 0
1 0 0
1 0 0
1 0 0
1 0 0
1 0 0
1 0 0
1 0 0
1 0 0
1 0 0
1 0 0
1 0 0
0 0.193805 0
0.00973526 0.186984 0
0.0545205 0.18471 0
0.0940871 0.18265 0
0.127657 0.18056 0
0.157183 0.178347 0
0.184512 0.175982 0
0.21062 0.173419 0
0.236088 0.170626 0
0.261311 0.167544 0
0.286519 0.164126 0
0.311925 0.160342 0
0.337682 0.15613 0
0.363882 0.151415 0
0.390646 0.14612 0
0.418021 0.140169 0
0.446052 0.13344 0
0.474769 0.125795 0
0.504204 0.117113 0
0.53434 0.107134 0
0.565164 0.0955978 0
0.596643 0.0821088 0
0.628702 0.0666056 0
0.661295 0.0502174 0
0.694316 0.0327306 0
0.727657 0.0141299 0
0.761196 0 0
0.794781 0 0
0.82829 0 0
0.861524 0 0
0.894347 0 0
0.926574 0 0
0.958038 0 0
0.988586 0 0
1 0 0
1 0 0
1 0 0
1 0 0
1 0 0
1 0 0
1 0 0
1 0 0
1 0 0
1 0 0
1 0 0
1 0 0
1 0 0
1 0 0
1 0 0
1 0 0
1 0 0
1 0 0
1 0 0
1 0 0
1 0 0
1 0 0
1 0 0
1 0 0
1 0 0
1 0 0
1 0 0
1 0 0
1 0 0
1 0 0
1 0 0
0 0.212467 0
0 0.206165 0
0.035874 0.204059 0
0.0757305 0.202167 0
0.112963 0.200244 0
0.144656 0.198215 0
0.17351 0.196033 0
0.200793 0.193683 0
0.227192 0.191119 0
0.253178 0.188312 0
0.279057 0.185199 0
0.305028 0.181765 0
0.331289 0.177935 0
0.357946 0.173678 0
0.385107 0.168917 0
0.412833 0.163592 0
0.441199 0.15761 0
0.470222 0.150881 0
0.499916 0.143267 0
0.530312 0.134661 0
0.561364 0.124849 0
0.593042 0.113619 0
0.625299 0.100649 0
0.658076 0.0854658 0
0.691249 0.0677806 0
0.724743 0.0491951 0
0.758419 0.0295415 0
0.792142 0.00889601 0
0.825757 0 0
0.859098 0 0
0.892027 0 0
0.924331 0 0
0.955886 0 0
0.986496 0 0
1 0 0
1 0 0
1 0 0
1 0 0
1 0 0
1 0 0
1 0 0
1 0 0
1 0 0
1 0 0
1 0 0
1 0 0
1 0 0
1 0 0
1 0 0
1 0 0
1 0 0
1 0 0
1 0 0
1 0 0
1 0 0
1 0 0
1 0 0
1 0 0
1 0 0
1 0 0
1 0 0
1 0 0
1 0 0
1 0 0
1 0 0
0 0.231083 0
0 0.225208 0
0.0158694 0.223255 0
0.0557259 0.2215 0
0.0956893 0.219715 0
0.130282 0.217838 0
0.161089 0.215839 0
0.189792 0.213672 0
0.217319 0.211307 0
0.244205 0.208713 0
0.270848 0.205859 0
0.297475 0.202701 0
0.3243 0.199207 0
0.351461 0.195315 0
0.379065 0.190997 0
0.407202 0.18616 0
0.43592 0.180774 0
0.465278 0.174731 0
0.495293 0.167956 0
0.525948 0.160327 0
0.557244 0.151751 0
0.589166 0.142031 0
0.621637 0.131014 0
0.654597 0.118425 0
0.687953 0.103899 0
0.721614 0.0869306 0
0.755444 0.0671244 0
0.789288 0.046479 0
0.823041 0.0249332 0
0.856504 0.00257877 0
0.889525 0 0
0.921935 0 0
0.953567 0 0
0.984268 0 0
1 0 0
1 0 0
1 0 0
1 0 0
1 0 0
1 0 0
1 0 0
1 0 0
1 0 0
1 0 0
1 0 0
1 0 0
1 0 0
1 0 0
1 0 0
1 0 0
1 0 0
1 0 0
1 0 0
1 0 0
1 0 0
1 0 0
1 0 0
1 0 0
1 0 0
1 0 0
1 0 0
1 0 0
1 0 0
1 0 0
1 0 0
0 0.249836 0
0 0.244358 0
0 0.242542 0
0.0341344 0.240909 0
0.0745251 0.239246 0
0.113405 0.237491 0
0.146792 0.23563 0
0.17731 0.233616 0
0.206195 0.231434 0
0.23418 0.229038 0
0.261723 0.226398 0
0.289113 0.223484 0
0.316594 0.220264 0
0.344335 0.216693 0
0.372442 0.212726 0
0.401038 0.208316 0
0.430167 0.203403 0
0.459892 0.197925 0
0.490227 0.191791 0
0.521187 0.184955 0
0.552773 0.177295 0
0.584939 0.168719 0
0.617639 0.159075 0
0.650813 0.148226 0
0.684382 0.135943 0
0.718212 0.121981 0
0.752194 0.105928 0
0.786206 0.0872206 0
0.820096 0.0655375 0
0.853681 0.043183 0
0.886809 0.0201724 0
0.919326 0 0
0.951064 0 0
0.981842 0 0
1 0 0
1 0 0
1 0 0
1 0 0
1 0 0
1 0 0
1 0 0
1 0 0
1 0 0
1 0 0
1 0 0
1 0 0
1 0 0
1 0 0
1 0 0
1 0 0
1 0 0
1 0 0
1 0 0
1 0 0
1 0 0
1 0 0
1 0 0
1 0 0
1 0 0
1 0 0
1 0 0
1 0 0
1 0 0
1 0 0
1 0 0
0 0.268894 0
0 0.263767 0
0 0.262058 0
0.0106813 0.260533 0
0.0510719 0.258991 0
0.0930037 0.257359 0
0.130022 0.255619 0
0.162921 0.253742 0
0.193545 0.251713 0
0.222873 0.249485 0
0.251484 0.247028 0
0.279789 0.244327 0
0.308034 0.241352 0
0.336431 0.238056 0
0.365133 0.234394 0
0.394232 0.230335 0
0.423819 0.225834 0
0.453956 0.220813 0
0.484672 0.215228 0
0.515984 0.209033 0
0.547875 0.202121 0
0.580316 0.194415 0
0.613291 0.18584 0
0.646693 0.176257 0
0.680461 0.165576 0
0.714504 0.153597 0
0.748669 0.140124 0
0.782849 0.12491 0
0.816876 0.10753 0
0.850599 0.0873884 0
0.883864 0.0642405 0
0.916503 0.0407263 0
0.948333 0.0168765 0
0.979217 0 0
1 0 0
1 0 0
1 0 0
1 0 0
1 0 0
1 0 0
1 0 0
1 0 0
1 0 0
1 0 0
1 0 0
1 0 0
1 0 0
1 0 0
1 0 0
1 0 0
1 0 0
1 0 0
1 0 0
1 0 0
1 0 0
1 0 0
1 0 0
1 0 0
1 0 0
1 0 0
1 0 0
1 0 0
1 0 0
1 0 0
1 0 0
0 0.288365 0
0 0.283558 0
0 0.281956 0
0 0.280537 0
0.0255283 0.279072 0
0.0676585 0.277562 0
0.10985 0.275929 0
0.146059 0.274189 0
0.178943 0.272282 0
0.209964 0.270207 0
0.239902 0.267918 0
0.269291 0.265415 0
0.298451 0.262638 0
0.327626 0.259586 0
0.356985 0.256199 0
0.386694 0.252445 0
0.4168 0.24828 0
0.44741 0.243671 0
0.478553 0.238544 0
0.510246 0.232868 0
0.542473 0.226566 0
0.57525 0.219593 0
0.608499 0.211856 0
0.642161 0.203296 0
0.676173 0.19379 0
0.71043 0.183276 0
0.744808 0.171603 0
0.779156 0.158648 0
0.813367 0.144213 0
0.847242 0.128038 0
0.880644 0.109773 0
0.913405 0.0888075 0
0.945342 0.0648966 0
0.976333 0.0408942 0
1 0.0169223 0
1 0 0
1 0 0
1 0 0
1 0 0
1 0 0
1 0 0
1 0 0
1 0 0
1 0 0
1 0 0
1 0 0
1 0 0
1 0 0
1 0 0
1 0 0
1 0 0
1 0 0
1 0 0
1 0 0
1 0 0
1 0 0
1 0 0
1 0 0
1 0 0
1 0 0
1 0 0
1 0 0
1 0 0
1 0 0
1 0 0
0 0.308339 0
0 0.303822 0
0 0.302327 0
0 0.300984 0
0 0.299626 0
0.039765 0.298192 0
0.0846876 0.296681 0
0.125856 0.295048 0
0.161852 0.293263 0
0.195071 0.291325 0
0.226688 0.289189 0
0.257389 0.286854 0
0.287633 0.284276 0
0.317739 0.281422 0
0.34789 0.278264 0
0.378286 0.274784 0
0.409003 0.270924 0
0.440146 0.266667 0
0.471778 0.261936 0
0.503899 0.256718 0
0.536522 0.25095 0
0.56965 0.244572 0
0.60322 0.237522 0
0.637186 0.22977 0
0.671458 0.221225 0
0.705959 0.211841 0
0.740551 0.201526 0
0.775113 0.190204 0
0.809506 0.177768 0
0.843549 0.164096 0
0.877104 0.149065 0
0.910002 0.132448 0
0.942077 0.113954 0
0.97319 0.0931106 0
1 0.0693675 0
1 0.0456397 0
1 0.0223239 0
1 0 0
1 0 0
1 0 0
1 0 0
1 0 0
1 0 0
1 0 0
1 0 0
1 0 0
1 0 0
1 0 0
1 0 0
1 0 0
1 0 0
1 0 0
1 0 0
1 0 0
1 0 0
1 0 0
1 0 0
1 0 0
1 0 0
1 0 0
1 0 0
1 0 0
1 0 0
1 0 0
1 0 0
0 0.328908 0
0 0.324651 0
0 0.323247 0
0 0.321981 0
0 0.320714 0
0.00926223 0.319371 0
0.0539559 0.317937 0
0.100847 0.316411 0
0.141436 0.314748 0
0.177646 0.312917 0
0.211414 0.310933 0
0.243793 0.308736 0
0.27538 0.306325 0
0.306584 0.30367 0
0.337682 0.30074 0
0.368872 0.29749 0
0.400305 0.293904 0
0.432074 0.289937 0
0.46424 0.285573 0
0.496864 0.280735 0
0.529931 0.27541 0
0.563455 0.269551 0
0.597391 0.263111 0
0.631693 0.256031 0
0.66627 0.24828 0
0.70103 0.239796 0
0.735882 0.230549 0
0.770672 0.220462 0
0.805264 0.209522 0
0.83949 0.197635 0
0.873228 0.184756 0
0.906279 0.170809 0
0.938491 0.155718 0
0.969726 0.139315 0
0.999817 0.121447 0
1 0.101808 0
1 0.0796674 0
1 0.0569619 0
1 0.0349889 0
1 0.0139162 0
1 0 0
1 0 0
1 0 0
1 0 0
1 0 0
1 0 0
1 0 0
1 0 0
1 0 0
1 0 0
1 0 0
1 0 0
1 0 0
1 0 0
1 0 0
1 0 0
1 0 0
1 0 0
1 0 0
1 0 0
1 0 0
1 0 0
1 0 0
1 0 0
1 0 0
0 0.350103 0
0 0.346105 0
0 0.344778 0
0 0.343603 0
0 0.342397 0
0 0.341131 0
0.0205692 0.339788 0
0.0684977 0.338354 0
0.116335 0.336782 0
0.156893 0.335073 0
0.193591 0.333211 0
0.228107 0.331167 0
0.261372 0.328908 0
0.293935 0.326421 0
0.326162 0.323674 0
0.358312 0.320638 0
0.390555 0.317296 0
0.423056 0.313603 0
0.455863 0.309545 0
0.489036 0.305058 0
0.522622 0.30013 0
0.556603 0.294713 0
0.590951 0.288777 0
0.62562 0.282292 0
0.660533 0.275196 0
0.695598 0.267475 0
0.730724 0.259083 0
0.765759 0.250019 0
0.80058 0.240223 0
0.835035 0.229694 0
0.86894 0.218402 0
0.902174 0.206317 0
0.934539 0.193454 0
0.965911 0.179751 0
0.996139 0.165209 0
1 0.149767 0
1 0.133379 0
1 0.115892 0
1 0.0971695 0
1 0.0766766 0
1 0.0565957 0
1 0.0376135 0
1 0.0197757 0
1 0.00311284 0
1 0 0
1 0 0
1 0 0
1 0 0
1 0 0
1 0 0
1 0 0
1 0 0
1 0 0
1 0 0
1 0 0
