tests/data/oversat_33.cube
TITLE "Generated by Resolve"
LUT_3D_SIZE 5
0 0 0
0.447486 0 0
0.894987 0 0
1 0 0
1 0 0
0 0.324987 0
0.27248 0.27248 0
0.719997 0.219989 0
1 0.167483 0
1 0.114977 0
0 0.649989 0
0.0974899 0.597498 0
0.544991 0.544991 0
0.992493 0.492485 0
1 0.439979 0
0 0.97499 0
0 0.922499 0
0.369985 0.869993 0
0.817502 0.817487 0
1 0.764981 0
0 1 0
0 1 0
0.19498 1 0
0.642496 1 0
1 1 0
0 0 0.477485
0.424979 0 0.424979
0.87248 0 0.372488
1 0 0.319982
1 0 0.267475
0 0.302495 0.30248
0.249989 0.249989 0.249989
0.69749 0.197482 0.197482
1 0.144976 0.144991
1 0.0924849 0.0924849
0 0.627497 0.127489
0.0749828 0.57499 0.0749828
0.522499 0.522484 0.0224765
0.970001 0.469993 0
1 0.417487 0
0 0.952499 0
0 0.899992 0
0.347494 0.847501 0
0.794995 0.794995 0
1 0.742489 0
0 1 0
0 1 0
0.172488 1 0
0.619989 1 0
1 1 0
0 0 0.954986
0.402487 0 0.902495
0.849989 0 0.849989
1 0 0.797482
1 0 0.744991
0 0.279988 0.779995
0.227481 0.227497 0.727504
0.674998 0.17499 0.674998
1 0.122484 0.622492
1 0.0699779 0.570001
0 0.60499 0.60499
0.052491 0.552499 0.552499
0.499992 0.499992 0.499992
0.947494 0.447486 0.447486
1 0.39498 0.394995
0 0.930007 0.429984
0 0.877501 0.377493
0.324987 0.824994 0.324987
0.772503 0.772488 0.27248
1 0.719997 0.219989
0 1 0.254978
0 1 0.202487
0.149981 1 0.149981
0.597498 1 0.0974899
1 1 0.0449836
0 0 1
0.37998 0 1
0.827482 0 1
1 0 1
1 0 1
0 0.257496 1
0.20499 0.20499 1
0.652491 0.152483 1
1 0.0999924 1
1 0.0474861 1
0 0.582498 1
0.029984 0.529992 1
0.477485 0.477501 0.977508
0.925002 0.424994 0.925002
1 0.372488 0.872496
0 0.9075 0.9075
0 0.855009 0.854994
0.302495 0.802502 0.802502
0.749996 0.749996 0.749996
1 0.69749 0.69749
0 1 0.732494
0 1 0.679988
0.127489 1 0.627497
0.57499 1 0.57499
1 1 0.522484
0 0 1
0.357473 0 1
0.80499 0 1
1 0 1
1 0 1
0 0.234989 1
0.182483 0.182498 1
0.629999 0.129992 1
1 0.0774853 1
1 0.024979 1
0 0.559991 1
0.00749218 0.5075 1
0.454994 0.454994 1
0.902495 0.402487 1
1 0.349996 1
0 0.885008 1
0 0.832502 1
0.279988 0.779995 1
0.727489 0.727504 1
1 0.674998 1
0 1 1
0 1 1
0.104982 1 1
0.552499 1 1
1 1 1
