tests/data/oversat_33.cube
TITLE "Generated by Resolve"
LUT_3D_SIZE 9
0 0 0
0.223728 0 0
0.447486 0 0
0.671229 0 0
0.894987 0 0
1 0 0
1 0 0
1 0 0
1 0 0
0 0.162478 0
0.136233 0.136233 0
0.359991 0.109987 0
0.583749 0.0837262 0
0.807492 0.0574807 0
1 0.0312352 0
1 0.00497444 0
1 0 0
1 0 0
0 0.324987 0
0.0487373 0.298741 0
0.27248 0.27248 0
0.496239 0.246235 0
0.719997 0.219989 0
0.943755 0.193729 0
1 0.167483 0
1 0.141222 0
1 0.114977 0
0 0.487495 0
0 0.461234 0
0.184985 0.434989 0
0.408743 0.408743 0
0.632486 0.382483 0
0.856245 0.356237 0
1 0.329976 0
1 0.303731 0
1 0.277485 0
0 0.649989 0
0 0.623743 0
0.0974899 0.597498 0
0.321233 0.571237 0
0.544991 0.544991 0
0.76875 0.51873 0
0.992493 0.492485 0
1 0.466239 0
1 0.439979 0
0 0.812497 0
0 0.786252 0
0.0099794 0.759991 0
0.233738 0.733745 0
0.457496 0.707485 0
0.681239 0.681239 0
0.904997 0.654994 0
1 0.628733 0
1 0.602487 0
0 0.97499 0
0 0.948745 0
0 0.922499 0
0.146242 0.896239 0
0.369985 0.869993 0
0.593744 0.843748 0
0.817502 0.817487 0
1 0.791241 0
1 0.764981 0
0 1 0
0 1 0
0 1 0
0.058732 1 0
0.28249 1 0
0.506249 1 0
0.729992 0.979995 0
0.95375 0.953735 0
1 0.927489 0
0 1 0
0 1 0
0 1 0
0 1 0
0.19498 1 0
0.418738 1 0
0.642496 1 0
0.866239 1 0
1 1 0
0 0 0.238727
0.212482 0 0.212482
0.436225 0 0.186221
0.659983 0 0.159976
0.883741 0 0.13373
1 0 0.107469
1 0 0.0812238
1 0 0.0549783
1 0 0.0287175
0 0.151232 0.151232
0.124987 0.124987 0.124987
0.348745 0.0987411 0.0987411
0.572488 0.0724804 0.0724804
0.796246 0.0462348 0.0462348
1 0.0199741 0.0199893
1 0 0
1 0 0
1 0 0
0 0.313741 0.0637369
0.0374914 0.287495 0.0374914
0.261234 0.261234 0.0112306
0.484993 0.234989 0
0.708751 0.208728 0
0.932494 0.182483 0
1 0.156237 0
1 0.129976 0
1 0.103731 0
0 0.476234 0
0 0.449989 0
0.173739 0.423743 0
0.397498 0.397482 0
0.621241 0.371237 0
0.844999 0.344991 0
1 0.31873 0
1 0.292485 0
1 0.266224 0
0 0.638743 0
0 0.612497 0
0.0862287 0.586236 0
0.309987 0.559991 0
0.533745 0.533745 0
0.757504 0.507485 0
0.981247 0.481239 0
1 0.454978 0
1 0.428733 0
0 0.801251 0
0 0.77499 0
0 0.748745 0
0.222492 0.722499 0
0.446235 0.696239 0
0.669993 0.669993 0
0.893751 0.643732 0
1 0.617487 0
1 0.591241 0
0 0.963745 0
0 0.937499 0
0 0.911254 0
0.134981 0.884993 0
0.35874 0.858747 0
0.582498 0.832486 0
0.806241 0.806241 0
1 0.779995 0
1 0.753735 0
0 1 0
0 1 0
0 1 0
0.0474861 1 0
0.271244 1 0
0.494987 0.994995 0
0.718746 0.96875 0
0.942504 0.942489 0
1 0.916243 0
0 1 0
0 1 0
0 1 0
0 1 0
0.183734 1 0
0.407492 1 0
0.631251 1 0
0.854994 1 0
1 1 0
0 0 0.477485
0.201221 0 0.45124
0.424979 0 0.424979
0.648737 0 0.398733
0.87248 0 0.372488
1 0 0.346227
1 0 0.319982
1 0 0.293736
1 0 0.267475
0 0.139986 0.38999
0.113741 0.113741 0.363745
0.337484 0.08748 0.337484
0.561242 0.0612345 0.311238
0.785 0.0349889 0.284993
1 0.00872816 0.258732
1 0 0.232486
1 0 0.206241
1 0 0.17998
0 0.302495 0.30248
0.0262303 0.276234 0.276234
0.249989 0.249989 0.249989
0.473747 0.223743 0.223743
0.69749 0.197482 0.197482
0.921248 0.171237 0.171237
1 0.144976 0.144991
1 0.11873 0.11873
1 0.0924849 0.0924849
0 0.464988 0.214984
0 0.438743 0.188739
0.162493 0.412497 0.162493
0.386236 0.386236 0.136233
0.609995 0.359991 0.109987
0.833753 0.33373 0.0837415
1 0.307485 0.0574807
1 0.281239 0.0312352
1 0.254978 0.0049897
0 0.627497 0.127489
0 0.601251 0.101228
0.0749828 0.57499 0.0749828
0.298741 0.548745 0.0487373
0.522499 0.522484 0.0224765
0.746242 0.496239 0
0.970001 0.469993 0
1 0.443732 0
1 0.417487 0
0 0.78999 0.0399786
0 0.763745 0.0137331
0 0.737499 0
0.211231 0.711238 0
0.434989 0.684993 0
0.658747 0.658747 0
0.882506 0.632486 0
1 0.606241 0
1 0.57998 0
0 0.952499 0
0 0.926253 0
0 0.899992 0
0.123735 0.873747 0
0.347494 0.847501 0
0.571237 0.821241 0
0.794995 0.794995 0
1 0.768734 0
1 0.742489 0
0 1 0
0 1 0
0 1 0
0.0362402 1 0
0.259983 1 0
0.483742 0.983749 0
0.7075 0.957488 0
0.931243 0.931243 0
1 0.904997 0
0 1 0
0 1 0
0 1 0
0 1 0
0.172488 1 0
0.396246 1 0
0.619989 1 0
0.843748 1 0
1 1 0
0 0 0.716228
0.189975 0 0.689982
0.413733 0 0.663737
0.637476 0 0.637491
0.861234 0 0.611231
1 0 0.584985
1 0 0.55874
1 0 0.532479
1 0 0.506233
0 0.12874 0.628748
0.10248 0.102495 0.602502
0.326238 0.0762341 0.576242
0.549996 0.0499886 0.549996
0.773739 0.0237278 0.523751
0.997497 0 0.49749
1 0 0.471244
1 0 0.444999
1 0 0.418738
0 0.291234 0.541238
0.0149844 0.264988 0.514992
0.238743 0.238743 0.488746
0.462486 0.212482 0.462486
0.686244 0.186236 0.43624
0.910002 0.159991 0.409995
1 0.13373 0.383734
1 0.107485 0.357488
1 0.0812238 0.331243
0 0.453742 0.453742
0 0.427497 0.427497
0.151232 0.401236 0.401236
0.37499 0.37499 0.37499
0.598749 0.348745 0.348745
0.822492 0.322484 0.322484
1 0.296239 0.296239
1 0.269978 0.269993
1 0.243732 0.243732
0 0.616251 0.366232
0 0.58999 0.339986
0.0637369 0.563745 0.313741
0.287495 0.537499 0.287495
0.511238 0.511238 0.261234
0.734997 0.484993 0.234989
0.958755 0.458732 0.208743
1 0.432486 0.182483
1 0.406241 0.156237
0 0.778744 0.278737
0 0.752499 0.252491
0 0.726253 0.22623
0.199985 0.699992 0.199985
0.423743 0.673747 0.173739
0.647501 0.647486 0.147478
0.871244 0.621241 0.121233
1 0.594995 0.0949874
1 0.568734 0.0687266
0 0.941253 0.191226
0 0.915007 0.164981
0 0.888747 0.138735
0.11249 0.862501 0.11249
0.336233 0.83624 0.0862287
0.559991 0.809995 0.0599832
0.783749 0.783749 0.0337377
1 0.757488 0.00747692
1 0.731243 0
0 1 0.103731
0 1 0.0774853
0 1 0.0512398
0.024979 1 0.024979
0.248737 0.998749 0
0.472496 0.972503 0
0.696239 0.946242 0
0.919997 0.919997 0
1 0.893736 0
0 1 0.0162356
0 1 0
0 1 0
0 1 0
0.161242 1 0
0.384985 1 0
0.608743 1 0
0.832502 1 0
1 1 0
0 0 0.954986
0.178729 0 0.92874
0.402487 0 0.902495
0.62623 0 0.876234
0.849989 0 0.849989
1 0 0.823743
1 0 0.797482
1 0 0.771237
1 0 0.744991
0 0.117494 0.867491
0.0912337 0.0912337 0.841245
0.314992 0.0649882 0.815
0.53875 0.0387427 0.788754
0.762493 0.0124819 0.762493
0.986252 0 0.736248
1 0 0.710002
1 0 0.683742
1 0 0.657496
0 0.279988 0.779995
0.00373846 0.253742 0.75375
0.227481 0.227497 0.727504
0.45124 0.201236 0.701244
0.674998 0.17499 0.674998
0.898741 0.14873 0.648753
1 0.122484 0.622492
1 0.0962387 0.596246
1 0.0699779 0.570001
0 0.442496 0.6925
0 0.416251 0.666239
0.139986 0.38999 0.639994
0.363745 0.363745 0.613748
0.587488 0.337484 0.587488
0.811246 0.311238 0.561242
1 0.284993 0.534997
1 0.258732 0.508736
1 0.232486 0.48249
0 0.60499 0.60499
0 0.578744 0.578744
0.052491 0.552499 0.552499
0.276234 0.526238 0.526238
0.499992 0.499992 0.499992
0.723751 0.473747 0.473747
0.947494 0.447486 0.447486
1 0.421241 0.421241
1 0.39498 0.394995
0 0.767498 0.517494
0 0.741253 0.491249
0 0.714992 0.464988
0.188739 0.688746 0.438743
0.412497 0.662501 0.412497
0.63624 0.63624 0.386236
0.859998 0.609995 0.359991
1 0.583734 0.333745
1 0.557488 0.307485
0 0.930007 0.429984
0 0.903746 0.403738
0 0.877501 0.377493
0.101244 0.851255 0.351232
0.324987 0.824994 0.324987
0.548745 0.798749 0.298741
0.772503 0.772488 0.27248
0.996246 0.746242 0.246235
1 0.719997 0.219989
0 1 0.342489
0 1 0.316243
0 1 0.289982
0.0137331 1 0.263737
0.237491 0.987503 0.237491
0.461234 0.961242 0.211231
0.684993 0.934997 0.184985
0.908751 0.908751 0.15874
1 0.88249 0.132479
0 1 0.254978
0 1 0.228733
0 1 0.202487
0 1 0.176242
0.149981 1 0.149981
0.373739 1 0.123735
0.597498 1 0.0974899
0.821241 1 0.0712291
1 1 0.0449836
0 0 1
0.167483 0 1
0.391226 0 1
0.614984 0 1
0.838743 0 1
1 0 1
1 0 1
1 0 1
1 0 0.983734
0 0.106233 1
0.0799878 0.0799878 1
0.303746 0.0537423 1
0.527489 0.0274815 1
0.751247 0.00123598 1
0.975006 0 0.975006
1 0 0.948745
1 0 0.922499
1 0 0.896254
0 0.268742 1
0 0.242496 0.992508
0.216236 0.216236 0.966247
0.439994 0.18999 0.940002
0.663752 0.163745 0.913756
0.887495 0.137484 0.887495
1 0.111238 0.86125
1 0.0849775 0.835004
1 0.058732 0.808743
0 0.43125 0.931243
0 0.40499 0.904997
0.12874 0.378744 0.878752
0.352483 0.352499 0.852506
0.576242 0.326238 0.826246
0.8 0.299992 0.8
1 0.273732 0.773754
1 0.247486 0.747494
1 0.221241 0.721248
0 0.593744 0.843748
0 0.567498 0.817502
0.0412299 0.541253 0.791241
0.264988 0.514992 0.764996
0.488746 0.488746 0.73875
0.712489 0.462486 0.712489
0.936248 0.43624 0.686244
1 0.409995 0.659998
1 0.383734 0.633738
0 0.756252 0.756237
0 0.730007 0.729992
0 0.703746 0.703746
0.177493 0.677501 0.677501
0.401236 0.65124 0.65124
0.624994 0.624994 0.624994
0.848753 0.598749 0.598749
1 0.572488 0.572488
1 0.546242 0.546242
0 0.918746 0.668742
0 0.8925 0.642496
0 0.866255 0.616251
0.0899825 0.839994 0.58999
0.313741 0.813748 0.563745
0.537499 0.787503 0.537499
0.761242 0.761242 0.511238
0.985 0.734997 0.484993
1 0.708736 0.458747
0 1 0.581247
0 1 0.554986
0 1 0.52874
0.00248722 1 0.502495
0.226246 0.976257 0.476234
0.449989 0.949996 0.449989
0.673747 0.923751 0.423743
0.897505 0.89749 0.397482
1 0.871244 0.371237
0 1 0.493736
0 1 0.467491
0 1 0.441245
0 1 0.414984
0.138735 1 0.388739
0.362493 1 0.362493
0.586236 1 0.336233
0.809995 1 0.309987
1 1 0.283742
0 0 1
0.156222 0 1
0.37998 0 1
0.603738 0 1
0.827482 0 1
1 0 1
1 0 1
1 0 1
1 0 1
0 0.0949874 1
0.0687419 0.0687419 1
0.292485 0.0424964 1
0.516243 0.0162356 1
0.740001 0 1
0.963745 0 1
1 0 1
1 0 1
1 0 1
0 0.257496 1
0 0.23125 1
0.20499 0.20499 1
0.428748 0.178744 1
0.652491 0.152483 1
0.876249 0.126238 1
1 0.0999924 1
1 0.0737316 1
1 0.0474861 1
0 0.419989 1
0 0.393744 1
0.117479 0.367498 1
0.341238 0.341238 1
0.564996 0.314992 1
0.788754 0.288746 1
1 0.262486 1
1 0.23624 0.986252
1 0.209979 0.960006
0 0.582498 1
0 0.556252 1
0.029984 0.529992 1
0.253742 0.503746 1
0.477485 0.477501 0.977508
0.701244 0.45124 0.951247
0.925002 0.424994 0.925002
1 0.398733 0.898756
1 0.372488 0.872496
0 0.745007 0.994995
0 0.718746 0.96875
0 0.6925 0.942504
0.166232 0.666255 0.916243
0.38999 0.639994 0.889998
0.613748 0.613748 0.863752
0.837491 0.587488 0.837491
1 0.561242 0.811246
1 0.534997 0.785
0 0.9075 0.9075
0 0.881254 0.881254
0 0.855009 0.854994
0.0787366 0.828748 0.828748
0.302495 0.802502 0.802502
0.526238 0.776242 0.776242
0.749996 0.749996 0.749996
0.973754 0.723751 0.723751
1 0.69749 0.69749
0 1 0.819989
0 1 0.793744
0 1 0.767498
0 0.991257 0.741253
0.214984 0.964996 0.714992
0.438743 0.93875 0.688746
0.662501 0.912505 0.662501
0.886244 0.886244 0.63624
1 0.859998 0.609995
0 1 0.732494
0 1 0.706249
0 1 0.679988
0 1 0.653742
0.127489 1 0.627497
0.351247 1 0.601236
0.57499 1 0.57499
0.798749 1 0.548745
1 1 0.522484
0 0 1
0.144976 0 1
0.368734 0 1
0.592477 0 1
0.816236 0 1
1 0 1
1 0 1
1 0 1
1 0 1
0 0.0837415 1
0.0574807 0.057496 1
0.281239 0.0312352 1
0.504997 0.0049897 1
0.72874 0 1
0.952499 0 1
1 0 1
1 0 1
1 0 1
0 0.246235 1
0 0.219989 1
0.193744 0.193744 1
0.417487 0.167498 1
0.641245 0.141238 1
0.865003 0.114992 1
1 0.0887312 1
1 0.0624857 1
1 0.0362402 1
0 0.408743 1
0 0.382498 1
0.106233 0.356252 1
0.329992 0.329992 1
0.55375 0.303746 1
0.777493 0.277485 1
1 0.25124 1
1 0.224994 1
1 0.198734 1
0 0.571252 1
0 0.545007 1
0.0187381 0.518746 1
0.242481 0.4925 1
0.466239 0.466239 1
0.689998 0.439994 1
0.913756 0.413748 1
1 0.387488 1
1 0.361242 1
0 0.733745 1
0 0.7075 1
0 0.681254 1
0.154986 0.654994 1
0.378744 0.628748 1
0.602487 0.602502 1
0.826246 0.576242 1
1 0.549996 1
1 0.523735 1
0 0.896254 1
0 0.870008 1
0 0.843748 1
0.0674907 0.817502 1
0.291234 0.791257 1
0.514992 0.764996 1
0.73875 0.73875 0.988754
0.962493 0.712489 0.962493
1 0.686244 0.936248
0 1 1
0 1 1
0 1 1
0 0.980011 0.979995
0.203738 0.95375 0.95375
0.427497 0.927504 0.927504
0.65124 0.901244 0.901244
0.874998 0.874998 0.874998
1 0.848753 0.848753
0 1 0.971252
0 1 0.945006
0 1 0.918746
0 1 0.8925
0.116243 1 0.866255
0.339986 1 0.839994
0.563745 1 0.813748
0.787503 1 0.787503
1 1 0.761242
0 0 1
0.13373 0 1
0.357473 0 1
0.581231 0 1
0.80499 0 1
1 0 1
1 0 1
1 0 1
1 0 1
0 0.0724956 1
0.0462348 0.0462348 1
0.269993 0.0199893 1
0.493736 0 1
0.717494 0 1
0.941253 0 1
1 0 1
1 0 1
1 0 1
0 0.234989 1
0 0.208743 1
0.182483 0.182498 1
0.406241 0.156237 1
0.629999 0.129992 1
0.853742 0.103746 1
1 0.0774853 1
1 0.0512398 1
1 0.024979 1
0 0.397498 1
0 0.371252 1
0.0949874 0.344991 1
0.318746 0.318746 1
0.542489 0.292485 1
0.766247 0.266239 1
0.990005 0.239994 1
1 0.213733 1
1 0.187488 1
0 0.559991 1
0 0.533745 1
0.00749218 0.5075 1
0.231235 0.481254 1
0.454994 0.454994 1
0.678752 0.428748 1
0.902495 0.402487 1
1 0.376242 1
1 0.349996 1
0 0.722499 1
0 0.696254 1
0 0.669993 1
0.14374 0.643748 1
0.367483 0.617502 1
0.591241 0.591241 1
0.815 0.564996 1
1 0.53875 1
1 0.512489 1
0 0.885008 1
0 0.858747 1
0 0.832502 1
0.0562295 0.806256 1
0.279988 0.779995 1
0.503746 0.75375 1
0.727489 0.727504 1
0.951247 0.701244 1
1 0.674998 1
0 1 1
0 1 1
0 0.99501 1
0 0.96875 1
0.192493 0.942504 1
0.416236 0.916259 1
0.639994 0.889998 1
0.863752 0.863752 1
1 0.837491 1
0 1 1
0 1 1
0 1 1
0 1 1
0.104982 1 1
0.32874 1 1
0.552499 1 1
0.776242 1 1
1 1 1
