tests/data/oversat_33.cube
TITLE "Generated by Resolve"
LUT_3D_SIZE 33
0 0 0
0.0559091 0 0
0.111849 0 0
0.167788 0 0
0.223728 0 0
0.279667 0 0
0.335607 0 0
0.391546 0 0
0.447486 0 0
0.50341 0 0
0.55935 0 0
0.61529 0 0
0.671229 0 0
0.727169 0 0
0.783108 0 0
0.839048 0 0
0.894987 0 0
0.950927 0 0
1 0 0
1 0 0
1 0 0
1 0 0
1 0 0
1 0 0
1 0 0
1 0 0
1 0 0
1 0 0
1 0 0
1 0 0
1 0 0
1 0 0
1 0 0
0 0.0406043 0
0.0340429 0.0340429 0
0.0899825 0.0274815 0
0.145922 0.0209201 0
0.201862 0.0143587 0
0.257801 0.00779736 0
0.313741 0.00123598 0
0.36968 0 0
0.42562 0 0
0.481559 0 0
0.537499 0 0
0.593423 0 0
0.649363 0 0
0.705303 0 0
0.761242 0 0
0.817182 0 0
0.873121 0 0
0.929061 0 0
0.985 0 0
1 0 0
1 0 0
1 0 0
1 0 0
1 0 0
1 0 0
1 0 0
1 0 0
1 0 0
1 0 0
1 0 0
1 0 0
1 0 0
1 0 0
0 0.081239 0
0.0121767 0.0746777 0
0.0681163 0.0681163 0
0.124041 0.0615396 0
0.17998 0.0549783 0
0.23592 0.0484169 0
0.291859 0.0418555 0
0.347799 0.0352941 0
0.403738 0.0287327 0
0.459678 0.0221714 0
0.515618 0.01561 0
0.571557 0.0090486 0
0.627497 0.00248722 0
0.683436 0 0
0.739376 0 0
0.795316 0 0
0.85124 0 0
0.907179 0 0
0.963119 0 0
1 0 0
1 0 0
1 0 0
1 0 0
1 0 0
1 0 0
1 0 0
1 0 0
1 0 0
1 0 0
1 0 0
1 0 0
1 0 0
1 0 0
0 0.121859 0
0 0.115297 0
0.0462348 0.108736 0
0.102174 0.102174 0
0.158114 0.095613 0
0.214054 0.0890516 0
0.269993 0.0824903 0
0.325933 0.0759136 0
0.381857 0.0693523 0
0.437797 0.0627909 0
0.493736 0.0562295 0
0.549676 0.0496681 0
0.605615 0.0431067 0
0.661555 0.0365454 0
0.717494 0.029984 0
0.773434 0.0234226 0
0.829374 0.0168612 0
0.885313 0.0102846 0
0.941253 0.0037232 0
0.997192 0 0
1 0 0
1 0 0
1 0 0
1 0 0
1 0 0
1 0 0
1 0 0
1 0 0
1 0 0
1 0 0
1 0 0
1 0 0
1 0 0
0 0.162478 0
0 0.155917 0
0.0243534 0.149355 0
0.080293 0.142794 0
0.136233 0.136233 0
0.192172 0.129671 0
0.248112 0.12311 0
0.304051 0.116548 0
0.359991 0.109987 0
0.41593 0.103426 0
0.47187 0.0968643 0
0.52781 0.0902876 0
0.583749 0.0837262 0
0.639673 0.0771649 0
0.695613 0.0706035 0
0.751553 0.0640421 0
0.807492 0.0574807 0
0.863432 0.0509194 0
0.919371 0.044358 0
0.975311 0.0377966 0
1 0.0312352 0
1 0.0246586 0
1 0.0180972 0
1 0.0115358 0
1 0.00497444 0
1 0 0
1 0 0
1 0 0
1 0 0
1 0 0
1 0 0
1 0 0
1 0 0
0 0.203113 0
0 0.196551 0
0.00248722 0.18999 0
0.0584268 0.183429 0
0.114366 0.176867 0
0.170306 0.170291 0
0.22623 0.163729 0
0.28217 0.157168 0
0.338109 0.150607 0
0.394049 0.144045 0
0.449989 0.137484 0
0.505928 0.130922 0
0.561868 0.124361 0
0.617807 0.1178 0
0.673747 0.111238 0
0.729686 0.104662 0
0.785626 0.0981003 0
0.841566 0.0915389 0
0.89749 0.0849775 0
0.953429 0.0784161 0
1 0.0718547 0
1 0.0652934 0
1 0.058732 0
1 0.0521706 0
1 0.0456092 0
1 0.0390326 0
1 0.0324712 0
1 0.0259098 0
1 0.0193484 0
1 0.0127871 0
1 0.00622568 0
1 0 0
1 0 0
0 0.243732 0
0 0.237171 0
0 0.23061 0
0.0365454 0.224048 0
0.0924849 0.217487 0
0.148425 0.210925 0
0.204364 0.204364 0
0.260304 0.197803 0
0.316243 0.191241 0
0.372183 0.184665 0
0.428122 0.178103 0
0.484047 0.171542 0
0.539986 0.164981 0
0.595926 0.158419 0
0.651865 0.151858 0
0.707805 0.145296 0
0.763745 0.138735 0
0.819684 0.132174 0
0.875624 0.125612 0
0.931563 0.119036 0
0.987503 0.112474 0
1 0.105913 0
1 0.0993515 0
1 0.0927901 0
1 0.0862287 0
1 0.0796674 0
1 0.073106 0
1 0.0665446 0
1 0.0599832 0
1 0.0534218 0
1 0.0468452 0
1 0.0402838 0
1 0.0337224 0
0 0.284367 0
0 0.277806 0
0 0.271244 0
0.0146639 0.264668 0
0.0706035 0.258106 0
0.126543 0.251545 0
0.182483 0.244984 0
0.238422 0.238422 0
0.294362 0.231861 0
0.350301 0.225299 0
0.406241 0.218738 0
0.462181 0.212177 0
0.51812 0.205615 0
0.57406 0.199039 0
0.629999 0.192477 0
0.685939 0.185916 0
0.741863 0.179355 0
0.797803 0.172793 0
0.853742 0.166232 0
0.909682 0.15967 0
0.965621 0.153109 0
1 0.146548 0
1 0.139986 0
1 0.13341 0
1 0.126848 0
1 0.120287 0
1 0.113725 0
1 0.107164 0
1 0.100603 0
1 0.0940414 0
1 0.08748 0
1 0.0809186 0
1 0.0743572 0
0 0.324987 0
0 0.318425 0
0 0.311864 0
0 0.305303 0
0.0487373 0.298741 0
0.104677 0.29218 0
0.160616 0.285618 0
0.216556 0.279042 0
0.27248 0.27248 0
0.32842 0.265919 0
0.38436 0.259358 0
0.440299 0.252796 0
0.496239 0.246235 0
0.552178 0.239673 0
0.608118 0.233112 0
0.664057 0.226551 0
0.719997 0.219989 0
0.775937 0.213413 0
0.831876 0.206851 0
0.887816 0.20029 0
0.943755 0.193729 0
0.99968 0.187167 0
1 0.180606 0
1 0.174044 0
1 0.167483 0
1 0.160922 0
1 0.15436 0
1 0.147799 0
1 0.141222 0
1 0.134661 0
1 0.128099 0
1 0.121538 0
1 0.114977 0
0 0.365606 0
0 0.359045 0
0 0.352483 0
0 0.345922 0
0.0268559 0.339361 0
0.0827955 0.332799 0
0.138735 0.326238 0
0.194675 0.319677 0
0.250614 0.313115 0
0.306554 0.306554 0
0.362493 0.299992 0
0.418433 0.293416 0
0.474372 0.286854 0
0.530297 0.280293 0
0.586236 0.273732 0
0.642176 0.26717 0
0.698116 0.260609 0
0.754055 0.254047 0
0.809995 0.247486 0
0.865934 0.240925 0
0.921874 0.234363 0
0.977813 0.227787 0
1 0.221225 0
1 0.214664 0
1 0.208103 0
1 0.201541 0
1 0.19498 0
1 0.188418 0
1 0.181857 0
1 0.175296 0
1 0.168734 0
1 0.162173 0
1 0.155596 0
0 0.406241 0
0 0.39968 0
0 0.393118 0
0 0.386557 0
0.0049897 0.379995 0
0.0609293 0.373419 0
0.116854 0.366857 0
0.172793 0.360296 0
0.228733 0.353735 0
0.284672 0.347173 0
0.340612 0.340612 0
0.396551 0.334051 0
0.452491 0.327489 0
0.508431 0.320928 0
0.56437 0.314366 0
0.62031 0.30779 0
0.676249 0.301228 0
0.732189 0.294667 0
0.788113 0.288106 0
0.844053 0.281544 0
0.899992 0.274983 0
0.955932 0.268421 0
1 0.26186 0
1 0.255299 0
1 0.248737 0
1 0.242161 0
1 0.235599 0
1 0.229038 0
1 0.222477 0
1 0.215915 0
1 0.209354 0
1 0.202792 0
1 0.196231 0
0 0.44686 0
0 0.440299 0
0 0.433738 0
0 0.427176 0
0 0.420615 0
0.0390478 0.414054 0
0.0949874 0.407492 0
0.150927 0.400931 0
0.206867 0.394369 0
0.262806 0.387793 0
0.318746 0.381231 0
0.37467 0.37467 0
0.43061 0.368109 0
0.486549 0.361547 0
0.542489 0.354986 0
0.598428 0.348424 0
0.654368 0.341863 0
0.710307 0.335302 0
0.766247 0.32874 0
0.822187 0.322164 0
0.878126 0.315602 0
0.934066 0.309041 0
0.990005 0.30248 0
1 0.295918 0
1 0.289357 0
1 0.282795 0
1 0.276234 0
1 0.269673 0
1 0.263111 0
1 0.25655 0
1 0.249973 0
1 0.243412 0
1 0.236851 0
0 0.487495 0
0 0.480934 0
0 0.474372 0
0 0.467796 0
0 0.461234 0
0.0171664 0.454673 0
0.073106 0.448112 0
0.129046 0.44155 0
0.184985 0.434989 0
0.240925 0.428428 0
0.296864 0.421866 0
0.352804 0.415305 0
0.408743 0.408743 0
0.464683 0.402167 0
0.520623 0.395605 0
0.576562 0.389044 0
0.632486 0.382483 0
0.688426 0.375921 0
0.744366 0.36936 0
0.800305 0.362799 0
0.856245 0.356237 0
0.912184 0.349676 0
0.968124 0.343114 0
1 0.336553 0
1 0.329976 0
1 0.323415 0
1 0.316854 0
1 0.310292 0
1 0.303731 0
1 0.297169 0
1 0.290608 0
1 0.284047 0
1 0.277485 0
0 0.528115 0
0 0.521553 0
0 0.514992 0
0 0.508431 0
0 0.501869 0
0 0.495308 0
0.0512398 0.488746 0
0.107179 0.48217 0
0.163104 0.475608 0
0.219043 0.469047 0
0.274983 0.462486 0
0.330922 0.455924 0
0.386862 0.449363 0
0.442802 0.442802 0
0.498741 0.43624 0
0.554681 0.429679 0
0.61062 0.423117 0
0.66656 0.416541 0
0.722499 0.409979 0
0.778439 0.403418 0
0.834379 0.396857 0
0.890303 0.390295 0
0.946242 0.383734 0
1 0.377172 0
1 0.370611 0
1 0.36405 0
1 0.357488 0
1 0.350927 0
1 0.34435 0
1 0.337789 0
1 0.331228 0
1 0.324666 0
1 0.318105 0
0 0.568734 0
0 0.562173 0
0 0.555611 0
0 0.54905 0
0 0.542489 0
0 0.535927 0
0.0293584 0.529366 0
0.0852979 0.522805 0
0.141238 0.516243 0
0.197177 0.509682 0
0.253117 0.50312 0
0.309056 0.496544 0
0.364996 0.489982 0
0.42092 0.483421 0
0.47686 0.47686 0
0.532799 0.470298 0
0.588739 0.463737 0
0.644678 0.457176 0
0.700618 0.450614 0
0.756558 0.444053 0
0.812497 0.437491 0
0.868437 0.43093 0
0.924376 0.424353 0
0.980316 0.417792 0
1 0.411231 0
1 0.404669 0
1 0.398108 0
1 0.391546 0
1 0.384985 0
1 0.378424 0
1 0.371862 0
1 0.365301 0
1 0.358724 0
0 0.609369 0
0 0.602808 0
0 0.596246 0
0 0.589685 0
0 0.583124 0
0 0.576547 0
0.00747692 0.569986 0
0.0634165 0.563424 0
0.119356 0.556863 0
0.175296 0.550301 0
0.231235 0.54374 0
0.287175 0.537179 0
0.343114 0.530617 0
0.399054 0.524056 0
0.454994 0.517494 0
0.510933 0.510918 0
0.566873 0.504356 0
0.622812 0.497795 0
0.678737 0.491234 0
0.734676 0.484672 0
0.790616 0.478111 0
0.846555 0.47155 0
0.902495 0.464988 0
0.958434 0.458427 0
1 0.451865 0
1 0.445304 0
1 0.438727 0
1 0.432166 0
1 0.425605 0
1 0.419043 0
1 0.412482 0
1 0.405921 0
1 0.399359 0
0 0.649989 0
0 0.643427 0
0 0.636866 0
0 0.630304 0
0 0.623743 0
0 0.617182 0
0 0.61062 0
0.0415503 0.604059 0
0.0974899 0.597498 0
0.153429 0.590921 0
0.209369 0.58436 0
0.265293 0.577798 0
0.321233 0.571237 0
0.377172 0.564675 0
0.433112 0.558114 0
0.489052 0.551553 0
0.544991 0.544991 0
0.600931 0.53843 0
0.65687 0.531868 0
0.71281 0.525307 0
0.76875 0.51873 0
0.824689 0.512169 0
0.880629 0.505608 0
0.936553 0.499046 0
0.992493 0.492485 0
1 0.485924 0
1 0.479362 0
1 0.472801 0
1 0.466239 0
1 0.459678 0
1 0.453101 0
1 0.44654 0
1 0.439979 0
0 0.690623 0
0 0.684062 0
0 0.677501 0
0 0.670924 0
0 0.664363 0
0 0.657801 0
0 0.65124 0
0.0196689 0.644678 0
0.0756085 0.638117 0
0.131548 0.631556 0
0.187488 0.624994 0
0.243427 0.618433 0
0.299367 0.611872 0
0.355306 0.605295 0
0.411246 0.598733 0
0.467185 0.592172 0
0.52311 0.585611 0
0.579049 0.579049 0
0.634989 0.572488 0
0.690929 0.565927 0
0.746868 0.559365 0
0.802808 0.552804 0
0.858747 0.546242 0
0.914687 0.539681 0
0.970626 0.533104 0
1 0.526543 0
1 0.519982 0
1 0.51342 0
1 0.506859 0
1 0.500298 0
1 0.493736 0
1 0.487175 0
1 0.480613 0
0 0.731243 0
0 0.724681 0
0 0.71812 0
0 0.711559 0
0 0.704997 0
0 0.698436 0
0 0.691875 0
0 0.685298 0
0.053727 0.678737 0
0.109667 0.672175 0
0.165606 0.665614 0
0.221546 0.659052 0
0.277485 0.652491 0
0.333425 0.64593 0
0.389364 0.639368 0
0.445304 0.632807 0
0.501244 0.626245 0
0.557183 0.619669 0
0.613123 0.613108 0
0.669062 0.606546 0
0.725002 0.599985 0
0.780926 0.593423 0
0.836866 0.586862 0
0.892805 0.580301 0
0.948745 0.573739 0
1 0.567178 0
1 0.560616 0
1 0.554055 0
1 0.547478 0
1 0.540917 0
1 0.534356 0
1 0.527794 0
1 0.521233 0
0 0.771862 0
0 0.765301 0
0 0.75874 0
0 0.752178 0
0 0.745617 0
0 0.739055 0
0 0.732494 0
0 0.725933 0
0.0318608 0.719371 0
0.0878004 0.71281 0
0.14374 0.706249 0
0.19968 0.699672 0
0.255619 0.693111 0
0.311543 0.686549 0
0.367483 0.679988 0
0.423423 0.673426 0
0.479362 0.666865 0
0.535302 0.660304 0
0.591241 0.653742 0
0.647181 0.647181 0
0.70312 0.64062 0
0.75906 0.634058 0
0.815 0.627482 0
0.870939 0.62092 0
0.926879 0.614359 0
0.982818 0.607797 0
1 0.601236 0
1 0.594675 0
1 0.588113 0
1 0.581552 0
1 0.57499 0
1 0.568429 0
1 0.561852 0
0 0.812497 0
0 0.805936 0
0 0.799374 0
0 0.792813 0
0 0.786252 0
0 0.779675 0
0 0.773114 0
0 0.766552 0
0.0099794 0.759991 0
0.065919 0.753429 0
0.121859 0.746868 0
0.177798 0.740307 0
0.233738 0.733745 0
0.289677 0.727184 0
0.345617 0.720623 0
0.401556 0.714046 0
0.457496 0.707485 0
0.513436 0.700923 0
0.56936 0.694362 0
0.625299 0.6878 0
0.681239 0.681239 0
0.737179 0.674678 0
0.793118 0.668116 0
0.849058 0.661555 0
0.904997 0.654994 0
0.960937 0.648432 0
1 0.641855 0
1 0.635294 0
1 0.628733 0
1 0.622171 0
1 0.61561 0
1 0.609049 0
1 0.602487 0
0 0.853117 0
0 0.846555 0
0 0.839994 0
0 0.833432 0
0 0.826871 0
0 0.82031 0
0 0.813748 0
0 0.807187 0
0 0.800626 0
0.0440528 0.794049 0
0.0999924 0.787488 0
0.155917 0.780926 0
0.211856 0.774365 0
0.267796 0.767803 0
0.323735 0.761242 0
0.379675 0.754681 0
0.435615 0.748119 0
0.491554 0.741558 0
0.547494 0.734997 0
0.603433 0.728435 0
0.659373 0.721859 0
0.715312 0.715297 0
0.771252 0.708736 0
0.827176 0.702174 0
0.883116 0.695613 0
0.939055 0.689052 0
0.994995 0.68249 0
1 0.675929 0
1 0.669367 0
1 0.662806 0
1 0.656229 0
1 0.649668 0
1 0.643107 0
0 0.893751 0
0 0.88719 0
0 0.880629 0
0 0.874052 0
0 0.867491 0
0 0.860929 0
0 0.854368 0
0 0.847807 0
0 0.841245 0
0.0221714 0.834684 0
0.0781109 0.828122 0
0.134051 0.821561 0
0.18999 0.815 0
0.24593 0.808423 0
0.301869 0.801862 0
0.357809 0.7953 0
0.413733 0.788739 0
0.469673 0.782177 0
0.525612 0.775616 0
0.581552 0.769055 0
0.637491 0.762493 0
0.693431 0.755932 0
0.749371 0.749371 0
0.80531 0.742809 0
0.86125 0.736233 0
0.917189 0.729671 0
0.973129 0.72311 0
1 0.716548 0
1 0.709987 0
1 0.703426 0
1 0.696864 0
1 0.690303 0
1 0.683742 0
0 0.934371 0
0 0.92781 0
0 0.921248 0
0 0.914687 0
0 0.908125 0
0 0.901564 0
0 0.895003 0
0 0.888426 0
0 0.881865 0
0.000289921 0.875303 0
0.0562295 0.868742 0
0.112169 0.862181 0
0.168109 0.855619 0
0.224048 0.849058 0
0.279988 0.842496 0
0.335927 0.835935 0
0.391867 0.829374 0
0.447807 0.822812 0
0.503746 0.816236 0
0.559686 0.809674 0
0.615625 0.803113 0
0.67155 0.796551 0
0.727489 0.78999 0
0.783429 0.783429 0
0.839368 0.776867 0
0.895308 0.770306 0
0.951247 0.763745 0
1 0.757183 0
1 0.750607 0
1 0.744045 0
1 0.737484 0
1 0.730922 0
1 0.724361 0
0 0.97499 0
0 0.968429 0
0 0.961868 0
0 0.955306 0
0 0.948745 0
0 0.942184 0
0 0.935622 0
0 0.929061 0
0 0.922499 0
0 0.915938 0
0.0343633 0.909377 0
0.0903029 0.9028 0
0.146242 0.896239 0
0.202167 0.889677 0
0.258106 0.883116 0
0.314046 0.876554 0
0.369985 0.869993 0
0.425925 0.863432 0
0.481865 0.85687 0
0.537804 0.850309 0
0.593744 0.843748 0
0.649683 0.837186 0
0.705623 0.83061 0
0.761563 0.824048 0
0.817502 0.817487 0
0.873442 0.810925 0
0.929366 0.804364 0
0.985306 0.797803 0
1 0.791241 0
1 0.78468 0
1 0.778119 0
1 0.771557 0
1 0.764981 0
0 1 0
0 1 0
0 1 0
0 0.995941 0
0 0.98938 0
0 0.982803 0
0 0.976242 0
0 0.96968 0
0 0.963119 0
0 0.956558 0
0.0124819 0.949996 0
0.0684215 0.943435 0
0.124361 0.936873 0
0.180301 0.930312 0
0.23624 0.923751 0
0.29218 0.917189 0
0.348119 0.910613 0
0.404059 0.904051 0
0.459983 0.89749 0
0.515923 0.890929 0
0.571862 0.884367 0
0.627802 0.877806 0
0.683742 0.871244 0
0.739681 0.864683 0
0.795621 0.858122 0
0.85156 0.85156 0
0.9075 0.844984 0
0.963439 0.838422 0
1 0.831861 0
1 0.825299 0
1 0.818738 0
1 0.812177 0
1 0.805615 0
0 1 0
0 1 0
0 1 0
0 1 0
0 1 0
0 1 0
0 1 0
0 1 0
0 1 0
0 0.997177 0
0 0.990616 0
0.04654 0.984054 0
0.10248 0.977493 0
0.158419 0.970932 0
0.214359 0.96437 0
0.270298 0.957809 0
0.326238 0.951247 0
0.382177 0.944686 0
0.438117 0.938125 0
0.494057 0.931563 0
0.549996 0.924987 0
0.605936 0.918425 0
0.661875 0.911864 0
0.7178 0.905303 0
0.773739 0.898741 0
0.829679 0.89218 0
0.885618 0.885618 0
0.941558 0.879057 0
0.997497 0.872496 0
1 0.865934 0
1 0.859358 0
1 0.852796 0
1 0.846235 0
0 1 0
0 1 0
0 1 0
0 1 0
0 1 0
0 1 0
0 1 0
0 1 0
0 1 0
